(Project KidWallRuler2)
(Created by Estlcam version 11 build 11.029)
(Machining time about 00:00:44 hours)

(Required tools:)
(1/2" Chamfer)
G21
G90
G94
M03 S24000
G00 Z5.0000


(No. 1: Carve 1)
G00 X7.4558 Y6.3500
G01 Z-3.1750 F1270 S24000
G01 X7.3558
G01 X7.2557
G01 X7.1556
G01 X7.0555
G01 X6.9554
G01 X6.8554
G01 X6.7553
G01 X6.6552
G01 X6.5551
G01 X6.4551 Y6.3293 Z-3.1646
G01 X6.3550 Y6.2898 Z-3.1449
G01 X6.2549 Y6.2503 Z-3.1251
G01 X6.1548 Y6.1548 Z-3.0774
G01 X6.0547 Y6.0547 Z-3.0274
G01 X5.9547 Y5.9547 Z-2.9773
G01 X5.8546 Y5.8546 Z-2.9273
G01 X5.7545 Y5.7545 Z-2.8773
G01 X5.6544 Y5.6544 Z-2.8272
G01 X5.5543 Y5.5543 Z-2.7772
G01 X5.4543 Y5.4543 Z-2.7271
G01 X5.3542 Y5.3542 Z-2.6771
G01 X5.2541 Y5.2541 Z-2.6271
G01 X5.1540 Y5.1540 Z-2.5770
G01 X5.0540 Y5.0540 Z-2.5270
G01 X4.9539 Y4.9539 Z-2.4769
G01 X4.8538 Y4.8538 Z-2.4269
G01 X4.7537 Y4.7537 Z-2.3769
G01 X4.6536 Y4.6536 Z-2.3268
G01 X4.5536 Y4.5536 Z-2.2768
G01 X4.4535 Y4.4535 Z-2.2267
G01 X4.3534 Y4.3534 Z-2.1767
G01 X4.2533 Y4.2533 Z-2.1267
G01 X4.1533 Y4.1533 Z-2.0766
G01 X4.0532 Y4.0532 Z-2.0266
G01 X3.9531 Y3.9531 Z-1.9765
G01 X3.8530 Y3.8530 Z-1.9265
G01 X3.7529 Y3.7529 Z-1.8765
G01 X3.6529 Y3.6529 Z-1.8264
G01 X3.5528 Y3.5528 Z-1.7764
G01 X3.4527 Y3.4527 Z-1.7264
G01 X3.3526 Y3.3526 Z-1.6763
G01 X3.2525 Y3.2525 Z-1.6263
G01 X3.1525 Y3.1525 Z-1.5762
G01 X3.0524 Y3.0524 Z-1.5262
G01 X2.9523 Y2.9523 Z-1.4762
G01 X2.8522 Y2.8522 Z-1.4261
G01 X2.7522 Y2.7522 Z-1.3761
G01 X2.6521 Y2.6521 Z-1.3260
G01 X2.5520 Y2.5520 Z-1.2760
G01 X2.4519 Y2.4519 Z-1.2260
G01 X2.3518 Y2.3518 Z-1.1759
G01 X2.2518 Y2.2518 Z-1.1259
G01 X2.1517 Y2.1517 Z-1.0758
G01 X2.0516 Y2.0516 Z-1.0258
G01 X1.9515 Y1.9515 Z-0.9758
G01 X1.8514 Y1.8514 Z-0.9257
G01 X1.7514 Y1.7514 Z-0.8757
G01 X1.6513 Y1.6513 Z-0.8256
G01 X1.5512 Y1.5512 Z-0.7756
G01 X1.4511 Y1.4511 Z-0.7256
G01 X1.3511 Y1.3511 Z-0.6755
G01 X1.2510 Y1.2510 Z-0.6255
G01 X1.1509 Y1.1509 Z-0.5755
G01 X1.0508 Y1.0508 Z-0.5254
G01 X0.9507 Y0.9507 Z-0.4754
G01 X0.8507 Y0.8507 Z-0.4253
G01 X0.7506 Y0.7506 Z-0.3753
G01 X0.6505 Y0.6505 Z-0.3253
G01 X0.5504 Y0.5504 Z-0.2752
G01 X0.4504 Y0.4504 Z-0.2252
G01 X0.3503 Y0.3503 Z-0.1751
G01 X0.2502 Y0.2502 Z-0.1251
G01 X0.1501 Y0.1501 Z-0.0751
G01 X0.0500 Y0.0500 Z-0.0250
G01 X0.0000 Y0.0000 Z0.0000
G01 X0.0498 Y0.0498 Z-0.0249
G01 X0.1493 Y0.1493 Z-0.0747
G01 X0.2489 Y0.2489 Z-0.1244
G01 X0.4479 Y0.4479 Z-0.2240
G01 X0.6470 Y0.6470 Z-0.3235
G01 X0.8461 Y0.8461 Z-0.4231
G01 X1.0452 Y1.0452 Z-0.5226
G01 X1.2443 Y1.2443 Z-0.6221
G01 X1.4434 Y1.4434 Z-0.7217
G01 X1.6425 Y1.6425 Z-0.8212
G01 X1.8416 Y1.8416 Z-0.9208
G01 X2.0406 Y2.0406 Z-1.0203
G01 X2.2397 Y2.2397 Z-1.1199
G01 X2.4388 Y2.4388 Z-1.2194
G01 X2.6379 Y2.6379 Z-1.3190
G01 X2.8370 Y2.8370 Z-1.4185
G01 X3.0361 Y3.0361 Z-1.5180
G01 X3.2352 Y3.2352 Z-1.6176
G01 X3.4343 Y3.4343 Z-1.7171
G01 X3.6333 Y3.6333 Z-1.8167
G01 X3.8324 Y3.8324 Z-1.9162
G01 X4.0315 Y4.0315 Z-2.0158
G01 X4.2306 Y4.2306 Z-2.1153
G01 X4.4297 Y4.4297 Z-2.2148
G01 X4.6288 Y4.6288 Z-2.3144
G01 X4.8279 Y4.8279 Z-2.4139
G01 X5.0270 Y5.0270 Z-2.5135
G01 X5.2260 Y5.2260 Z-2.6130
G01 X5.4251 Y5.4251 Z-2.7126
G01 X5.6242 Y5.6242 Z-2.8121
G01 X5.8233 Y5.8233 Z-2.9117
G01 X6.0224 Y6.0224 Z-3.0112
G01 X6.2215 Y6.2215 Z-3.1107
G01 X6.0774 Y6.3210 Z-3.0387
G01 X5.8481 Y6.4206 Z-2.9240
G01 X5.6187 Y6.5201 Z-2.8094
G01 X5.3894 Y6.6196 Z-2.6947
G01 X5.1601 Y6.7192 Z-2.5800
G01 X4.9307 Y6.8187 Z-2.4654
G01 X4.7014 Y6.9183 Z-2.3507
G01 X4.4720 Y7.0178 Z-2.2360
G01 X4.2427 Y7.1174 Z-2.1214
G01 X4.0134 Y7.2169 Z-2.0067
G01 X3.7840 Y7.3165 Z-1.8920
G01 X3.5547 Y7.4160 Z-1.7774
G01 X3.3254 Y7.5155 Z-1.6627
G01 X3.0960 Y7.6151 Z-1.5480
G01 X2.8667 Y7.7146 Z-1.4333
G01 X2.6374 Y7.8142 Z-1.3187
G01 X2.4080 Y7.9137 Z-1.2040
G01 X2.1787 Y8.0133 Z-1.0893
G01 X1.9494 Y8.1128 Z-0.9747
G01 X1.7200 Y8.2123 Z-0.8600
G01 X1.4907 Y8.3119 Z-0.7453
G01 X1.2613 Y8.4114 Z-0.6307
G01 X1.0320 Y8.5110 Z-0.5160
G01 X0.8027 Y8.6105 Z-0.4013
G01 X0.5733 Y8.7101 Z-0.2867
G01 X0.3440 Y8.8096 Z-0.1720
G01 X0.1151 Y8.9089 Z-0.0576
G01 X0.8060 Y8.6091 Z-0.4030
G01 X1.4969 Y8.3092 Z-0.7485
G01 X2.1878 Y8.0093 Z-1.0939
G01 X2.8787 Y7.7094 Z-1.4394
G01 X3.5696 Y7.4095 Z-1.7848
G01 X4.2605 Y7.1096 Z-2.1302
G01 X4.9514 Y6.8098 Z-2.4757
G01 X5.6423 Y6.5099 Z-2.8211
G01 X6.2846 Y6.2620 Z-3.1310
G01 X6.3845 Y6.3014 Z-3.1507
G01 X6.4845 Y6.3409 Z-3.1704
G01 X6.5637 Y6.4025 Z-3.1750
G01 X6.6367 Y6.4708
G01 X6.7098 Y6.5390
G01 Z-6.3500
G01 X6.6367 Y6.4708
G01 X6.5637 Y6.4025
G01 X6.4845 Y6.3409 Z-6.3409
G01 X6.3845 Y6.3014 Z-6.3014
G01 X6.2846 Y6.2620 Z-6.2620
G01 X5.6423 Y6.5099 Z-5.6423
G01 X4.9514 Y6.8098 Z-4.9514
G01 X4.2605 Y7.1096 Z-4.2605
G01 X3.5696 Y7.4095 Z-3.5696
G01 X2.8787 Y7.7094 Z-2.8787
G01 X2.1878 Y8.0093 Z-2.1878
G01 X1.4969 Y8.3092 Z-1.4969
G01 X0.8060 Y8.6091 Z-0.8060
G01 X0.1151 Y8.9089 Z-0.1151
G01 X0.3440 Y8.8096 Z-0.3440
G01 X0.5733 Y8.7101 Z-0.5733
G01 X0.8027 Y8.6105 Z-0.8027
G01 X1.0320 Y8.5110 Z-1.0320
G01 X1.2613 Y8.4114 Z-1.2613
G01 X1.4907 Y8.3119 Z-1.4907
G01 X1.7200 Y8.2123 Z-1.7200
G01 X1.9494 Y8.1128 Z-1.9494
G01 X2.1787 Y8.0133 Z-2.1787
G01 X2.4080 Y7.9137 Z-2.4080
G01 X2.6374 Y7.8142 Z-2.6374
G01 X2.8667 Y7.7146 Z-2.8667
G01 X3.0960 Y7.6151 Z-3.0960
G01 X3.3254 Y7.5155 Z-3.3254
G01 X3.5547 Y7.4160 Z-3.5547
G01 X3.7840 Y7.3165 Z-3.7840
G01 X4.0134 Y7.2169 Z-4.0134
G01 X4.2427 Y7.1174 Z-4.2427
G01 X4.4720 Y7.0178 Z-4.4720
G01 X4.7014 Y6.9183 Z-4.7014
G01 X4.9307 Y6.8187 Z-4.9307
G01 X5.1601 Y6.7192 Z-5.1601
G01 X5.3894 Y6.6196 Z-5.3894
G01 X5.6187 Y6.5201 Z-5.6187
G01 X5.8481 Y6.4206 Z-5.8481
G01 X6.0774 Y6.3210 Z-6.0774
G01 X6.2215 Y6.2215 Z-6.2215
G01 X6.0224 Y6.0224 Z-6.0224
G01 X5.8233 Y5.8233 Z-5.8233
G01 X5.6242 Y5.6242 Z-5.6242
G01 X5.4251 Y5.4251 Z-5.4251
G01 X5.2260 Y5.2260 Z-5.2260
G01 X5.0270 Y5.0270 Z-5.0270
G01 X4.8279 Y4.8279 Z-4.8279
G01 X4.6288 Y4.6288 Z-4.6288
G01 X4.4297 Y4.4297 Z-4.4297
G01 X4.2306 Y4.2306 Z-4.2306
G01 X4.0315 Y4.0315 Z-4.0315
G01 X3.8324 Y3.8324 Z-3.8324
G01 X3.6333 Y3.6333 Z-3.6333
G01 X3.4343 Y3.4343 Z-3.4343
G01 X3.2352 Y3.2352 Z-3.2352
G01 X3.0361 Y3.0361 Z-3.0361
G01 X2.8370 Y2.8370 Z-2.8370
G01 X2.6379 Y2.6379 Z-2.6379
G01 X2.4388 Y2.4388 Z-2.4388
G01 X2.2397 Y2.2397 Z-2.2397
G01 X2.0406 Y2.0406 Z-2.0406
G01 X1.8416 Y1.8416 Z-1.8416
G01 X1.6425 Y1.6425 Z-1.6425
G01 X1.4434 Y1.4434 Z-1.4434
G01 X1.2443 Y1.2443 Z-1.2443
G01 X1.0452 Y1.0452 Z-1.0452
G01 X0.8461 Y0.8461 Z-0.8461
G01 X0.6470 Y0.6470 Z-0.6470
G01 X0.4479 Y0.4479 Z-0.4479
G01 X0.2489 Y0.2489 Z-0.2489
G01 X0.1493 Y0.1493 Z-0.1493
G01 X0.0498 Y0.0498 Z-0.0498
G01 X0.0000 Y0.0000 Z0.0000
G01 X0.0500 Y0.0500 Z-0.0500
G01 X0.1501 Y0.1501 Z-0.1501
G01 X0.2502 Y0.2502 Z-0.2502
G01 X0.3503 Y0.3503 Z-0.3503
G01 X0.4504 Y0.4504 Z-0.4504
G01 X0.5504 Y0.5504 Z-0.5504
G01 X0.6505 Y0.6505 Z-0.6505
G01 X0.7506 Y0.7506 Z-0.7506
G01 X0.8507 Y0.8507 Z-0.8507
G01 X0.9507 Y0.9507 Z-0.9507
G01 X1.0508 Y1.0508 Z-1.0508
G01 X1.1509 Y1.1509 Z-1.1509
G01 X1.2510 Y1.2510 Z-1.2510
G01 X1.3511 Y1.3511 Z-1.3511
G01 X1.4511 Y1.4511 Z-1.4511
G01 X1.5512 Y1.5512 Z-1.5512
G01 X1.6513 Y1.6513 Z-1.6513
G01 X1.7514 Y1.7514 Z-1.7514
G01 X1.8514 Y1.8514 Z-1.8514
G01 X1.9515 Y1.9515 Z-1.9515
G01 X2.0516 Y2.0516 Z-2.0516
G01 X2.1517 Y2.1517 Z-2.1517
G01 X2.2518 Y2.2518 Z-2.2518
G01 X2.3518 Y2.3518 Z-2.3518
G01 X2.4519 Y2.4519 Z-2.4519
G01 X2.5520 Y2.5520 Z-2.5520
G01 X2.6521 Y2.6521 Z-2.6521
G01 X2.7522 Y2.7522 Z-2.7522
G01 X2.8522 Y2.8522 Z-2.8522
G01 X2.9523 Y2.9523 Z-2.9523
G01 X3.0524 Y3.0524 Z-3.0524
G01 X3.1525 Y3.1525 Z-3.1525
G01 X3.2525 Y3.2525 Z-3.2525
G01 X3.3526 Y3.3526 Z-3.3526
G01 X3.4527 Y3.4527 Z-3.4527
G01 X3.5528 Y3.5528 Z-3.5528
G01 X3.6529 Y3.6529 Z-3.6529
G01 X3.7529 Y3.7529 Z-3.7529
G01 X3.8530 Y3.8530 Z-3.8530
G01 X3.9531 Y3.9531 Z-3.9531
G01 X4.0532 Y4.0532 Z-4.0532
G01 X4.1533 Y4.1533 Z-4.1533
G01 X4.2533 Y4.2533 Z-4.2533
G01 X4.3534 Y4.3534 Z-4.3534
G01 X4.4535 Y4.4535 Z-4.4535
G01 X4.5536 Y4.5536 Z-4.5536
G01 X4.6536 Y4.6536 Z-4.6536
G01 X4.7537 Y4.7537 Z-4.7537
G01 X4.8538 Y4.8538 Z-4.8538
G01 X4.9539 Y4.9539 Z-4.9539
G01 X5.0540 Y5.0540 Z-5.0540
G01 X5.1540 Y5.1540 Z-5.1540
G01 X5.2541 Y5.2541 Z-5.2541
G01 X5.3542 Y5.3542 Z-5.3542
G01 X5.4543 Y5.4543 Z-5.4543
G01 X5.5543 Y5.5543 Z-5.5543
G01 X5.6544 Y5.6544 Z-5.6544
G01 X5.7545 Y5.7545 Z-5.7545
G01 X5.8546 Y5.8546 Z-5.8546
G01 X5.9547 Y5.9547 Z-5.9547
G01 X6.0547 Y6.0547 Z-6.0547
G01 X6.1548 Y6.1548 Z-6.1548
G01 X6.2549 Y6.2503 Z-6.2503
G01 X6.3550 Y6.2898 Z-6.2898
G01 X6.4551 Y6.3293 Z-6.3293
G01 X6.5551 Y6.3500 Z-6.3500
G01 X6.6552
G01 X6.7553
G01 X6.8554
G01 X6.9554
G01 X7.0555
G01 X7.1556
G01 X7.2557
G01 X7.3558
G01 X7.4558
G00 Z5.0000
G00 X48.2954 Y6.3555
G01 Z-3.1750
G01 X48.3898 Y6.2523 Z-3.1262
G01 X48.4899 Y6.1490 Z-3.0745
G01 X48.5899 Y6.0456 Z-3.0228
G01 X48.6900 Y5.9423 Z-2.9711
G01 X48.7900 Y5.8389 Z-2.9195
G01 X48.8900 Y5.7356 Z-2.8678
G01 X48.9901 Y5.6322 Z-2.8161
G01 X49.0901 Y5.5289 Z-2.7644
G01 X49.1902 Y5.4256 Z-2.7128
G01 X49.2902 Y5.3222 Z-2.6611
G01 X49.3903 Y5.2189 Z-2.6094
G01 X49.4903 Y5.1155 Z-2.5578
G01 X49.5904 Y5.0122 Z-2.5061
G01 X49.6904 Y4.9088 Z-2.4544
G01 X49.7905 Y4.8055 Z-2.4027
G01 X49.8905 Y4.7021 Z-2.3511
G01 X49.9906 Y4.5988 Z-2.2994
G01 X50.0906 Y4.4955 Z-2.2477
G01 X50.1906 Y4.3921 Z-2.1961
G01 X50.2907 Y4.2888 Z-2.1444
G01 X50.3907 Y4.1854 Z-2.0927
G01 X50.4908 Y4.0821 Z-2.0410
G01 X50.5908 Y3.9787 Z-1.9894
G01 X50.6909 Y3.8754 Z-1.9377
G01 X50.7909 Y3.7721 Z-1.8860
G01 X50.8910 Y3.6687 Z-1.8344
G01 X50.9910 Y3.5654 Z-1.7827
G01 X51.0911 Y3.4620 Z-1.7310
G01 X51.1911 Y3.3587 Z-1.6793
G01 X51.2912 Y3.2553 Z-1.6277
G01 X51.3912 Y3.1520 Z-1.5760
G01 X51.4913 Y3.0486 Z-1.5243
G01 X51.5913 Y2.9453 Z-1.4727
G01 X51.6913 Y2.8420 Z-1.4210
G01 X51.7914 Y2.7386 Z-1.3693
G01 X51.8914 Y2.6353 Z-1.3176
G01 X51.9915 Y2.5319 Z-1.2660
G01 X52.0915 Y2.4286 Z-1.2143
G01 X52.1916 Y2.3252 Z-1.1626
G01 X52.2916 Y2.2219 Z-1.1109
G01 X52.3917 Y2.1185 Z-1.0593
G01 X52.4917 Y2.0152 Z-1.0076
G01 X52.5918 Y1.9119 Z-0.9559
G01 X52.6918 Y1.8085 Z-0.9043
G01 X52.7919 Y1.7052 Z-0.8526
G01 X52.8919 Y1.6018 Z-0.8009
G01 X52.9920 Y1.4985 Z-0.7492
G01 X53.0920 Y1.3951 Z-0.6976
G01 X53.1920 Y1.2918 Z-0.6459
G01 X53.2921 Y1.1885 Z-0.5942
G01 X53.3921 Y1.0851 Z-0.5426
G01 X53.4922 Y0.9818 Z-0.4909
G01 X53.5922 Y0.8784 Z-0.4392
G01 X53.6923 Y0.7751 Z-0.3875
G01 X53.7923 Y0.6717 Z-0.3359
G01 X53.8924 Y0.5684 Z-0.2842
G01 X53.9924 Y0.4650 Z-0.2325
G01 X54.0925 Y0.3617 Z-0.1809
G01 X54.1925 Y0.2584 Z-0.1292
G01 X54.2926 Y0.1550 Z-0.0775
G01 X54.3926 Y0.0517 Z-0.0258
G01 X54.4426 Y0.0000 Z0.0000
G01 X54.3926 Y0.0517 Z-0.0517
G01 X54.2926 Y0.1550 Z-0.1550
G01 X54.1925 Y0.2584 Z-0.2584
G01 X54.0925 Y0.3617 Z-0.3617
G01 X53.9924 Y0.4650 Z-0.4650
G01 X53.8924 Y0.5684 Z-0.5684
G01 X53.7923 Y0.6717 Z-0.6717
G01 X53.6923 Y0.7751 Z-0.7751
G01 X53.5922 Y0.8784 Z-0.8784
G01 X53.4922 Y0.9818 Z-0.9818
G01 X53.3921 Y1.0851 Z-1.0851
G01 X53.2921 Y1.1885 Z-1.1885
G01 X53.1920 Y1.2918 Z-1.2918
G01 X53.0920 Y1.3951 Z-1.3951
G01 X52.9920 Y1.4985 Z-1.4985
G01 X52.8919 Y1.6018 Z-1.6018
G01 X52.7919 Y1.7052 Z-1.7052
G01 X52.6918 Y1.8085 Z-1.8085
G01 X52.5918 Y1.9119 Z-1.9119
G01 X52.4917 Y2.0152 Z-2.0152
G01 X52.3917 Y2.1185 Z-2.1185
G01 X52.2916 Y2.2219 Z-2.2219
G01 X52.1916 Y2.3252 Z-2.3252
G01 X52.0915 Y2.4286 Z-2.4286
G01 X51.9915 Y2.5319 Z-2.5319
G01 X51.8914 Y2.6353 Z-2.6353
G01 X51.7914 Y2.7386 Z-2.7386
G01 X51.6913 Y2.8420 Z-2.8420
G01 X51.5913 Y2.9453 Z-2.9453
G01 X51.4913 Y3.0486 Z-3.0486
G01 X51.3912 Y3.1520 Z-3.1520
G01 X51.2912 Y3.2553 Z-3.2553
G01 X51.1911 Y3.3587 Z-3.3587
G01 X51.0911 Y3.4620 Z-3.4620
G01 X50.9910 Y3.5654 Z-3.5654
G01 X50.8910 Y3.6687 Z-3.6687
G01 X50.7909 Y3.7721 Z-3.7721
G01 X50.6909 Y3.8754 Z-3.8754
G01 X50.5908 Y3.9787 Z-3.9787
G01 X50.4908 Y4.0821 Z-4.0821
G01 X50.3907 Y4.1854 Z-4.1854
G01 X50.2907 Y4.2888 Z-4.2888
G01 X50.1906 Y4.3921 Z-4.3921
G01 X50.0906 Y4.4955 Z-4.4955
G01 X49.9906 Y4.5988 Z-4.5988
G01 X49.8905 Y4.7021 Z-4.7021
G01 X49.7905 Y4.8055 Z-4.8055
G01 X49.6904 Y4.9088 Z-4.9088
G01 X49.5904 Y5.0122 Z-5.0122
G01 X49.4903 Y5.1155 Z-5.1155
G01 X49.3903 Y5.2189 Z-5.2189
G01 X49.2902 Y5.3222 Z-5.3222
G01 X49.1902 Y5.4256 Z-5.4256
G01 X49.0901 Y5.5289 Z-5.5289
G01 X48.9901 Y5.6322 Z-5.6322
G01 X48.8900 Y5.7356 Z-5.7356
G01 X48.7900 Y5.8389 Z-5.8389
G01 X48.6900 Y5.9423 Z-5.9423
G01 X48.5899 Y6.0456 Z-6.0456
G01 X48.4899 Y6.1490 Z-6.1490
G01 X48.3898 Y6.2523 Z-6.2523
G01 X48.2954 Y6.3555 Z-6.3500
G00 Z5.0000
G00 X44.8920 Y53.7927
G01 Z-3.1750
G01 X44.9114 Y53.8905
G01 X44.9598 Y54.1538
G01 X44.9768 Y54.2539
G01 X44.9939 Y54.3540
G01 X45.0110 Y54.4541
G01 X45.0280 Y54.5542
G01 X45.0451 Y54.6543
G01 X45.0621 Y54.7544
G01 X45.0792 Y54.8545
G01 X45.0962 Y54.9546
G01 X45.1133 Y55.0547
G01 X45.1543 Y55.3150
G01 X45.1690 Y55.4174
G01 X45.1838 Y55.5198
G01 X45.1986 Y55.6222
G01 X45.2134 Y55.7245
G01 X45.2282 Y55.8269
G01 X45.2430 Y55.9293
G01 X45.2577 Y56.0317
G01 X45.2725 Y56.1340
G01 X45.2873 Y56.2364
G01 X45.3207 Y56.4890
G01 X45.3320 Y56.5842
G01 X45.3434 Y56.6793
G01 X45.3548 Y56.7744
G01 X45.3662 Y56.8696
G01 X45.3775 Y56.9647
G01 X45.3889 Y57.0598
G01 X45.4003 Y57.1550
G01 X45.4116 Y57.2501
G01 X45.4230 Y57.3452
G01 X45.4344 Y57.4404
G01 X45.4607 Y57.6851
G01 X45.4700 Y57.7823
G01 X45.4793 Y57.8795
G01 X45.4886 Y57.9767
G01 X45.4979 Y58.0739
G01 X45.5072 Y58.1711
G01 X45.5165 Y58.2683
G01 X45.5258 Y58.3656
G01 X45.5351 Y58.4628
G01 X45.5444 Y58.5600
G01 X45.5537 Y58.6572
G01 X45.5741 Y58.8988
G01 X45.5813 Y58.9980
G01 X45.5886 Y59.0973
G01 X45.5958 Y59.1966
G01 X45.6030 Y59.2958
G01 X45.6103 Y59.3951
G01 X45.6175 Y59.4944
G01 X45.6248 Y59.5936
G01 X45.6320 Y59.6929
G01 X45.6392 Y59.7922
G01 X45.6465 Y59.8914
G01 X45.6612 Y60.1299
G01 X45.6664 Y60.2313
G01 X45.6716 Y60.3326
G01 X45.6767 Y60.4339
G01 X45.6819 Y60.5353
G01 X45.6871 Y60.6366
G01 X45.6922 Y60.7380
G01 X45.6974 Y60.8393
G01 X45.7026 Y60.9406
G01 X45.7077 Y61.0420
G01 X45.7129 Y61.1433
G01 X45.7224 Y61.3788
G01 X45.7255 Y61.4822
G01 X45.7286 Y61.5856
G01 X45.7317 Y61.6890
G01 X45.7348 Y61.7924
G01 X45.7379 Y61.8958
G01 X45.7410 Y61.9992
G01 X45.7441 Y62.1026
G01 X45.7472 Y62.2060
G01 X45.7503 Y62.3094
G01 X45.7534 Y62.4128
G01 X45.7580 Y62.6410
G01 X45.7590 Y62.7376
G01 X45.7599 Y62.8343
G01 X45.7609 Y62.9310
G01 X45.7618 Y63.0277
G01 X45.7628 Y63.1244
G01 X45.7637 Y63.2211
G01 X45.7647 Y63.3177
G01 X45.7656 Y63.4144
G01 X45.7665 Y63.5111
G01 X45.7675 Y63.6078
G01 X45.7684 Y63.7045
G01 X45.7681 Y63.9462
G01 X45.7668 Y64.0433
G01 X45.7655 Y64.1405
G01 X45.7643 Y64.2376
G01 X45.7630 Y64.3347
G01 X45.7617 Y64.4319
G01 X45.7605 Y64.5290
G01 X45.7592 Y64.6261
G01 X45.7579 Y64.7232
G01 X45.7509 Y64.9891
G01 X45.7472 Y65.0844
G01 X45.7434 Y65.1798
G01 X45.7396 Y65.2752
G01 X45.7358 Y65.3706
G01 X45.7320 Y65.4659
G01 X45.7282 Y65.5613
G01 X45.7244 Y65.6567
G01 X45.7206 Y65.7520
G01 X45.7058 Y66.0278
G01 X45.6987 Y66.1331
G01 X45.6916 Y66.2384
G01 X45.6845 Y66.3437
G01 X45.6773 Y66.4490
G01 X45.6702 Y66.5543
G01 X45.6631 Y66.6596
G01 X45.6560 Y66.7649
G01 X45.6327 Y67.0503
G01 X45.6227 Y67.1537
G01 X45.6128 Y67.2570
G01 X45.6028 Y67.3603
G01 X45.5929 Y67.4636
G01 X45.5829 Y67.5670
G01 X45.5730 Y67.6703
G01 X45.5630 Y67.7736
G01 X45.5309 Y68.0625
G01 X45.5181 Y68.1639
G01 X45.5053 Y68.2652
G01 X45.4925 Y68.3666
G01 X45.4797 Y68.4679
G01 X45.4669 Y68.5693
G01 X45.4542 Y68.6706
G01 X45.4414 Y68.7720
G01 X45.4000 Y69.0641
G01 X45.3843 Y69.1635
G01 X45.3687 Y69.2629
G01 X45.3531 Y69.3622
G01 X45.3374 Y69.4616
G01 X45.3218 Y69.5610
G01 X45.3061 Y69.6603
G01 X45.2905 Y69.7597
G01 X45.2393 Y70.0548
G01 X45.2208 Y70.1522
G01 X45.2024 Y70.2496
G01 X45.1839 Y70.3470
G01 X45.1654 Y70.4443
G01 X45.1469 Y70.5417
G01 X45.1285 Y70.6391
G01 X45.1100 Y70.7365
G01 X45.0485 Y71.0341
G01 X45.0272 Y71.1295
G01 X45.0059 Y71.2249
G01 X44.9846 Y71.3203
G01 X44.9632 Y71.4157
G01 X44.9419 Y71.5111
G01 X44.9206 Y71.6065
G01 X44.8993 Y71.7019
G01 X44.8271 Y72.0015
G01 X44.8029 Y72.0949
G01 X44.7788 Y72.1883
G01 X44.7546 Y72.2817
G01 X44.7304 Y72.3752
G01 X44.7063 Y72.4686
G01 X44.6821 Y72.5620
G01 X44.6580 Y72.6554
G01 X44.5746 Y72.9564
G01 X44.5476 Y73.0478
G01 X44.5206 Y73.1393
G01 X44.4936 Y73.2307
G01 X44.4666 Y73.3221
G01 X44.4396 Y73.4136
G01 X44.4126 Y73.5050
G01 X44.3856 Y73.5965
G01 X44.2908 Y73.8981
G01 X44.2609 Y73.9876
G01 X44.2311 Y74.0770
G01 X44.2012 Y74.1665
G01 X44.1714 Y74.2560
G01 X44.1415 Y74.3454
G01 X44.1117 Y74.4349
G01 X44.0818 Y74.5243
G01 X43.9729 Y74.8322
G01 X43.9355 Y74.9321
G01 X43.8982 Y75.0321
G01 X43.8608 Y75.1321
G01 X43.8234 Y75.2321
G01 X43.7861 Y75.3320
G01 X43.7487 Y75.4320
G01 X43.6252 Y75.7450
G01 X43.5846 Y75.8427
G01 X43.5440 Y75.9405
G01 X43.5034 Y76.0382
G01 X43.4628 Y76.1359
G01 X43.4222 Y76.2336
G01 X43.3816 Y76.3313
G01 X43.2456 Y76.6422
G01 X43.2017 Y76.7377
G01 X43.1579 Y76.8331
G01 X43.1140 Y76.9285
G01 X43.0701 Y77.0240
G01 X43.0263 Y77.1194
G01 X42.9824 Y77.2149
G01 X42.8340 Y77.5227
G01 X42.7868 Y77.6159
G01 X42.7397 Y77.7091
G01 X42.6926 Y77.8023
G01 X42.6455 Y77.8955
G01 X42.5984 Y77.9886
G01 X42.5513 Y78.0818
G01 X42.3905 Y78.3856
G01 X42.3401 Y78.4766
G01 X42.2897 Y78.5675
G01 X42.2394 Y78.6584
G01 X42.1890 Y78.7493
G01 X42.1387 Y78.8402
G01 X42.0883 Y78.9311
G01 Z-6.3500
G01 X42.1387 Y78.8402
G01 X42.1890 Y78.7493
G01 X42.2394 Y78.6584
G01 X42.2897 Y78.5675
G01 X42.3401 Y78.4766
G01 X42.3905 Y78.3856
G01 X42.5513 Y78.0818
G01 X42.5984 Y77.9886
G01 X42.6455 Y77.8955
G01 X42.6926 Y77.8023
G01 X42.7397 Y77.7091
G01 X42.7868 Y77.6159
G01 X42.8340 Y77.5227
G01 X42.9824 Y77.2149
G01 X43.0263 Y77.1194
G01 X43.0701 Y77.0240
G01 X43.1140 Y76.9285
G01 X43.1579 Y76.8331
G01 X43.2017 Y76.7377
G01 X43.2456 Y76.6422
G01 X43.3816 Y76.3313
G01 X43.4222 Y76.2336
G01 X43.4628 Y76.1359
G01 X43.5034 Y76.0382
G01 X43.5440 Y75.9405
G01 X43.5846 Y75.8427
G01 X43.6252 Y75.7450
G01 X43.7487 Y75.4320
G01 X43.7861 Y75.3320
G01 X43.8234 Y75.2321
G01 X43.8608 Y75.1321
G01 X43.8982 Y75.0321
G01 X43.9355 Y74.9321
G01 X43.9729 Y74.8322
G01 X44.0818 Y74.5243
G01 X44.1117 Y74.4349
G01 X44.1415 Y74.3454
G01 X44.1714 Y74.2560
G01 X44.2012 Y74.1665
G01 X44.2311 Y74.0770
G01 X44.2609 Y73.9876
G01 X44.2908 Y73.8981
G01 X44.3856 Y73.5965
G01 X44.4126 Y73.5050
G01 X44.4396 Y73.4136
G01 X44.4666 Y73.3221
G01 X44.4936 Y73.2307
G01 X44.5206 Y73.1393
G01 X44.5476 Y73.0478
G01 X44.5746 Y72.9564
G01 X44.6580 Y72.6554
G01 X44.6821 Y72.5620
G01 X44.7063 Y72.4686
G01 X44.7304 Y72.3752
G01 X44.7546 Y72.2817
G01 X44.7788 Y72.1883
G01 X44.8029 Y72.0949
G01 X44.8271 Y72.0015
G01 X44.8993 Y71.7019
G01 X44.9206 Y71.6065
G01 X44.9419 Y71.5111
G01 X44.9632 Y71.4157
G01 X44.9846 Y71.3203
G01 X45.0059 Y71.2249
G01 X45.0272 Y71.1295
G01 X45.0485 Y71.0341
G01 X45.1100 Y70.7365
G01 X45.1285 Y70.6391
G01 X45.1469 Y70.5417
G01 X45.1654 Y70.4443
G01 X45.1839 Y70.3470
G01 X45.2024 Y70.2496
G01 X45.2208 Y70.1522
G01 X45.2393 Y70.0548
G01 X45.2905 Y69.7597
G01 X45.3061 Y69.6603
G01 X45.3218 Y69.5610
G01 X45.3374 Y69.4616
G01 X45.3531 Y69.3622
G01 X45.3687 Y69.2629
G01 X45.3843 Y69.1635
G01 X45.4000 Y69.0641
G01 X45.4414 Y68.7720
G01 X45.4542 Y68.6706
G01 X45.4669 Y68.5693
G01 X45.4797 Y68.4679
G01 X45.4925 Y68.3666
G01 X45.5053 Y68.2652
G01 X45.5181 Y68.1639
G01 X45.5309 Y68.0625
G01 X45.5630 Y67.7736
G01 X45.5730 Y67.6703
G01 X45.5829 Y67.5670
G01 X45.5929 Y67.4636
G01 X45.6028 Y67.3603
G01 X45.6128 Y67.2570
G01 X45.6227 Y67.1537
G01 X45.6327 Y67.0503
G01 X45.6560 Y66.7649
G01 X45.6631 Y66.6596
G01 X45.6702 Y66.5543
G01 X45.6773 Y66.4490
G01 X45.6845 Y66.3437
G01 X45.6916 Y66.2384
G01 X45.6987 Y66.1331
G01 X45.7058 Y66.0278
G01 X45.7206 Y65.7520
G01 X45.7244 Y65.6567
G01 X45.7282 Y65.5613
G01 X45.7320 Y65.4659
G01 X45.7358 Y65.3706
G01 X45.7396 Y65.2752
G01 X45.7434 Y65.1798
G01 X45.7472 Y65.0844
G01 X45.7509 Y64.9891
G01 X45.7579 Y64.7232
G01 X45.7592 Y64.6261
G01 X45.7605 Y64.5290
G01 X45.7617 Y64.4319
G01 X45.7630 Y64.3347
G01 X45.7643 Y64.2376
G01 X45.7655 Y64.1405
G01 X45.7668 Y64.0433
G01 X45.7681 Y63.9462
G01 X45.7684 Y63.7045
G01 X45.7675 Y63.6078
G01 X45.7665 Y63.5111
G01 X45.7656 Y63.4144
G01 X45.7647 Y63.3177
G01 X45.7637 Y63.2211
G01 X45.7628 Y63.1244
G01 X45.7618 Y63.0277
G01 X45.7609 Y62.9310
G01 X45.7599 Y62.8343
G01 X45.7590 Y62.7376
G01 X45.7580 Y62.6410
G01 X45.7534 Y62.4128
G01 X45.7503 Y62.3094
G01 X45.7472 Y62.2060
G01 X45.7441 Y62.1026
G01 X45.7410 Y61.9992
G01 X45.7379 Y61.8958
G01 X45.7348 Y61.7924
G01 X45.7317 Y61.6890
G01 X45.7286 Y61.5856
G01 X45.7255 Y61.4822
G01 X45.7224 Y61.3788
G01 X45.7129 Y61.1433
G01 X45.7077 Y61.0420
G01 X45.7026 Y60.9406
G01 X45.6974 Y60.8393
G01 X45.6922 Y60.7380
G01 X45.6871 Y60.6366
G01 X45.6819 Y60.5353
G01 X45.6767 Y60.4339
G01 X45.6716 Y60.3326
G01 X45.6664 Y60.2313
G01 X45.6612 Y60.1299
G01 X45.6465 Y59.8914
G01 X45.6392 Y59.7922
G01 X45.6320 Y59.6929
G01 X45.6248 Y59.5936
G01 X45.6175 Y59.4944
G01 X45.6103 Y59.3951
G01 X45.6030 Y59.2958
G01 X45.5958 Y59.1966
G01 X45.5886 Y59.0973
G01 X45.5813 Y58.9980
G01 X45.5741 Y58.8988
G01 X45.5537 Y58.6572
G01 X45.5444 Y58.5600
G01 X45.5351 Y58.4628
G01 X45.5258 Y58.3656
G01 X45.5165 Y58.2683
G01 X45.5072 Y58.1711
G01 X45.4979 Y58.0739
G01 X45.4886 Y57.9767
G01 X45.4793 Y57.8795
G01 X45.4700 Y57.7823
G01 X45.4607 Y57.6851
G01 X45.4344 Y57.4404
G01 X45.4230 Y57.3452
G01 X45.4116 Y57.2501
G01 X45.4003 Y57.1550
G01 X45.3889 Y57.0598
G01 X45.3775 Y56.9647
G01 X45.3662 Y56.8696
G01 X45.3548 Y56.7744
G01 X45.3434 Y56.6793
G01 X45.3320 Y56.5842
G01 X45.3207 Y56.4890
G01 X45.2873 Y56.2364
G01 X45.2725 Y56.1340
G01 X45.2577 Y56.0317
G01 X45.2430 Y55.9293
G01 X45.2282 Y55.8269
G01 X45.2134 Y55.7245
G01 X45.1986 Y55.6222
G01 X45.1838 Y55.5198
G01 X45.1690 Y55.4174
G01 X45.1543 Y55.3150
G01 X45.1133 Y55.0547
G01 X45.0962 Y54.9546
G01 X45.0792 Y54.8545
G01 X45.0621 Y54.7544
G01 X45.0451 Y54.6543
G01 X45.0280 Y54.5542
G01 X45.0110 Y54.4541
G01 X44.9939 Y54.3540
G01 X44.9768 Y54.2539
G01 X44.9598 Y54.1538
G01 X44.9114 Y53.8905
G01 X44.8920 Y53.7927
G00 Z5.0000
G00 X25.3283 Y86.3127
G01 Z-1.1733
G01 X25.4254 Y86.3125 Z-1.1787
G01 X25.5226 Y86.3122 Z-1.1840
G01 X25.6197 Y86.3119 Z-1.1893
G01 X25.7169 Y86.3111 Z-1.1949
G01 X25.8143 Y86.3087 Z-1.2013
G01 X25.9117 Y86.3061 Z-1.2078
G01 X26.0091 Y86.3035 Z-1.2143
G01 X26.1065 Y86.3010 Z-1.2207
G01 X26.2039 Y86.2984 Z-1.2272
G01 X26.3205 Y86.2952 Z-1.2349
G01 X26.4190 Y86.2910 Z-1.2406
G01 X26.5175 Y86.2855 Z-1.2471
G01 X26.6161 Y86.2790 Z-1.2540
G01 X26.7148 Y86.2725 Z-1.2610
G01 X26.8134 Y86.2661 Z-1.2679
G01 X26.9120 Y86.2596 Z-1.2749
G01 X27.0106 Y86.2531 Z-1.2818
G01 X27.1093 Y86.2466 Z-1.2888
G01 X27.2079 Y86.2399 Z-1.2958
G01 X27.3250 Y86.2297 Z-1.3051
G01 X27.4248 Y86.2192 Z-1.3126
G01 X27.5247 Y86.2087 Z-1.3201
G01 X27.6245 Y86.1982 Z-1.3276
G01 X27.7243 Y86.1877 Z-1.3350
G01 X27.8241 Y86.1772 Z-1.3425
G01 X27.9239 Y86.1667 Z-1.3500
G01 X28.0237 Y86.1551 Z-1.3580
G01 X28.1237 Y86.1422 Z-1.3666
G01 X28.2236 Y86.1293 Z-1.3753
G01 X28.3407 Y86.1140 Z-1.3854
G01 X28.4417 Y86.0993 Z-1.3935
G01 X28.5426 Y86.0847 Z-1.4015
G01 X28.6436 Y86.0701 Z-1.4096
G01 X28.7445 Y86.0552 Z-1.4178
G01 X28.8455 Y86.0386 Z-1.4268
G01 X28.9465 Y86.0215 Z-1.4361
G01 X29.0474 Y86.0044 Z-1.4454
G01 X29.1484 Y85.9873 Z-1.4547
G01 X29.2494 Y85.9702 Z-1.4640
G01 X29.3669 Y85.9501 Z-1.4747
G01 X29.4686 Y85.9314 Z-1.4834
G01 X29.5702 Y85.9115 Z-1.4926
G01 X29.6718 Y85.8903 Z-1.5025
G01 X29.7735 Y85.8691 Z-1.5124
G01 X29.8751 Y85.8478 Z-1.5223
G01 X29.9767 Y85.8266 Z-1.5322
G01 X30.0783 Y85.8054 Z-1.5421
G01 X30.1799 Y85.7841 Z-1.5520
G01 X30.2816 Y85.7627 Z-1.5620
G01 X30.3930 Y85.7373 Z-1.5738
G01 X30.4923 Y85.7126 Z-1.5840
G01 X30.5917 Y85.6878 Z-1.5942
G01 X30.6910 Y85.6631 Z-1.6045
G01 X30.7903 Y85.6384 Z-1.6147
G01 X30.8897 Y85.6136 Z-1.6249
G01 X30.9890 Y85.5889 Z-1.6351
G01 X31.0883 Y85.5636 Z-1.6456
G01 X31.1875 Y85.5369 Z-1.6568
G01 X31.2868 Y85.5097 Z-1.6683
G01 X31.3861 Y85.4865 Z-1.6777
G01 X31.4821 Y85.4546 Z-1.6901
G01 X31.5791 Y85.4265 Z-1.7006
G01 X31.6761 Y85.3983 Z-1.7111
G01 X31.7731 Y85.3702 Z-1.7216
G01 X31.8700 Y85.3416 Z-1.7323
G01 X31.9669 Y85.3116 Z-1.7437
G01 X32.0637 Y85.2811 Z-1.7554
G01 X32.1605 Y85.2506 Z-1.7671
G01 X32.2573 Y85.2201 Z-1.7788
G01 X32.4368 Y85.1621 Z-1.7998
G01 X32.5314 Y85.1306 Z-1.8105
G01 X32.6260 Y85.0991 Z-1.8213
G01 X32.7205 Y85.0664 Z-1.8326
G01 X32.8149 Y85.0327 Z-1.8445
G01 X32.9092 Y84.9990 Z-1.8564
G01 X33.0036 Y84.9654 Z-1.8682
G01 X33.0980 Y84.9317 Z-1.8801
G01 X33.1923 Y84.8980 Z-1.8920
G01 X33.3558 Y84.8381 Z-1.9119
G01 X33.4480 Y84.8032 Z-1.9230
G01 X33.5400 Y84.7671 Z-1.9347
G01 X33.6318 Y84.7303 Z-1.9467
G01 X33.7237 Y84.6935 Z-1.9587
G01 X33.8156 Y84.6568 Z-1.9707
G01 X33.9075 Y84.6200 Z-1.9827
G01 X33.9994 Y84.5832 Z-1.9948
G01 X34.0913 Y84.5464 Z-2.0068
G01 X34.2522 Y84.4800 Z-2.0273
G01 X34.3506 Y84.4369 Z-2.0404
G01 X34.4489 Y84.3932 Z-2.0537
G01 X34.5473 Y84.3495 Z-2.0670
G01 X34.6456 Y84.3058 Z-2.0803
G01 X34.7439 Y84.2621 Z-2.0936
G01 X34.8423 Y84.2185 Z-2.1069
G01 X34.9406 Y84.1748 Z-2.1202
G01 X35.0986 Y84.1020 Z-2.1415
G01 X35.1942 Y84.0553 Z-2.1548
G01 X35.2898 Y84.0085 Z-2.1682
G01 X35.3853 Y83.9617 Z-2.1816
G01 X35.4809 Y83.9149 Z-2.1949
G01 X35.5765 Y83.8681 Z-2.2083
G01 X35.6721 Y83.8213 Z-2.2217
G01 X35.7676 Y83.7745 Z-2.2350
G01 X35.9094 Y83.7024 Z-2.2549
G01 X36.0022 Y83.6528 Z-2.2682
G01 X36.0950 Y83.6030 Z-2.2816
G01 X36.1879 Y83.5532 Z-2.2949
G01 X36.2807 Y83.5034 Z-2.3083
G01 X36.3735 Y83.4536 Z-2.3217
G01 X36.4663 Y83.4039 Z-2.3351
G01 X36.5592 Y83.3541 Z-2.3484
G01 X36.6854 Y83.2843 Z-2.3665
G01 X36.7755 Y83.2319 Z-2.3796
G01 X36.8656 Y83.1793 Z-2.3930
G01 X36.9557 Y83.1266 Z-2.4063
G01 X37.0458 Y83.0740 Z-2.4196
G01 X37.1359 Y83.0214 Z-2.4329
G01 X37.2259 Y82.9687 Z-2.4463
G01 X37.3160 Y82.9161 Z-2.4596
G01 X37.4276 Y82.8495 Z-2.4757
G01 X37.5152 Y82.7950 Z-2.4885
G01 X37.6026 Y82.7397 Z-2.5017
G01 X37.6900 Y82.6843 Z-2.5149
G01 X37.7773 Y82.6290 Z-2.5282
G01 X37.8647 Y82.5736 Z-2.5414
G01 X37.9521 Y82.5182 Z-2.5547
G01 X38.0394 Y82.4628 Z-2.5679
G01 X38.1372 Y82.3997 Z-2.5823
G01 X38.2225 Y82.3433 Z-2.5945
G01 X38.3074 Y82.2862 Z-2.6072
G01 X38.3921 Y82.2282 Z-2.6203
G01 X38.4768 Y82.1702 Z-2.6334
G01 X38.5615 Y82.1122 Z-2.6465
G01 X38.6462 Y82.0542 Z-2.6596
G01 X38.7309 Y81.9962 Z-2.6728
G01 X38.8159 Y81.9369 Z-2.6856
G01 X38.8986 Y81.8780 Z-2.6976
G01 X38.9813 Y81.8191 Z-2.7097
G01 X39.0638 Y81.7596 Z-2.7221
G01 X39.1459 Y81.6993 Z-2.7349
G01 X39.2277 Y81.6381 Z-2.7482
G01 X39.3093 Y81.5766 Z-2.7617
G01 X39.3910 Y81.5151 Z-2.7752
G01 X39.4640 Y81.4591 Z-2.7869
G01 X39.5437 Y81.3967 Z-2.7993
G01 X39.6235 Y81.3343 Z-2.8118
G01 X39.7032 Y81.2720 Z-2.8242
G01 X39.7829 Y81.2096 Z-2.8366
G01 X39.8625 Y81.1470 Z-2.8492
G01 X39.9418 Y81.0836 Z-2.8621
G01 X40.0208 Y81.0195 Z-2.8755
G01 X40.0833 Y80.9677 Z-2.8859
G01 X40.1603 Y80.9026 Z-2.8983
G01 X40.2374 Y80.8375 Z-2.9107
G01 X40.3144 Y80.7723 Z-2.9231
G01 X40.3914 Y80.7072 Z-2.9355
G01 X40.4685 Y80.6421 Z-2.9480
G01 X40.5455 Y80.5770 Z-2.9604
G01 X40.6224 Y80.5116 Z-2.9729
G01 X40.6760 Y80.4644 Z-2.9818
G01 X40.7505 Y80.3968 Z-2.9940
G01 X40.8248 Y80.3290 Z-3.0064
G01 X40.8992 Y80.2611 Z-3.0188
G01 X40.9735 Y80.1933 Z-3.0312
G01 X41.0479 Y80.1254 Z-3.0437
G01 X41.1222 Y80.0576 Z-3.0561
G01 X41.2425 Y79.9470 Z-3.0759
G01 X41.3151 Y79.8781 Z-3.0874
G01 X41.3874 Y79.8086 Z-3.0992
G01 X41.4592 Y79.7383 Z-3.1114
G01 X41.5309 Y79.6678 Z-3.1238
G01 X41.6026 Y79.5972 Z-3.1362
G01 X41.6742 Y79.5266 Z-3.1486
G01 X41.7851 Y79.4168 Z-3.1676
G01 X41.8595 Y79.3520 Z-3.1750
G01 X41.9418 Y79.2997
G01 X42.0241 Y79.2474
G01 X42.1064 Y79.1951
G01 X42.1887 Y79.1428
G01 X42.2711 Y79.0904
G01 X42.3534 Y79.0381
G01 X42.3985 Y79.0083
G01 X42.4790 Y78.9528
G01 X42.5594 Y78.8973
G01 X42.6399 Y78.8418
G01 X42.7203 Y78.7864
G01 X42.8008 Y78.7309
G01 X42.8812 Y78.6754
G01 X42.9617 Y78.6199
G01 X43.0074 Y78.5871
G01 X43.0860 Y78.5285
G01 X43.1646 Y78.4699
G01 X43.2432 Y78.4112
G01 X43.3218 Y78.3526
G01 X43.4004 Y78.2939
G01 X43.4790 Y78.2353
G01 X43.5576 Y78.1766
G01 X43.6045 Y78.1402
G01 X43.6812 Y78.0784
G01 X43.7579 Y78.0166
G01 X43.8347 Y77.9548
G01 X43.9114 Y77.8930
G01 X43.9882 Y77.8311
G01 X44.0649 Y77.7693
G01 X44.1170 Y77.7243
G01 X44.1896 Y77.6574
G01 X44.2622 Y77.5905
G01 X44.3347 Y77.5236
G01 X44.4073 Y77.4567
G01 X44.4799 Y77.3898
G01 X44.5524 Y77.3228
G01 X44.5927 Y77.2844
G01 X44.6615 Y77.2160
G01 X44.7304 Y77.1475
G01 X44.7992 Y77.0791
G01 X44.8680 Y77.0107
G01 X44.9369 Y76.9422
G01 X45.0057 Y76.8738
G01 X45.1046 Y76.7744
G01 X45.1697 Y76.7045
G01 X45.2348 Y76.6345
G01 X45.3000 Y76.5646
G01 X45.3651 Y76.4946
G01 X45.4302 Y76.4247
G01 X45.4953 Y76.3547
G01 X45.5917 Y76.2495
G01 X45.6599 Y76.1701
G01 X45.7281 Y76.0907
G01 X45.7963 Y76.0113
G01 X45.8646 Y75.9319
G01 X45.9328 Y75.8525
G01 X46.0010 Y75.7731
G01 X46.0340 Y75.7331
G01 X46.0981 Y75.6520
G01 X46.1622 Y75.5709
G01 X46.2263 Y75.4898
G01 X46.2904 Y75.4087
G01 X46.3545 Y75.3277
G01 X46.4438 Y75.2133
G01 X46.5038 Y75.1305
G01 X46.5637 Y75.0477
G01 X46.6237 Y74.9650
G01 X46.6836 Y74.8822
G01 X46.7436 Y74.7994
G01 X46.8223 Y74.6895
G01 X46.8782 Y74.6050
G01 X46.9340 Y74.5206
G01 X46.9898 Y74.4361
G01 X47.0456 Y74.3517
G01 X47.1015 Y74.2672
G01 X47.1710 Y74.1611
G01 X47.2227 Y74.0749
G01 X47.2743 Y73.9888
G01 X47.3260 Y73.9026
G01 X47.3777 Y73.8165
G01 X47.4294 Y73.7303
G01 X47.4909 Y73.6270
G01 X47.5385 Y73.5392
G01 X47.5860 Y73.4513
G01 X47.6336 Y73.3635
G01 X47.6811 Y73.2757
G01 X47.7287 Y73.1878
G01 X47.7834 Y73.0861
G01 X47.8268 Y72.9966
G01 X47.8702 Y72.9071
G01 X47.9136 Y72.8176
G01 X47.9570 Y72.7281
G01 X48.0004 Y72.6386
G01 X48.0493 Y72.5371
G01 X48.0886 Y72.4460
G01 X48.1279 Y72.3548
G01 X48.1672 Y72.2636
G01 X48.2064 Y72.1724
G01 X48.2457 Y72.0812
G01 X48.2896 Y71.9785
G01 X48.3248 Y71.8857
G01 X48.3599 Y71.7928
G01 X48.3951 Y71.6999
G01 X48.4302 Y71.6070
G01 X48.4654 Y71.5141
G01 X48.5049 Y71.4087
G01 X48.5359 Y71.3141
G01 X48.5670 Y71.2196
G01 X48.5980 Y71.1250
G01 X48.6290 Y71.0304
G01 X48.6600 Y70.9359
G01 X48.6956 Y70.8260
G01 X48.7225 Y70.7297
G01 X48.7494 Y70.6335
G01 X48.7763 Y70.5372
G01 X48.8031 Y70.4410
G01 X48.8300 Y70.3447
G01 X48.8619 Y70.2287
G01 X48.8847 Y70.1307
G01 X48.9074 Y70.0328
G01 X48.9302 Y69.9349
G01 X48.9529 Y69.8369
G01 X48.9756 Y69.7390
G01 X49.0038 Y69.6152
G01 X49.0224 Y69.5155
G01 X49.0410 Y69.4159
G01 X49.0596 Y69.3163
G01 X49.0782 Y69.2167
G01 X49.0968 Y69.1171
G01 X49.1209 Y68.9839
G01 X49.1354 Y68.8826
G01 X49.1499 Y68.7813
G01 X49.1643 Y68.6800
G01 X49.1788 Y68.5787
G01 X49.1933 Y68.4774
G01 X49.2129 Y68.3335
G01 X49.2232 Y68.2305
G01 X49.2336 Y68.1275
G01 X49.2439 Y68.0245
G01 X49.2542 Y67.9215
G01 X49.2646 Y67.8186
G01 X49.2749 Y67.7156
G01 X49.2791 Y67.6626
G01 X49.2853 Y67.5580
G01 X49.2915 Y67.4533
G01 X49.2977 Y67.3486
G01 X49.3039 Y67.2439
G01 X49.3101 Y67.1393
G01 X49.3185 Y66.9862
G01 X49.3203 Y66.8905
G01 X49.3222 Y66.7948
G01 X49.3241 Y66.6990
G01 X49.3259 Y66.6033
G01 X49.3278 Y66.5076
G01 X49.3296 Y66.4119
G01 X49.3315 Y66.3161
G01 X49.3317 Y66.2310
G01 X49.3304 Y66.1328
G01 X49.3292 Y66.0345
G01 X49.3279 Y65.9363
G01 X49.3266 Y65.8381
G01 X49.3253 Y65.7398
G01 X49.3241 Y65.6416
G01 X49.3228 Y65.5433
G01 X49.3196 Y65.4214
G01 X49.3158 Y65.3252
G01 X49.3120 Y65.2289
G01 X49.3081 Y65.1327
G01 X49.3043 Y65.0364
G01 X49.3005 Y64.9402
G01 X49.2967 Y64.8440
G01 X49.2928 Y64.7477
G01 X49.2860 Y64.6227
G01 X49.2789 Y64.5180
G01 X49.2718 Y64.4132
G01 X49.2647 Y64.3085
G01 X49.2576 Y64.2038
G01 X49.2505 Y64.0991
G01 X49.2435 Y63.9944
G01 X49.2330 Y63.8666
G01 X49.2231 Y63.7641
G01 X49.2132 Y63.6616
G01 X49.2032 Y63.5591
G01 X49.1933 Y63.4566
G01 X49.1834 Y63.3541
G01 X49.1735 Y63.2516
G01 X49.1607 Y63.1369
G01 X49.1480 Y63.0366
G01 X49.1352 Y62.9364
G01 X49.1225 Y62.8361
G01 X49.1097 Y62.7358
G01 X49.0970 Y62.6355
G01 X49.0842 Y62.5353
G01 X49.0697 Y62.4335
G01 X49.0541 Y62.3355
G01 X49.0385 Y62.2374
G01 X49.0229 Y62.1393
G01 X49.0074 Y62.0413
G01 X48.9918 Y61.9432
G01 X48.9762 Y61.8452
G01 X48.9606 Y61.7561
G01 X48.9422 Y61.6602
G01 X48.9238 Y61.5644
G01 X48.9054 Y61.4686
G01 X48.8869 Y61.3728
G01 X48.8685 Y61.2769
G01 X48.8501 Y61.1811
G01 X48.8340 Y61.1042
G01 X48.8128 Y61.0106
G01 X48.7915 Y60.9170
G01 X48.7703 Y60.8234
G01 X48.7491 Y60.7298
G01 X48.7278 Y60.6362
G01 X48.7066 Y60.5426
G01 X48.6906 Y60.4775
G01 X48.6666 Y60.3861
G01 X48.6425 Y60.2947
G01 X48.6184 Y60.2033
G01 X48.5943 Y60.1119
G01 X48.5702 Y60.0206
G01 X48.5461 Y59.9292
G01 X48.5259 Y59.8585
G01 X48.4956 Y59.7582
G01 X48.4653 Y59.6579
G01 X48.4351 Y59.5576
G01 X48.4048 Y59.4573
G01 X48.3745 Y59.3569
G01 X48.3499 Y59.2804
G01 X48.3164 Y59.1826
G01 X48.2830 Y59.0848
G01 X48.2495 Y58.9869
G01 X48.2160 Y58.8891
G01 X48.1826 Y58.7913
G01 X48.1586 Y58.7252
G01 X48.1219 Y58.6299
G01 X48.0853 Y58.5345
G01 X48.0486 Y58.4392
G01 X48.0120 Y58.3439
G01 X47.9753 Y58.2486
G01 X47.9523 Y58.1919
G01 X47.9124 Y58.0991
G01 X47.8726 Y58.0062
G01 X47.8328 Y57.9134
G01 X47.7929 Y57.8206
G01 X47.7531 Y57.7278
G01 X47.7312 Y57.6794
G01 X47.6882 Y57.5891
G01 X47.6452 Y57.4988
G01 X47.6021 Y57.4085
G01 X47.5591 Y57.3182
G01 X47.4955 Y57.1867
G01 X47.4493 Y57.0989
G01 X47.4031 Y57.0111
G01 X47.3569 Y56.9233
G01 X47.3107 Y56.8354
G01 X47.2451 Y56.7125
G01 X47.1957 Y56.6272
G01 X47.1463 Y56.5419
G01 X47.0969 Y56.4566
G01 X47.0475 Y56.3712
G01 X46.9797 Y56.2556
G01 X46.9271 Y56.1728
G01 X46.8745 Y56.0900
G01 X46.8219 Y56.0072
G01 X46.7694 Y55.9243
G01 X46.6990 Y55.8148
G01 X46.6432 Y55.7344
G01 X46.5875 Y55.6541
G01 X46.5317 Y55.5738
G01 X46.4759 Y55.4935
G01 X46.4024 Y55.3887
G01 X46.3435 Y55.3109
G01 X46.2845 Y55.2331
G01 X46.2255 Y55.1553
G01 X46.1666 Y55.0774
G01 X46.0893 Y54.9764
G01 X46.0271 Y54.9011
G01 X45.9650 Y54.8257
G01 X45.9028 Y54.7504
G01 X45.8407 Y54.6751
G01 X45.7785 Y54.5997
G01 X45.6953 Y54.5017
G01 X45.6282 Y54.4247
G01 X45.5611 Y54.3477
G01 X45.4940 Y54.2707
G01 X45.4268 Y54.1937
G01 X45.3597 Y54.1166
G01 X45.2926 Y54.0396
G01 X45.2483 Y53.9890
G01 X45.1814 Y53.9131
G01 X45.1144 Y53.8371
G01 X45.0475 Y53.7611
G01 X44.9806 Y53.6851
G01 X44.9136 Y53.6091
G01 X44.8467 Y53.5332
G01 X44.7979 Y53.4412 Z-3.1629
G01 X44.7676 Y53.3800 Z-3.1540
G01 X44.7213 Y53.2868 Z-3.1403
G01 X44.6750 Y53.1937 Z-3.1266
G01 X44.6286 Y53.1005 Z-3.1129
G01 X44.5823 Y53.0074 Z-3.0992
G01 X44.5358 Y52.9144 Z-3.0857
G01 X44.4886 Y52.8220 Z-3.0725
G01 X44.4412 Y52.7298 Z-3.0596
G01 X44.4101 Y52.6696 Z-3.0511
G01 X44.3628 Y52.5783 Z-3.0381
G01 X44.3155 Y52.4870 Z-3.0251
G01 X44.2683 Y52.3957 Z-3.0121
G01 X44.2210 Y52.3044 Z-2.9991
G01 X44.1737 Y52.2131 Z-2.9861
G01 X44.1264 Y52.1218 Z-2.9731
G01 X44.0791 Y52.0305 Z-2.9601
G01 X44.0480 Y51.9706 Z-2.9516
G01 X44.0007 Y51.8803 Z-2.9386
G01 X43.9528 Y51.7906 Z-2.9261
G01 X43.9046 Y51.7011 Z-2.9138
G01 X43.8563 Y51.6117 Z-2.9015
G01 X43.8081 Y51.5223 Z-2.8892
G01 X43.7598 Y51.4329 Z-2.8770
G01 X43.7116 Y51.3434 Z-2.8647
G01 X43.6797 Y51.2846 Z-2.8565
G01 X43.6316 Y51.1961 Z-2.8442
G01 X43.5835 Y51.1075 Z-2.8319
G01 X43.5354 Y51.0190 Z-2.8196
G01 X43.4873 Y50.9304 Z-2.8072
G01 X43.4389 Y50.8421 Z-2.7950
G01 X43.3899 Y50.7543 Z-2.7833
G01 X43.3407 Y50.6668 Z-2.7717
G01 X43.3081 Y50.6090 Z-2.7641
G01 X43.2590 Y50.5224 Z-2.7524
G01 X43.2100 Y50.4357 Z-2.7408
G01 X43.1609 Y50.3491 Z-2.7292
G01 X43.1118 Y50.2624 Z-2.7176
G01 X43.0627 Y50.1757 Z-2.7060
G01 X43.0136 Y50.0891 Z-2.6943
G01 X42.9646 Y50.0024 Z-2.6827
G01 X42.9320 Y49.9451 Z-2.6750
G01 X42.8829 Y49.8594 Z-2.6634
G01 X42.8332 Y49.7744 Z-2.6523
G01 X42.7831 Y49.6896 Z-2.6414
G01 X42.7331 Y49.6049 Z-2.6305
G01 X42.6830 Y49.5201 Z-2.6196
G01 X42.6330 Y49.4354 Z-2.6087
G01 X42.5829 Y49.3507 Z-2.5978
G01 X42.5496 Y49.2945 Z-2.5905
G01 X42.4997 Y49.2106 Z-2.5796
G01 X42.4499 Y49.1267 Z-2.5686
G01 X42.4000 Y49.0428 Z-2.5576
G01 X42.3501 Y48.9589 Z-2.5467
G01 X42.2999 Y48.8753 Z-2.5359
G01 X42.2491 Y48.7923 Z-2.5256
G01 X42.1981 Y48.7095 Z-2.5154
G01 X42.1640 Y48.6545 Z-2.5086
G01 X42.1132 Y48.5725 Z-2.4984
G01 X42.0624 Y48.4906 Z-2.4881
G01 X42.0115 Y48.4086 Z-2.4779
G01 X41.9607 Y48.3267 Z-2.4677
G01 X41.9098 Y48.2447 Z-2.4574
G01 X41.8590 Y48.1628 Z-2.4472
G01 X41.8082 Y48.0808 Z-2.4369
G01 X41.7706 Y48.0204 Z-2.4293
G01 X41.7123 Y47.9282 Z-2.4178
G01 X41.6532 Y47.8366 Z-2.4069
G01 X41.5940 Y47.7452 Z-2.3960
G01 X41.5348 Y47.6537 Z-2.3851
G01 X41.4756 Y47.5623 Z-2.3742
G01 X41.4164 Y47.4709 Z-2.3634
G01 X41.3744 Y47.4062 Z-2.3556
G01 X41.3154 Y47.3157 Z-2.3446
G01 X41.2564 Y47.2252 Z-2.3337
G01 X41.1975 Y47.1348 Z-2.3227
G01 X41.1383 Y47.0445 Z-2.3119
G01 X41.0782 Y46.9551 Z-2.3017
G01 X41.0180 Y46.8659 Z-2.2916
G01 X40.9751 Y46.8027 Z-2.2844
G01 X40.9151 Y46.7145 Z-2.2743
G01 X40.8550 Y46.6263 Z-2.2642
G01 X40.7950 Y46.5380 Z-2.2540
G01 X40.7350 Y46.4498 Z-2.2439
G01 X40.6749 Y46.3616 Z-2.2338
G01 X40.6149 Y46.2734 Z-2.2236
G01 X40.5721 Y46.2108 Z-2.2164
G01 X40.5117 Y46.1242 Z-2.2066
G01 X40.4506 Y46.0382 Z-2.1972
G01 X40.3895 Y45.9522 Z-2.1879
G01 X40.3284 Y45.8663 Z-2.1786
G01 X40.2673 Y45.7803 Z-2.1693
G01 X40.2063 Y45.6944 Z-2.1600
G01 X40.1628 Y45.6334 Z-2.1533
G01 X40.1019 Y45.5484 Z-2.1439
G01 X40.0410 Y45.4634 Z-2.1345
G01 X39.9802 Y45.3784 Z-2.1251
G01 X39.9189 Y45.2938 Z-2.1160
G01 X39.8569 Y45.2100 Z-2.1074
G01 X39.7948 Y45.1263 Z-2.0989
G01 X39.7505 Y45.0669 Z-2.0928
G01 X39.6886 Y44.9842 Z-2.0842
G01 X39.6267 Y44.9015 Z-2.0756
G01 X39.5649 Y44.8188 Z-2.0671
G01 X39.5030 Y44.7360 Z-2.0585
G01 X39.4411 Y44.6533 Z-2.0499
G01 X39.3792 Y44.5706 Z-2.0413
G01 X39.3351 Y44.5120 Z-2.0352
G01 X39.2726 Y44.4310 Z-2.0271
G01 X39.2097 Y44.3506 Z-2.0193
G01 X39.1468 Y44.2702 Z-2.0115
G01 X39.0839 Y44.1897 Z-2.0037
G01 X39.0210 Y44.1093 Z-1.9960
G01 X38.9581 Y44.0288 Z-1.9882
G01 X38.9134 Y43.9718 Z-1.9826
G01 X38.8508 Y43.8923 Z-1.9747
G01 X38.7882 Y43.8128 Z-1.9668
G01 X38.7255 Y43.7333 Z-1.9590
G01 X38.6623 Y43.6544 Z-1.9515
G01 X38.5985 Y43.5763 Z-1.9445
G01 X38.5346 Y43.4981 Z-1.9376
G01 X38.4892 Y43.4428 Z-1.9326
G01 X38.4256 Y43.3656 Z-1.9255
G01 X38.3620 Y43.2884 Z-1.9184
G01 X38.2984 Y43.2112 Z-1.9113
G01 X38.2348 Y43.1340 Z-1.9042
G01 X38.1712 Y43.0568 Z-1.8972
G01 X38.1076 Y42.9796 Z-1.8901
G01 X38.0623 Y42.9251 Z-1.8851
G01 X37.9981 Y42.8499 Z-1.8786
G01 X37.9336 Y42.7749 Z-1.8722
G01 X37.8691 Y42.6999 Z-1.8659
G01 X37.8046 Y42.6249 Z-1.8596
G01 X37.7402 Y42.5499 Z-1.8532
G01 X37.6755 Y42.4751 Z-1.8470
G01 X37.6310 Y42.4237 Z-1.8427
G01 X37.5647 Y42.3477 Z-1.8361
G01 X37.4984 Y42.2717 Z-1.8296
G01 X37.4320 Y42.1956 Z-1.8230
G01 X37.3656 Y42.1198 Z-1.8166
G01 X37.2991 Y42.0440 Z-1.8102
G01 X37.2326 Y41.9681 Z-1.8038
G01 X37.1661 Y41.8923 Z-1.7974
G01 X37.0996 Y41.8166 Z-1.7910
G01 X37.0329 Y41.7409 Z-1.7848
G01 X36.9663 Y41.6653 Z-1.7785
G01 X36.8996 Y41.5897 Z-1.7722
G01 X36.8329 Y41.5140 Z-1.7660
G01 X36.7661 Y41.4386 Z-1.7598
G01 X36.6993 Y41.3632 Z-1.7537
G01 X36.6325 Y41.2877 Z-1.7475
G01 X36.5656 Y41.2123 Z-1.7414
G01 X36.4987 Y41.1370 Z-1.7353
G01 X36.4317 Y41.0617 Z-1.7293
G01 X36.3647 Y40.9865 Z-1.7233
G01 X36.2977 Y40.9113 Z-1.7173
G01 X36.2307 Y40.8360 Z-1.7113
G01 X36.1635 Y40.7610 Z-1.7054
G01 X36.0963 Y40.6859 Z-1.6995
G01 X36.0292 Y40.6109 Z-1.6936
G01 X35.9620 Y40.5359 Z-1.6877
G01 X35.8947 Y40.4609 Z-1.6819
G01 X35.8274 Y40.3860 Z-1.6761
G01 X35.7600 Y40.3112 Z-1.6704
G01 X35.6927 Y40.2364 Z-1.6646
G01 X35.6253 Y40.1615 Z-1.6589
G01 X35.5578 Y40.0868 Z-1.6532
G01 X35.4903 Y40.0122 Z-1.6476
G01 X35.4228 Y39.9375 Z-1.6420
G01 X35.3553 Y39.8629 Z-1.6364
G01 X35.2877 Y39.7882 Z-1.6308
G01 X35.2200 Y39.7138 Z-1.6253
G01 X35.1523 Y39.6393 Z-1.6198
G01 X35.0846 Y39.5649 Z-1.6143
G01 X35.0169 Y39.4904 Z-1.6088
G01 X34.9492 Y39.4161 Z-1.6034
G01 X34.8813 Y39.3418 Z-1.5980
G01 X34.8134 Y39.2675 Z-1.5927
G01 X34.7456 Y39.1933 Z-1.5873
G01 X34.6777 Y39.1190 Z-1.5819
G01 X34.6097 Y39.0449 Z-1.5767
G01 X34.5416 Y38.9708 Z-1.5715
G01 X34.4736 Y38.8968 Z-1.5662
G01 X34.4056 Y38.8227 Z-1.5610
G01 X34.3375 Y38.7487 Z-1.5558
G01 X34.2693 Y38.6748 Z-1.5507
G01 X34.2011 Y38.6009 Z-1.5456
G01 X34.1329 Y38.5270 Z-1.5404
G01 X34.0647 Y38.4531 Z-1.5353
G01 X33.9964 Y38.3794 Z-1.5303
G01 X33.9281 Y38.3057 Z-1.5253
G01 X33.8597 Y38.2320 Z-1.5203
G01 X33.7913 Y38.1582 Z-1.5153
G01 X33.7230 Y38.0846 Z-1.5103
G01 X33.6545 Y38.0110 Z-1.5055
G01 X33.5859 Y37.9375 Z-1.5006
G01 X33.5174 Y37.8640 Z-1.4957
G01 X33.4489 Y37.7905 Z-1.4909
G01 X33.3803 Y37.7170 Z-1.4861
G01 X33.3116 Y37.6437 Z-1.4813
G01 X33.2429 Y37.5704 Z-1.4766
G01 X33.1742 Y37.4970 Z-1.4718
G01 X33.1056 Y37.4237 Z-1.4671
G01 X33.0368 Y37.3505 Z-1.4624
G01 X32.9679 Y37.2773 Z-1.4578
G01 X32.8991 Y37.2042 Z-1.4532
G01 X32.8302 Y37.1310 Z-1.4486
G01 X32.7614 Y37.0579 Z-1.4439
G01 X32.6924 Y36.9849 Z-1.4394
G01 X32.6234 Y36.9119 Z-1.4349
G01 X32.5544 Y36.8389 Z-1.4304
G01 X32.4854 Y36.7660 Z-1.4259
G01 X32.4163 Y36.6930 Z-1.4215
G01 X32.3472 Y36.6202 Z-1.4171
G01 X32.2780 Y36.5474 Z-1.4127
G01 X32.2088 Y36.4747 Z-1.4083
G01 X32.1397 Y36.4019 Z-1.4039
G01 X32.0704 Y36.3292 Z-1.3996
G01 X32.0011 Y36.2565 Z-1.3953
G01 X31.9318 Y36.1839 Z-1.3911
G01 X31.8625 Y36.1113 Z-1.3868
G01 X31.7932 Y36.0386 Z-1.3825
G01 X31.7245 Y35.9653 Z-1.3778
G01 X31.6558 Y35.8920 Z-1.3731
G01 X31.5870 Y35.8188 Z-1.3684
G01 X31.5183 Y35.7455 Z-1.3637
G01 X31.4493 Y35.6725 Z-1.3591
G01 X31.3803 Y35.5995 Z-1.3546
G01 X31.3113 Y35.5265 Z-1.3501
G01 X31.2423 Y35.4536 Z-1.3456
G01 X31.1733 Y35.3806 Z-1.3411
G01 X31.1040 Y35.3079 Z-1.3368
G01 X31.0347 Y35.2353 Z-1.3326
G01 X30.9654 Y35.1626 Z-1.3283
G01 X30.8962 Y35.0899 Z-1.3240
G01 X30.8268 Y35.0173 Z-1.3197
G01 X30.7573 Y34.9450 Z-1.3156
G01 X30.6877 Y34.8726 Z-1.3115
G01 X30.6182 Y34.8003 Z-1.3074
G01 X30.5487 Y34.7279 Z-1.3033
G01 X30.4790 Y34.6557 Z-1.2993
G01 X30.4092 Y34.5836 Z-1.2954
G01 X30.3394 Y34.5115 Z-1.2915
G01 X30.2696 Y34.4395 Z-1.2876
G01 X30.1998 Y34.3674 Z-1.2837
G01 X30.1298 Y34.2955 Z-1.2800
G01 X30.0597 Y34.2238 Z-1.2763
G01 X29.9897 Y34.1520 Z-1.2726
G01 X29.9196 Y34.0802 Z-1.2689
G01 X29.8495 Y34.0084 Z-1.2652
G01 X29.7793 Y33.9369 Z-1.2616
G01 X29.7089 Y33.8654 Z-1.2581
G01 X29.6386 Y33.7939 Z-1.2546
G01 X29.5683 Y33.7225 Z-1.2511
G01 X29.4980 Y33.6510 Z-1.2476
G01 X29.4274 Y33.5798 Z-1.2443
G01 X29.3568 Y33.5086 Z-1.2410
G01 X29.2862 Y33.4374 Z-1.2377
G01 X29.2157 Y33.3662 Z-1.2344
G01 X29.1451 Y33.2950 Z-1.2311
G01 X29.0742 Y33.2241 Z-1.2279
G01 X29.0034 Y33.1532 Z-1.2248
G01 X28.9326 Y33.0823 Z-1.2217
G01 X28.8617 Y33.0114 Z-1.2186
G01 X28.7908 Y32.9406 Z-1.2155
G01 X28.7198 Y32.8700 Z-1.2126
G01 X28.6487 Y32.7993 Z-1.2096
G01 X28.5776 Y32.7287 Z-1.2067
G01 X28.5065 Y32.6581 Z-1.2038
G01 X28.4353 Y32.5876 Z-1.2009
G01 X28.3640 Y32.5172 Z-1.1981
G01 X28.2927 Y32.4469 Z-1.1954
G01 X28.2213 Y32.3766 Z-1.1926
G01 X28.1500 Y32.3062 Z-1.1899
G01 X28.0786 Y32.2360 Z-1.1872
G01 X28.0070 Y32.1659 Z-1.1847
G01 X27.9354 Y32.0959 Z-1.1821
G01 X27.8639 Y32.0258 Z-1.1796
G01 X27.7923 Y31.9557 Z-1.1770
G01 X27.7206 Y31.8858 Z-1.1745
G01 X27.6488 Y31.8160 Z-1.1721
G01 X27.5770 Y31.7462 Z-1.1698
G01 X27.5051 Y31.6764 Z-1.1674
G01 X27.4333 Y31.6066 Z-1.1650
G01 X27.3614 Y31.5370 Z-1.1627
G01 X27.2893 Y31.4675 Z-1.1605
G01 X27.2173 Y31.3980 Z-1.1583
G01 X27.1452 Y31.3284 Z-1.1561
G01 X27.0731 Y31.2589 Z-1.1539
G01 X27.0010 Y31.1895 Z-1.1518
G01 X26.9287 Y31.1203 Z-1.1498
G01 X26.8564 Y31.0511 Z-1.1478
G01 X26.7841 Y30.9818 Z-1.1458
G01 X26.7118 Y30.9126 Z-1.1438
G01 X26.6394 Y30.8435 Z-1.1419
G01 X26.5668 Y30.7745 Z-1.1400
G01 X26.4943 Y30.7055 Z-1.1382
G01 X26.4218 Y30.6365 Z-1.1363
G01 X26.3492 Y30.5676 Z-1.1345
G01 X26.2766 Y30.4987 Z-1.1328
G01 X26.2038 Y30.4300 Z-1.1311
G01 X26.1310 Y30.3613 Z-1.1294
G01 X26.0583 Y30.2926 Z-1.1278
G01 X25.9855 Y30.2238 Z-1.1261
G01 X25.9126 Y30.1552 Z-1.1245
G01 X25.8396 Y30.0868 Z-1.1231
G01 X25.7666 Y30.0183 Z-1.1216
G01 X25.6936 Y29.9499 Z-1.1201
G01 X25.6206 Y29.8814 Z-1.1186
G01 X25.5476 Y29.8131 Z-1.1172
G01 X25.4743 Y29.7449 Z-1.1159
G01 X25.4011 Y29.6767 Z-1.1145
G01 X25.3279 Y29.6085 Z-1.1132
G01 X25.2546 Y29.5403 Z-1.1119
G01 X25.1814 Y29.4722 Z-1.1107
G01 X25.1079 Y29.4043 Z-1.1095
G01 X25.0344 Y29.3363 Z-1.1084
G01 X24.9610 Y29.2684 Z-1.1072
G01 X24.8875 Y29.2004 Z-1.1061
G01 X24.8140 Y29.1326 Z-1.1050
G01 X24.7400 Y29.0653 Z-1.1043
G01 X24.6660 Y28.9980 Z-1.1036
G01 X24.5920 Y28.9307 Z-1.1029
G01 X24.5179 Y28.8634 Z-1.1021
G01 X24.4439 Y28.7961 Z-1.1014
G01 X24.3699 Y28.7288 Z-1.1007
G01 X24.2958 Y28.6616 Z-1.1000
G01 X24.2218 Y28.5943 Z-1.0993
G01 X24.1478 Y28.5270 Z-1.0986
G01 X24.0737 Y28.4597 Z-1.0979
G01 X23.9997 Y28.3924 Z-1.0972
G01 X23.9257 Y28.3251 Z-1.0965
G01 X23.8516 Y28.2579 Z-1.0958
G01 X23.7776 Y28.1906 Z-1.0951
G01 X23.7036 Y28.1233 Z-1.0944
G01 X23.6295 Y28.0560 Z-1.0937
G01 X23.5555 Y27.9887 Z-1.0930
G01 X23.4815 Y27.9215 Z-1.0923
G01 X23.4075 Y27.8542 Z-1.0916
G01 X23.3334 Y27.7869 Z-1.0909
G01 X23.2594 Y27.7196 Z-1.0902
G01 X23.1854 Y27.6523 Z-1.0895
G01 X23.1113 Y27.5850 Z-1.0887
G01 X23.0373 Y27.5178 Z-1.0880
G01 X22.9633 Y27.4505 Z-1.0873
G01 X22.8892 Y27.3832 Z-1.0866
G01 X22.8152 Y27.3159 Z-1.0859
G01 X22.7412 Y27.2486 Z-1.0852
G01 X22.6671 Y27.1813 Z-1.0845
G01 X22.5931 Y27.1141 Z-1.0838
G01 X22.5191 Y27.0468 Z-1.0831
G01 X22.4450 Y26.9795 Z-1.0824
G01 X22.3710 Y26.9122 Z-1.0817
G01 X22.2970 Y26.8449 Z-1.0810
G01 X22.2229 Y26.7776 Z-1.0803
G01 X22.1489 Y26.7104 Z-1.0796
G01 X22.0749 Y26.6431 Z-1.0789
G01 X22.0008 Y26.5758 Z-1.0782
G01 X21.9268 Y26.5085 Z-1.0775
G01 X21.8528 Y26.4412 Z-1.0768
G01 X21.7788 Y26.3740 Z-1.0761
G01 X21.7047 Y26.3067 Z-1.0753
G01 X21.6307 Y26.2394 Z-1.0746
G01 X21.5567 Y26.1721 Z-1.0739
G01 X21.4826 Y26.1048 Z-1.0732
G01 X21.4086 Y26.0375 Z-1.0725
G01 X21.3346 Y25.9703 Z-1.0718
G01 X21.2605 Y25.9030 Z-1.0711
G01 X21.1865 Y25.8357 Z-1.0704
G01 X21.1125 Y25.7684 Z-1.0697
G01 X21.0384 Y25.7011 Z-1.0690
G01 X20.9644 Y25.6338 Z-1.0683
G01 X20.8904 Y25.5666 Z-1.0676
G01 X20.8163 Y25.4993 Z-1.0669
G01 X20.7423 Y25.4320 Z-1.0662
G01 X20.6683 Y25.3647 Z-1.0655
G01 X20.5942 Y25.2974 Z-1.0648
G01 X20.5202 Y25.2302 Z-1.0641
G01 X20.4462 Y25.1629 Z-1.0634
G01 X20.3721 Y25.0956 Z-1.0627
G01 X20.2981 Y25.0283 Z-1.0619
G01 X20.2241 Y24.9610 Z-1.0612
G01 X20.1500 Y24.8937 Z-1.0605
G01 X20.0760 Y24.8265 Z-1.0598
G01 X20.0020 Y24.7592 Z-1.0591
G01 X19.9280 Y24.6919 Z-1.0584
G01 X19.8539 Y24.6246 Z-1.0577
G01 X19.7799 Y24.5573 Z-1.0570
G01 X19.7059 Y24.4900 Z-1.0563
G01 X19.6318 Y24.4228 Z-1.0556
G01 X19.5578 Y24.3555 Z-1.0549
G01 X19.4838 Y24.2882 Z-1.0542
G01 X19.4097 Y24.2209 Z-1.0535
G01 X19.3357 Y24.1536 Z-1.0528
G01 X19.2617 Y24.0864 Z-1.0521
G01 X19.1876 Y24.0191 Z-1.0514
G01 X19.1136 Y23.9518 Z-1.0507
G01 X19.0396 Y23.8845 Z-1.0500
G01 X18.9655 Y23.8172 Z-1.0493
G01 X18.8915 Y23.7499 Z-1.0485
G01 X18.8175 Y23.6827 Z-1.0478
G01 X18.7434 Y23.6154 Z-1.0471
G01 X18.6694 Y23.5481 Z-1.0464
G01 X18.5954 Y23.4808 Z-1.0457
G01 X18.5213 Y23.4135 Z-1.0450
G01 X18.4473 Y23.3462 Z-1.0443
G01 X18.3733 Y23.2790 Z-1.0436
G01 X18.2992 Y23.2117 Z-1.0429
G01 X18.2252 Y23.1444 Z-1.0422
G01 X18.1512 Y23.0771 Z-1.0415
G01 X18.0772 Y23.0098 Z-1.0408
G01 X18.0031 Y22.9426 Z-1.0401
G01 X17.9291 Y22.8753 Z-1.0394
G01 X17.8551 Y22.8080 Z-1.0387
G01 X17.7810 Y22.7407 Z-1.0380
G01 X17.7070 Y22.6734 Z-1.0373
G01 X17.6330 Y22.6061 Z-1.0366
G01 X17.5589 Y22.5389 Z-1.0359
G01 X17.4849 Y22.4716 Z-1.0352
G01 X17.4109 Y22.4043 Z-1.0344
G01 X17.3368 Y22.3370 Z-1.0337
G01 X17.2628 Y22.2697 Z-1.0330
G01 X17.1888 Y22.2024 Z-1.0323
G01 X17.1147 Y22.1352 Z-1.0316
G01 X17.0407 Y22.0679 Z-1.0309
G01 X16.9667 Y22.0006 Z-1.0302
G01 X16.8926 Y21.9333 Z-1.0295
G01 X16.8186 Y21.8660 Z-1.0288
G01 X16.7446 Y21.7988 Z-1.0281
G01 X16.6705 Y21.7315 Z-1.0274
G01 X16.5965 Y21.6642 Z-1.0267
G01 X16.5225 Y21.5969 Z-1.0260
G01 X16.4484 Y21.5296 Z-1.0253
G01 X16.3744 Y21.4623 Z-1.0246
G01 X16.3004 Y21.3951 Z-1.0239
G01 X16.2264 Y21.3278 Z-1.0232
G01 X16.1523 Y21.2605 Z-1.0225
G01 X16.0783 Y21.1932 Z-1.0218
G01 X16.0043 Y21.1259 Z-1.0210
G01 X15.9302 Y21.0586 Z-1.0203
G01 X15.8562 Y20.9914 Z-1.0196
G01 X15.7822 Y20.9241 Z-1.0189
G01 X15.7081 Y20.8568 Z-1.0182
G01 X15.6341 Y20.7895 Z-1.0175
G01 X15.5601 Y20.7222 Z-1.0168
G01 X15.4860 Y20.6549 Z-1.0161
G01 X15.4120 Y20.5877 Z-1.0154
G01 X15.3380 Y20.5204 Z-1.0147
G01 X15.2639 Y20.4531 Z-1.0140
G01 X15.1899 Y20.3858 Z-1.0133
G01 X15.1159 Y20.3185 Z-1.0126
G01 X15.0418 Y20.2513 Z-1.0119
G01 X14.9678 Y20.1840 Z-1.0112
G01 X14.8938 Y20.1167 Z-1.0105
G01 X14.8197 Y20.0494 Z-1.0098
G01 X14.7457 Y19.9821 Z-1.0091
G01 X14.6717 Y19.9148 Z-1.0084
G01 X14.5977 Y19.8476 Z-1.0076
G01 X14.5236 Y19.7803 Z-1.0069
G01 X14.4496 Y19.7130 Z-1.0062
G01 X14.3756 Y19.6457 Z-1.0055
G01 X14.3015 Y19.5784 Z-1.0048
G01 X14.2275 Y19.5111 Z-1.0041
G01 X14.1535 Y19.4439 Z-1.0034
G01 X14.0794 Y19.3766 Z-1.0027
G01 X14.0054 Y19.3093 Z-1.0020
G01 X13.9314 Y19.2420 Z-1.0013
G01 X13.8573 Y19.1747 Z-1.0006
G01 X13.7833 Y19.1075 Z-0.9999
G01 X13.7093 Y19.0402 Z-0.9992
G01 X13.6352 Y18.9729 Z-0.9985
G01 X13.5612 Y18.9056 Z-0.9978
G01 X13.4872 Y18.8383 Z-0.9971
G01 X13.4131 Y18.7710 Z-0.9964
G01 X13.3391 Y18.7038 Z-0.9957
G01 X13.2651 Y18.6365 Z-0.9950
G01 X13.1910 Y18.5692 Z-0.9942
G01 X13.1170 Y18.5019 Z-0.9935
G01 X13.0430 Y18.4346 Z-0.9928
G01 X12.9689 Y18.3673 Z-0.9921
G01 X12.8949 Y18.3001 Z-0.9914
G01 X12.8209 Y18.2328 Z-0.9907
G01 X12.7469 Y18.1655 Z-0.9900
G01 X12.6728 Y18.0982 Z-0.9893
G01 X12.5988 Y18.0309 Z-0.9886
G01 X12.5248 Y17.9637 Z-0.9879
G01 X12.4507 Y17.8964 Z-0.9872
G01 X12.3767 Y17.8291 Z-0.9865
G01 X12.3027 Y17.7618 Z-0.9858
G01 X12.2286 Y17.6945 Z-0.9851
G01 X12.1546 Y17.6272 Z-0.9844
G01 X12.0806 Y17.5600 Z-0.9837
G01 X12.0065 Y17.4927 Z-0.9830
G01 X11.9325 Y17.4254 Z-0.9823
G01 X11.8585 Y17.3581 Z-0.9816
G01 X11.7844 Y17.2908 Z-0.9808
G01 X11.7104 Y17.2235 Z-0.9801
G01 X11.6364 Y17.1563 Z-0.9794
G01 X11.5623 Y17.0890 Z-0.9787
G01 X11.4883 Y17.0217 Z-0.9780
G01 X11.4143 Y16.9544 Z-0.9773
G01 X11.3402 Y16.8871 Z-0.9766
G01 X11.2662 Y16.8199 Z-0.9759
G01 X11.1922 Y16.7526 Z-0.9752
G01 X11.1181 Y16.6853 Z-0.9745
G01 X11.0441 Y16.6180 Z-0.9738
G01 X10.9701 Y16.5507 Z-0.9731
G01 X10.8961 Y16.4834 Z-0.9724
G01 X10.8220 Y16.4162 Z-0.9717
G01 X10.7480 Y16.3489 Z-0.9710
G01 X10.6740 Y16.2816 Z-0.9703
G01 X10.5999 Y16.2143 Z-0.9696
G01 X10.5259 Y16.1470 Z-0.9689
G01 X10.4519 Y16.0797 Z-0.9682
G01 X10.3778 Y16.0125 Z-0.9674
G01 X10.3038 Y15.9452 Z-0.9667
G01 X10.2298 Y15.8779 Z-0.9660
G01 X10.1557 Y15.8106 Z-0.9653
G01 X10.0817 Y15.7433 Z-0.9646
G01 X10.0077 Y15.6761 Z-0.9639
G01 X9.9336 Y15.6088 Z-0.9632
G01 X9.8596 Y15.5415 Z-0.9625
G01 X9.7856 Y15.4742 Z-0.9618
G01 X9.7115 Y15.4069 Z-0.9611
G01 X9.6375 Y15.3396 Z-0.9604
G01 X9.5635 Y15.2724 Z-0.9597
G01 X9.4894 Y15.2051 Z-0.9590
G01 X9.4154 Y15.1378 Z-0.9583
G01 X9.3414 Y15.0705 Z-0.9576
G01 X9.2673 Y15.0032 Z-0.9569
G01 X9.1933 Y14.9359 Z-0.9562
G01 X9.1193 Y14.8687 Z-0.9555
G01 X9.0453 Y14.8014 Z-0.9548
G01 X8.9712 Y14.7341 Z-0.9540
G01 X8.8972 Y14.6668 Z-0.9533
G01 X8.8232 Y14.5995 Z-0.9526
G01 X8.7491 Y14.5322 Z-0.9519
G01 X8.6751 Y14.4650 Z-0.9512
G01 X8.6011 Y14.3977 Z-0.9505
G01 X8.5270 Y14.3304 Z-0.9498
G01 X8.4530 Y14.2631 Z-0.9491
G01 X8.3790 Y14.1958 Z-0.9484
G01 X8.3049 Y14.1286 Z-0.9477
G01 X8.2309 Y14.0613 Z-0.9470
G01 X8.1569 Y13.9940 Z-0.9463
G01 X8.1188 Y13.9594 Z-0.9459
G01 X8.0704 Y13.9146 Z-0.9458
G01 X8.0227 Y13.8689 Z-0.9462
G01 X7.9758 Y13.8223 Z-0.9472
G01 X7.9296 Y13.7748 Z-0.9487
G01 X7.8841 Y13.7264 Z-0.9509
G01 X7.8392 Y13.6770 Z-0.9536
G01 X7.7951 Y13.6265 Z-0.9570
G01 X7.7516 Y13.5751 Z-0.9609
G01 X7.7087 Y13.5225 Z-0.9655
G01 X7.6664 Y13.4688 Z-0.9706
G01 X7.6247 Y13.4139 Z-0.9765
G01 X7.5836 Y13.3577 Z-0.9829
G01 X7.5430 Y13.3002 Z-0.9901
G01 X7.5030 Y13.2414 Z-0.9979
G01 X7.4636 Y13.1812 Z-1.0064
G01 X7.4247 Y13.1194 Z-1.0157
G01 X7.3863 Y13.0561 Z-1.0257
G01 X7.3485 Y12.9912 Z-1.0365
G01 X7.3112 Y12.9245 Z-1.0481
G01 X7.2745 Y12.8560 Z-1.0606
G01 X7.2383 Y12.7856 Z-1.0740
G01 X7.2026 Y12.7133 Z-1.0882
G01 X7.1676 Y12.6388 Z-1.1035
G01 X7.1331 Y12.5620 Z-1.1197
G01 X7.0992 Y12.4830 Z-1.1370
G01 X7.0659 Y12.4014 Z-1.1554
G01 X7.0332 Y12.3172 Z-1.1750
G01 X7.0012 Y12.2303 Z-1.1958
G01 X6.9699 Y12.1404 Z-1.2180
G01 X6.9393 Y12.0475 Z-1.2415
G01 X6.9095 Y11.9512 Z-1.2665
G01 X6.8805 Y11.8514 Z-1.2930
G01 X6.8523 Y11.7479 Z-1.3212
G01 X6.8251 Y11.6404 Z-1.3511
G01 X6.7989 Y11.5288 Z-1.3830
G01 X6.7737 Y11.4126 Z-1.4168
G01 X6.7498 Y11.2916 Z-1.4529
G01 X6.7270 Y11.1654 Z-1.4912
G01 X6.7057 Y11.0337 Z-1.5320
G01 X6.6858 Y10.8962 Z-1.5754
G01 X6.6676 Y10.7522 Z-1.6218
G01 X6.6512 Y10.6015 Z-1.6712
G01 X6.6368 Y10.4434 Z-1.7241
G01 X6.6246 Y10.2774 Z-1.7805
G01 X6.6148 Y10.1028 Z-1.8410
G01 X6.6077 Y9.9189 Z-1.9057
G01 X6.6036 Y9.7250 Z-1.9751
G01 X6.6029 Y9.5201 Z-2.0497
G01 X6.6059 Y9.3033 Z-2.1299
G01 X6.6131 Y9.0735 Z-2.2163
G01 X6.6250 Y8.8295 Z-2.3095
G01 X6.6422 Y8.5700 Z-2.4101
G01 X6.6654 Y8.2933 Z-2.5191
G01 X6.6953 Y7.9977 Z-2.6373
G01 X6.7330 Y7.6814 Z-2.7657
G01 X6.7795 Y7.3419 Z-2.9056
G01 X6.8360 Y6.9768 Z-3.0582
G01 X6.8913 Y6.6973 Z-3.1750
G01 X6.9424 Y6.6759
G01 X6.9937 Y6.6549
G01 X7.0451 Y6.6343
G01 X7.0968 Y6.6143
G01 X7.1486 Y6.5946
G01 X7.2006 Y6.5754
G01 X7.2527 Y6.5567
G01 X7.3050 Y6.5384
G01 X7.3575 Y6.5206
G01 X7.4101 Y6.5033
G01 X7.4629 Y6.4864
G01 X7.5158 Y6.4700
G01 X7.5689 Y6.4540
G01 X7.6221 Y6.4385
G01 X7.6754 Y6.4234
G01 X7.7289 Y6.4089
G01 X7.7825 Y6.3948
G01 X7.8362 Y6.3811
G01 X7.8900 Y6.3679
G01 X7.9440 Y6.3552
G01 X7.9988 Y6.3465 Z-3.1732
G01 X8.0541 Y6.3405 Z-3.1703
G01 X8.1094 Y6.3348 Z-3.1674
G01 X8.1647 Y6.3294 Z-3.1647
G01 X8.2199 Y6.3242 Z-3.1621
G01 X8.2751 Y6.3192 Z-3.1596
G01 X8.3302 Y6.3145 Z-3.1573
G01 X8.3853 Y6.3101 Z-3.1550
G01 X8.4403 Y6.3059 Z-3.1529
G01 X8.4953 Y6.3019 Z-3.1510
G01 X8.5503 Y6.2982 Z-3.1491
G01 X8.6053 Y6.2947 Z-3.1474
G01 X8.6602 Y6.2915 Z-3.1457
G01 X8.7151 Y6.2885 Z-3.1442
G01 X8.7699 Y6.2857 Z-3.1429
G01 X8.8248 Y6.2832 Z-3.1416
G01 X8.8796 Y6.2809 Z-3.1405
G01 X8.9344 Y6.2789 Z-3.1394
G01 X8.9892 Y6.2771 Z-3.1385
G01 X9.0440 Y6.2755 Z-3.1378
G01 X9.0987 Y6.2742 Z-3.1371
G01 X9.1535 Y6.2732 Z-3.1366
G01 X9.2082 Y6.2723 Z-3.1362
G01 X9.2629 Y6.2717 Z-3.1359
G01 X9.3177 Y6.2714 Z-3.1357
G01 X9.3724 Y6.2712 Z-3.1356
G01 X9.4225
G01 X9.5226
G01 X9.6227
G01 X9.7228
G01 X9.8229
G01 X9.9230
G01 X10.0230
G01 X10.1231
G01 X10.2232
G01 X10.3233
G01 X10.4234
G01 X10.5235
G01 X10.6236
G01 X10.7237
G01 X10.8238
G01 X10.9239
G01 X11.0240
G01 X11.1241
G01 X11.2242
G01 X11.3243
G01 X11.4244
G01 X11.5245
G01 X11.6246
G01 X11.7247
G01 X11.8248
G01 X11.9249
G01 X12.0250
G01 X12.1251
G01 X12.2252
G01 X12.3253
G01 X12.4254
G01 X12.5255
G01 X12.6256
G01 X12.7257
G01 X12.8258
G01 X12.9259
G01 X13.0260
G01 X13.1261
G01 X13.2262
G01 X13.3263
G01 X13.4264
G01 X13.5265
G01 X13.6266
G01 X13.7267
G01 X13.8268
G01 X13.9269
G01 X14.0270
G01 X14.1271
G01 X14.2272
G01 X14.3273
G01 X14.4274
G01 X14.5275
G01 X14.6276
G01 X14.7277
G01 X14.8278
G01 X14.9279
G01 X15.0280
G01 X15.1281
G01 X15.2282
G01 X15.3283
G01 X15.4284
G01 X15.5285
G01 X15.6286
G01 X15.7287
G01 X15.8288
G01 X15.9289
G01 X16.0290
G01 X16.1291
G01 X16.2292
G01 X16.3293
G01 X16.4294
G01 X16.5295
G01 X16.6296
G01 X16.7297
G01 X16.8298
G01 X16.9299
G01 X17.0300
G01 X17.1301
G01 X17.2302
G01 X17.3303
G01 X17.4304
G01 X17.5305
G01 X17.6306
G01 X17.7307
G01 X17.8308
G01 X17.9309
G01 X18.0310
G01 X18.1311
G01 X18.2312
G01 X18.3313
G01 X18.4314
G01 X18.5315
G01 X18.6316
G01 X18.7317
G01 X18.8318
G01 X18.9319
G01 X19.0320
G01 X19.1321
G01 X19.2322
G01 X19.3323
G01 X19.4324
G01 X19.5325
G01 X19.6326
G01 X19.7327
G01 X19.8328
G01 X19.9329
G01 X20.0330
G01 X20.1331
G01 X20.2332
G01 X20.3333
G01 X20.4334
G01 X20.5335
G01 X20.6336
G01 X20.7337
G01 X20.8338
G01 X20.9339
G01 X21.0340
G01 X21.1341
G01 X21.2342
G01 X21.3343
G01 X21.4344
G01 X21.5345
G01 X21.6346
G01 X21.7347
G01 X21.8348
G01 X21.9349
G01 X22.0350
G01 X22.1351
G01 X22.2352
G01 X22.3353
G01 X22.4354
G01 X22.5355
G01 X22.6356
G01 X22.7357
G01 X22.8358
G01 X22.9359
G01 X23.0360
G01 X23.1361
G01 X23.2362
G01 X23.3363
G01 X23.4364
G01 X23.5365
G01 X23.6366
G01 X23.7367
G01 X23.8368
G01 X23.9369
G01 X24.0370
G01 X24.1371
G01 X24.2372
G01 X24.3373
G01 X24.4374
G01 X24.5375
G01 X24.6376
G01 X24.7377
G01 X24.8378
G01 X24.9379
G01 X25.0380
G01 X25.1381
G01 X25.2382
G01 X25.3383
G01 X25.4384
G01 X25.5385
G01 X25.6386
G01 X25.7387
G01 X25.8388
G01 X25.9389
G01 X26.0390
G01 X26.1391
G01 X26.2392
G01 X26.3393
G01 X26.4394
G01 X26.5395
G01 X26.6396
G01 X26.7397
G01 X26.8398
G01 X26.9399
G01 X27.0400
G01 X27.1401
G01 X27.2402
G01 X27.3403
G01 X27.4404
G01 X27.5405
G01 X27.6406
G01 X27.7407
G01 X27.8408
G01 X27.9409
G01 X28.0410
G01 X28.1411
G01 X28.2412
G01 X28.3413
G01 X28.4414
G01 X28.5415
G01 X28.6416
G01 X28.7417
G01 X28.8418
G01 X28.9419
G01 X29.0420
G01 X29.1421
G01 X29.2422
G01 X29.3423
G01 X29.4424
G01 X29.5425
G01 X29.6426
G01 X29.7427
G01 X29.8428
G01 X29.9429
G01 X30.0430
G01 X30.1431
G01 X30.2432
G01 X30.3433
G01 X30.4434
G01 X30.5435
G01 X30.6436
G01 X30.7437
G01 X30.8438
G01 X30.9439
G01 X31.0440
G01 X31.1441
G01 X31.2442
G01 X31.3443
G01 X31.4444
G01 X31.5445
G01 X31.6446
G01 X31.7447
G01 X31.8448
G01 X31.9449
G01 X32.0450
G01 X32.1451
G01 X32.2452
G01 X32.3453
G01 X32.4454
G01 X32.5455
G01 X32.6456
G01 X32.7457
G01 X32.8458
G01 X32.9459
G01 X33.0460
G01 X33.1461
G01 X33.2462
G01 X33.3463
G01 X33.4464
G01 X33.5465
G01 X33.6466
G01 X33.7467
G01 X33.8468
G01 X33.9469
G01 X34.0470
G01 X34.1471
G01 X34.2472
G01 X34.3473
G01 X34.4474
G01 X34.5475
G01 X34.6476
G01 X34.7477
G01 X34.8478
G01 X34.9479
G01 X35.0479
G01 X35.1480
G01 X35.2481
G01 X35.3482
G01 X35.4483
G01 X35.5484
G01 X35.6485
G01 X35.7486
G01 X35.8487
G01 X35.9488
G01 X36.0489
G01 X36.1490
G01 X36.2491
G01 X36.3492
G01 X36.4493
G01 X36.5494
G01 X36.6495
G01 X36.7496
G01 X36.8497
G01 X36.9498
G01 X37.0499
G01 X37.1500
G01 X37.2501
G01 X37.3502
G01 X37.4503
G01 X37.5504
G01 X37.6505
G01 X37.7506
G01 X37.8507
G01 X37.9508
G01 X38.0509
G01 X38.1510
G01 X38.2511
G01 X38.3512
G01 X38.4513
G01 X38.5514
G01 X38.6515
G01 X38.7516
G01 X38.8517
G01 X38.9518
G01 X39.0519
G01 X39.1520
G01 X39.2521
G01 X39.3522
G01 X39.4523
G01 X39.5524
G01 X39.6525
G01 X39.7526
G01 X39.8527
G01 X39.9528
G01 X40.0529
G01 X40.1530
G01 X40.2531
G01 X40.3532
G01 X40.4533
G01 X40.5534
G01 X40.6535
G01 X40.7536
G01 X40.8537
G01 X40.9538
G01 X41.0539
G01 X41.1540
G01 X41.2541
G01 X41.3542
G01 X41.4543
G01 X41.5544
G01 X41.6545
G01 X41.7546
G01 X41.8547
G01 X41.9548
G01 X42.0549
G01 X42.1550
G01 X42.2551
G01 X42.3552
G01 X42.4553
G01 X42.5554
G01 X42.6555
G01 X42.7556
G01 X42.8557
G01 X42.9558
G01 X43.0559
G01 X43.1560
G01 X43.2561
G01 X43.3562
G01 X43.4563
G01 X43.5564
G01 X43.6565
G01 X43.7566
G01 X43.8567
G01 X43.9568
G01 X44.0569
G01 X44.1570
G01 X44.2571
G01 X44.3572
G01 X44.4573
G01 X44.5574
G01 X44.6575
G01 X44.7576
G01 X44.8577
G01 X44.9578
G01 X45.0579
G01 X45.1580
G01 X45.3616 Y6.2721 Z-3.1360
G01 X45.4599 Y6.2729 Z-3.1365
G01 X45.5582 Y6.2737 Z-3.1369
G01 X45.6565 Y6.2745 Z-3.1373
G01 X45.9728 Y6.2799 Z-3.1400
G01 X46.0680 Y6.2824 Z-3.1412
G01 X46.1631 Y6.2848 Z-3.1424
G01 X46.2583 Y6.2873 Z-3.1436
G01 X46.5868 Y6.2988 Z-3.1494
G01 X46.6789 Y6.3029 Z-3.1515
G01 X46.7710 Y6.3070 Z-3.1535
G01 X46.8631 Y6.3111 Z-3.1556
G01 X47.2054 Y6.3298 Z-3.1649
G01 X47.2946 Y6.3355 Z-3.1678
G01 X47.3838 Y6.3413 Z-3.1706
G01 X47.4730 Y6.3470 Z-3.1735
G01 X47.8408 Y6.3999 Z-3.1750
G01 X47.9544 Y6.4195
G01 X48.0680 Y6.4392
G01 X48.4330 Y6.6414 Z-3.1109
G01 X48.5236 Y6.7504 Z-3.0674
G01 X48.6141 Y6.8593 Z-3.0239
G01 X48.9246 Y7.2420 Z-2.8749
G01 X49.0085 Y7.3480 Z-2.8347
G01 X49.0923 Y7.4540 Z-2.7945
G01 X49.3808 Y7.8280 Z-2.6564
G01 X49.4584 Y7.9312 Z-2.6194
G01 X49.5359 Y8.0345 Z-2.5823
G01 X49.8025 Y8.3993 Z-2.4550
G01 X49.8740 Y8.5001 Z-2.4209
G01 X49.9456 Y8.6009 Z-2.3867
G01 X50.1904 Y8.9559 Z-2.2701
G01 X50.2564 Y9.0546 Z-2.2388
G01 X50.3223 Y9.1532 Z-2.2074
G01 X50.5457 Y9.4979 Z-2.1014
G01 X50.6064 Y9.5947 Z-2.0726
G01 X50.6671 Y9.6915 Z-2.0439
G01 X50.8696 Y10.0253 Z-1.9481
G01 X50.9254 Y10.1206 Z-1.9217
G01 X50.9811 Y10.2159 Z-1.8954
G01 X51.1634 Y10.5385 Z-1.8096
G01 X51.2146 Y10.6326 Z-1.7855
G01 X51.2659 Y10.7267 Z-1.7614
G01 X51.4288 Y11.0376 Z-1.6850
G01 X51.4758 Y11.1310 Z-1.6631
G01 X51.5228 Y11.2244 Z-1.6411
G01 X51.6673 Y11.5234 Z-1.5737
G01 X51.7104 Y11.6164 Z-1.5537
G01 X51.7535 Y11.7094 Z-1.5336
G01 X51.8809 Y11.9965 Z-1.4746
G01 X51.9204 Y12.0895 Z-1.4564
G01 X51.9598 Y12.1825 Z-1.4382
G01 X52.0714 Y12.4579 Z-1.3869
G01 X52.1074 Y12.5513 Z-1.3704
G01 X52.1435 Y12.6447 Z-1.3539
G01 X52.2406 Y12.9087 Z-1.3097
G01 X52.2735 Y13.0029 Z-1.2947
G01 X52.3064 Y13.0971 Z-1.2798
G01 X52.3904 Y13.3502 Z-1.2420
G01 X52.4203 Y13.4456 Z-1.2285
G01 X52.4503 Y13.5410 Z-1.2151
G01 X52.5225 Y13.7839 Z-1.1829
G01 X52.5497 Y13.8809 Z-1.1709
G01 X52.5769 Y13.9778 Z-1.1589
G01 X52.6290 Y14.1709 Z-1.1360
G01 X52.6567 Y14.2779 Z-1.1239
G01 X52.6844 Y14.3849 Z-1.1118
G01 X52.7392 Y14.6084 Z-1.0880
G01 X52.7654 Y14.7216 Z-1.0768
G01 X52.7916 Y14.8348 Z-1.0655
G01 X52.8354 Y15.0338 Z-1.0468
G01 X52.8540 Y15.1236 Z-1.0390
G01 X52.8726 Y15.2133 Z-1.0312
G01 X52.8912 Y15.3031 Z-1.0233
G01 X52.9258 Y15.4797 Z-1.0089
G01 X52.9434 Y15.5744 Z-1.0016
G01 X52.9610 Y15.6692 Z-0.9944
G01 X52.9786 Y15.7640 Z-0.9871
G01 X53.0085 Y15.9346 Z-0.9749
G01 X53.0251 Y16.0346 Z-0.9683
G01 X53.0417 Y16.1345 Z-0.9616
G01 X53.0583 Y16.2345 Z-0.9549
G01 X53.0845 Y16.4010 Z-0.9445
G01 X53.1002 Y16.5063 Z-0.9384
G01 X53.1159 Y16.6116 Z-0.9323
G01 X53.1315 Y16.7168 Z-0.9262
G01 X53.1546 Y16.8809 Z-0.9173
G01 X53.1694 Y16.9916 Z-0.9117
G01 X53.1841 Y17.1023 Z-0.9061
G01 X53.1989 Y17.2130 Z-0.9005
G01 X53.2180 Y17.3643 Z-0.8934
G01 X53.2291 Y17.4573 Z-0.8894
G01 X53.2401 Y17.5502 Z-0.8854
G01 X53.2512 Y17.6432 Z-0.8813
G01 X53.2623 Y17.7361 Z-0.8773
G01 X53.2780 Y17.8753 Z-0.8717
G01 X53.2883 Y17.9727 Z-0.8682
G01 X53.2987 Y18.0701 Z-0.8646
G01 X53.3090 Y18.1676 Z-0.8610
G01 X53.3194 Y18.2650 Z-0.8574
G01 X53.3333 Y18.4039 Z-0.8526
G01 X53.3430 Y18.5059 Z-0.8495
G01 X53.3526 Y18.6078 Z-0.8463
G01 X53.3623 Y18.7098 Z-0.8431
G01 X53.3719 Y18.8117 Z-0.8400
G01 X53.3844 Y18.9512 Z-0.8360
G01 X53.3934 Y19.0577 Z-0.8332
G01 X53.4023 Y19.1642 Z-0.8305
G01 X53.4113 Y19.2707 Z-0.8277
G01 X53.4202 Y19.3773 Z-0.8250
G01 X53.4307 Y19.5086 Z-0.8219
G01 X53.4375 Y19.6012 Z-0.8200
G01 X53.4444 Y19.6939 Z-0.8180
G01 X53.4513 Y19.7865 Z-0.8161
G01 X53.4582 Y19.8791 Z-0.8141
G01 X53.4651 Y19.9717 Z-0.8122
G01 X53.4737 Y20.0951 Z-0.8099
G01 X53.4800 Y20.1916 Z-0.8083
G01 X53.4863 Y20.2881 Z-0.8067
G01 X53.4926 Y20.3846 Z-0.8051
G01 X53.4989 Y20.4811 Z-0.8035
G01 X53.5053 Y20.5776 Z-0.8020
G01 X53.5129 Y20.7024 Z-0.8002
G01 X53.5186 Y20.8028 Z-0.7989
G01 X53.5244 Y20.9032 Z-0.7977
G01 X53.5301 Y21.0036 Z-0.7964
G01 X53.5358 Y21.1040 Z-0.7952
G01 X53.5416 Y21.2044 Z-0.7940
G01 X53.5483 Y21.3309 Z-0.7926
G01 X53.5535 Y21.4353 Z-0.7917
G01 X53.5587 Y21.5396 Z-0.7909
G01 X53.5638 Y21.6440 Z-0.7900
G01 X53.5690 Y21.7483 Z-0.7891
G01 X53.5742 Y21.8527 Z-0.7882
G01 X53.5797 Y21.9735 Z-0.7874
G01 X53.5837 Y22.0663 Z-0.7869
G01 X53.5876 Y22.1591 Z-0.7864
G01 X53.5916 Y22.2520 Z-0.7860
G01 X53.5955 Y22.3448 Z-0.7855
G01 X53.5995 Y22.4376 Z-0.7850
G01 X53.6034 Y22.5305 Z-0.7846
G01 X53.6079 Y22.6456 Z-0.7842
G01 X53.6114 Y22.7418 Z-0.7840
G01 X53.6148 Y22.8381 Z-0.7838
G01 X53.6183 Y22.9343 Z-0.7837
G01 X53.6217 Y23.0306 Z-0.7835
G01 X53.6252 Y23.1268 Z-0.7833
G01 X53.6286 Y23.2230 Z-0.7832
G01 X53.6325 Y23.3401 Z-0.7831
G01 X53.6355 Y23.4398 Z-0.7833
G01 X53.6384 Y23.5395 Z-0.7834
G01 X53.6414 Y23.6391 Z-0.7835
G01 X53.6444 Y23.7388 Z-0.7837
G01 X53.6473 Y23.8385 Z-0.7838
G01 X53.6425 Y23.9384 Z-0.7800
G01 X53.5240 Y24.0595 Z-0.7195
G01 X53.4209 Y24.1642 Z-0.6671
G01 X53.3177 Y24.2690 Z-0.6147
G01 X53.2146 Y24.3738 Z-0.5623
G01 X53.1114 Y24.4786 Z-0.5099
G01 X53.0083 Y24.5834 Z-0.4576
G01 X52.9052 Y24.6881 Z-0.4052
G01 X52.7923 Y24.8022 Z-0.3481
G01 X52.6857 Y24.9093 Z-0.2946
G01 X52.5791 Y25.0164 Z-0.2410
G01 X52.4725 Y25.1235 Z-0.1875
G01 X52.3660 Y25.2307 Z-0.1339
G01 X52.2594 Y25.3378 Z-0.0803
G01 X52.1528 Y25.4449 Z-0.0268
G01 X52.0995 Y25.4985 Z0.0000
G01 X52.1491 Y25.4487 Z-0.0249
G01 X52.2481 Y25.3491 Z-0.0747
G01 X52.3472 Y25.2495 Z-0.1245
G01 X52.4463 Y25.1500 Z-0.1742
G01 X52.6444 Y24.9508 Z-0.2738
G01 X52.8425 Y24.7517 Z-0.3734
G01 X53.0406 Y24.5505 Z-0.4740
G01 X53.2388 Y24.3492 Z-0.5746
G01 X53.4369 Y24.1479 Z-0.6753
G01 X53.6350 Y23.9461 Z-0.7762
G01 X53.7341 Y24.0119 Z-0.7433
G01 X53.8332 Y24.1078 Z-0.6953
G01 X53.9322 Y24.2038 Z-0.6474
G01 X54.0313 Y24.2997 Z-0.5994
G01 X54.1304 Y24.3956 Z-0.5514
G01 X54.2294 Y24.4915 Z-0.5035
G01 X54.3285 Y24.5874 Z-0.4555
G01 X54.4276 Y24.6833 Z-0.4076
G01 X54.5266 Y24.7792 Z-0.3596
G01 X54.6257 Y24.8751 Z-0.3117
G01 X54.7248 Y24.9710 Z-0.2637
G01 X54.8238 Y25.0669 Z-0.2158
G01 X54.9229 Y25.1628 Z-0.1678
G01 X55.0219 Y25.2587 Z-0.1199
G01 X55.1210 Y25.3546 Z-0.0719
G01 X55.2201 Y25.4505 Z-0.0240
G01 X55.2696 Y25.4985 Z0.0000
G01 X55.2201 Y25.4505 Z-0.0480
G01 X55.1210 Y25.3546 Z-0.1439
G01 X55.0219 Y25.2587 Z-0.2398
G01 X54.9229 Y25.1628 Z-0.3357
G01 X54.8238 Y25.0669 Z-0.4316
G01 X54.7248 Y24.9710 Z-0.5275
G01 X54.6257 Y24.8751 Z-0.6234
G01 X54.5266 Y24.7792 Z-0.7193
G01 X54.4276 Y24.6833 Z-0.8152
G01 X54.3285 Y24.5874 Z-0.9111
G01 X54.2294 Y24.4915 Z-1.0070
G01 X54.1304 Y24.3956 Z-1.1029
G01 X54.0313 Y24.2997 Z-1.1988
G01 X53.9322 Y24.2038 Z-1.2947
G01 X53.8332 Y24.1078 Z-1.3906
G01 X53.7341 Y24.0119 Z-1.4865
G01 X53.6350 Y23.9461 Z-1.5524
G01 X53.4369 Y24.1479 Z-1.3505
G01 X53.2388 Y24.3492 Z-1.1492
G01 X53.0406 Y24.5505 Z-0.9480
G01 X52.8425 Y24.7517 Z-0.7468
G01 X52.6444 Y24.9508 Z-0.5476
G01 X52.4463 Y25.1500 Z-0.3485
G01 X52.3472 Y25.2495 Z-0.2489
G01 X52.2481 Y25.3491 Z-0.1494
G01 X52.1491 Y25.4487 Z-0.0498
G01 X52.0995 Y25.4985 Z0.0000
G01 X52.1528 Y25.4449 Z-0.0536
G01 X52.2594 Y25.3378 Z-0.1607
G01 X52.3660 Y25.2307 Z-0.2678
G01 X52.4725 Y25.1235 Z-0.3749
G01 X52.5791 Y25.0164 Z-0.4820
G01 X52.6857 Y24.9093 Z-0.5891
G01 X52.7923 Y24.8022 Z-0.6963
G01 X52.9052 Y24.6881 Z-0.8103
G01 X53.0083 Y24.5834 Z-0.9151
G01 X53.1114 Y24.4786 Z-1.0199
G01 X53.2146 Y24.3738 Z-1.1247
G01 X53.3177 Y24.2690 Z-1.2294
G01 X53.4209 Y24.1642 Z-1.3342
G01 X53.5240 Y24.0595 Z-1.4390
G01 X53.6425 Y23.9384 Z-1.5601
G01 X53.6473 Y23.8385 Z-1.5676
G01 X53.6444 Y23.7388 Z-1.5673
G01 X53.6414 Y23.6391 Z-1.5671
G01 X53.6384 Y23.5395 Z-1.5668
G01 X53.6355 Y23.4398 Z-1.5666
G01 X53.6325 Y23.3401 Z-1.5663
G01 X53.6286 Y23.2230
G01 X53.6252 Y23.1268 Z-1.5667
G01 X53.6217 Y23.0306 Z-1.5670
G01 X53.6183 Y22.9343 Z-1.5673
G01 X53.6148 Y22.8381 Z-1.5677
G01 X53.6114 Y22.7418 Z-1.5680
G01 X53.6079 Y22.6456 Z-1.5683
G01 X53.6034 Y22.5305 Z-1.5691
G01 X53.5995 Y22.4376 Z-1.5700
G01 X53.5955 Y22.3448 Z-1.5710
G01 X53.5916 Y22.2520 Z-1.5719
G01 X53.5876 Y22.1591 Z-1.5728
G01 X53.5837 Y22.0663 Z-1.5738
G01 X53.5797 Y21.9735 Z-1.5747
G01 X53.5742 Y21.8527 Z-1.5764
G01 X53.5690 Y21.7483 Z-1.5781
G01 X53.5638 Y21.6440 Z-1.5799
G01 X53.5587 Y21.5396 Z-1.5817
G01 X53.5535 Y21.4353 Z-1.5835
G01 X53.5483 Y21.3309 Z-1.5853
G01 X53.5416 Y21.2044 Z-1.5879
G01 X53.5358 Y21.1040 Z-1.5904
G01 X53.5301 Y21.0036 Z-1.5929
G01 X53.5244 Y20.9032 Z-1.5954
G01 X53.5186 Y20.8028 Z-1.5978
G01 X53.5129 Y20.7024 Z-1.6003
G01 X53.5053 Y20.5776 Z-1.6039
G01 X53.4989 Y20.4811 Z-1.6071
G01 X53.4926 Y20.3846 Z-1.6103
G01 X53.4863 Y20.2881 Z-1.6135
G01 X53.4800 Y20.1916 Z-1.6166
G01 X53.4737 Y20.0951 Z-1.6198
G01 X53.4651 Y19.9717 Z-1.6244
G01 X53.4582 Y19.8791 Z-1.6283
G01 X53.4513 Y19.7865 Z-1.6322
G01 X53.4444 Y19.6939 Z-1.6361
G01 X53.4375 Y19.6012 Z-1.6399
G01 X53.4307 Y19.5086 Z-1.6438
G01 X53.4202 Y19.3773 Z-1.6500
G01 X53.4113 Y19.2707 Z-1.6555
G01 X53.4023 Y19.1642 Z-1.6610
G01 X53.3934 Y19.0577 Z-1.6665
G01 X53.3844 Y18.9512 Z-1.6720
G01 X53.3719 Y18.8117 Z-1.6799
G01 X53.3623 Y18.7098 Z-1.6863
G01 X53.3526 Y18.6078 Z-1.6926
G01 X53.3430 Y18.5059 Z-1.6989
G01 X53.3333 Y18.4039 Z-1.7053
G01 X53.3194 Y18.2650 Z-1.7147
G01 X53.3090 Y18.1676 Z-1.7219
G01 X53.2987 Y18.0701 Z-1.7291
G01 X53.2883 Y17.9727 Z-1.7363
G01 X53.2780 Y17.8753 Z-1.7435
G01 X53.2623 Y17.7361 Z-1.7546
G01 X53.2512 Y17.6432 Z-1.7627
G01 X53.2401 Y17.5502 Z-1.7707
G01 X53.2291 Y17.4573 Z-1.7788
G01 X53.2180 Y17.3643 Z-1.7868
G01 X53.1989 Y17.2130 Z-1.8011
G01 X53.1841 Y17.1023 Z-1.8122
G01 X53.1694 Y16.9916 Z-1.8234
G01 X53.1546 Y16.8809 Z-1.8345
G01 X53.1315 Y16.7168 Z-1.8523
G01 X53.1159 Y16.6116 Z-1.8645
G01 X53.1002 Y16.5063 Z-1.8768
G01 X53.0845 Y16.4010 Z-1.8890
G01 X53.0583 Y16.2345 Z-1.9098
G01 X53.0417 Y16.1345 Z-1.9232
G01 X53.0251 Y16.0346 Z-1.9365
G01 X53.0085 Y15.9346 Z-1.9499
G01 X52.9786 Y15.7640 Z-1.9743
G01 X52.9610 Y15.6692 Z-1.9888
G01 X52.9434 Y15.5744 Z-2.0033
G01 X52.9258 Y15.4797 Z-2.0178
G01 X52.8912 Y15.3031 Z-2.0467
G01 X52.8726 Y15.2133 Z-2.0623
G01 X52.8540 Y15.1236 Z-2.0780
G01 X52.8354 Y15.0338 Z-2.0937
G01 X52.7916 Y14.8348 Z-2.1310
G01 X52.7654 Y14.7216 Z-2.1535
G01 X52.7392 Y14.6084 Z-2.1761
G01 X52.6844 Y14.3849 Z-2.2236
G01 X52.6567 Y14.2779 Z-2.2478
G01 X52.6290 Y14.1709 Z-2.2721
G01 X52.5769 Y13.9778 Z-2.3178
G01 X52.5497 Y13.8809 Z-2.3418
G01 X52.5225 Y13.7839 Z-2.3659
G01 X52.4503 Y13.5410 Z-2.4302
G01 X52.4203 Y13.4456 Z-2.4571
G01 X52.3904 Y13.3502 Z-2.4839
G01 X52.3064 Y13.0971 Z-2.5597
G01 X52.2735 Y13.0029 Z-2.5895
G01 X52.2406 Y12.9087 Z-2.6193
G01 X52.1435 Y12.6447 Z-2.7078
G01 X52.1074 Y12.5513 Z-2.7408
G01 X52.0714 Y12.4579 Z-2.7738
G01 X51.9598 Y12.1825 Z-2.8764
G01 X51.9204 Y12.0895 Z-2.9128
G01 X51.8809 Y11.9965 Z-2.9492
G01 X51.7535 Y11.7094 Z-3.0673
G01 X51.7104 Y11.6164 Z-3.1073
G01 X51.6673 Y11.5234 Z-3.1474
G01 X51.5228 Y11.2244 Z-3.2822
G01 X51.4758 Y11.1310 Z-3.3261
G01 X51.4288 Y11.0376 Z-3.3701
G01 X51.2659 Y10.7267 Z-3.5228
G01 X51.2146 Y10.6326 Z-3.5710
G01 X51.1634 Y10.5385 Z-3.6191
G01 X50.9811 Y10.2159 Z-3.7908
G01 X50.9254 Y10.1206 Z-3.8435
G01 X50.8696 Y10.0253 Z-3.8962
G01 X50.6671 Y9.6915 Z-4.0877
G01 X50.6064 Y9.5947 Z-4.1452
G01 X50.5457 Y9.4979 Z-4.2028
G01 X50.3223 Y9.1532 Z-4.4149
G01 X50.2564 Y9.0546 Z-4.4776
G01 X50.1904 Y8.9559 Z-4.5403
G01 X49.9456 Y8.6009 Z-4.7735
G01 X49.8740 Y8.5001 Z-4.8417
G01 X49.8025 Y8.3993 Z-4.9100
G01 X49.5359 Y8.0345 Z-5.1646
G01 X49.4584 Y7.9312 Z-5.2387
G01 X49.3808 Y7.8280 Z-5.3129
G01 X49.0923 Y7.4540 Z-5.5891
G01 X49.0085 Y7.3480 Z-5.6695
G01 X48.9246 Y7.2420 Z-5.7499
G01 X48.6141 Y6.8593 Z-6.0478
G01 X48.5236 Y6.7504 Z-6.1348
G01 X48.4330 Y6.6414 Z-6.2218
G01 X48.0680 Y6.4392 Z-6.3500
G01 X47.9544 Y6.4195
G01 X47.8408 Y6.3999
G01 X47.4730 Y6.3470 Z-6.3470
G01 X47.3838 Y6.3413 Z-6.3413
G01 X47.2946 Y6.3355 Z-6.3355
G01 X47.2054 Y6.3298 Z-6.3298
G01 X46.8631 Y6.3111 Z-6.3111
G01 X46.7710 Y6.3070 Z-6.3070
G01 X46.6789 Y6.3029 Z-6.3029
G01 X46.5868 Y6.2988 Z-6.2988
G01 X46.2583 Y6.2873 Z-6.2873
G01 X46.1631 Y6.2848 Z-6.2848
G01 X46.0680 Y6.2824 Z-6.2824
G01 X45.9728 Y6.2799 Z-6.2799
G01 X45.6565 Y6.2745 Z-6.2745
G01 X45.5582 Y6.2737 Z-6.2737
G01 X45.4599 Y6.2729 Z-6.2729
G01 X45.3616 Y6.2721 Z-6.2721
G01 X45.1580 Y6.2712 Z-6.2712
G01 X45.0579
G01 X44.9578
G01 X44.8577
G01 X44.7576
G01 X44.6575
G01 X44.5574
G01 X44.4573
G01 X44.3572
G01 X44.2571
G01 X44.1570
G01 X44.0569
G01 X43.9568
G01 X43.8567
G01 X43.7566
G01 X43.6565
G01 X43.5564
G01 X43.4563
G01 X43.3562
G01 X43.2561
G01 X43.1560
G01 X43.0559
G01 X42.9558
G01 X42.8557
G01 X42.7556
G01 X42.6555
G01 X42.5554
G01 X42.4553
G01 X42.3552
G01 X42.2551
G01 X42.1550
G01 X42.0549
G01 X41.9548
G01 X41.8547
G01 X41.7546
G01 X41.6545
G01 X41.5544
G01 X41.4543
G01 X41.3542
G01 X41.2541
G01 X41.1540
G01 X41.0539
G01 X40.9538
G01 X40.8537
G01 X40.7536
G01 X40.6535
G01 X40.5534
G01 X40.4533
G01 X40.3532
G01 X40.2531
G01 X40.1530
G01 X40.0529
G01 X39.9528
G01 X39.8527
G01 X39.7526
G01 X39.6525
G01 X39.5524
G01 X39.4523
G01 X39.3522
G01 X39.2521
G01 X39.1520
G01 X39.0519
G01 X38.9518
G01 X38.8517
G01 X38.7516
G01 X38.6515
G01 X38.5514
G01 X38.4513
G01 X38.3512
G01 X38.2511
G01 X38.1510
G01 X38.0509
G01 X37.9508
G01 X37.8507
G01 X37.7506
G01 X37.6505
G01 X37.5504
G01 X37.4503
G01 X37.3502
G01 X37.2501
G01 X37.1500
G01 X37.0499
G01 X36.9498
G01 X36.8497
G01 X36.7496
G01 X36.6495
G01 X36.5494
G01 X36.4493
G01 X36.3492
G01 X36.2491
G01 X36.1490
G01 X36.0489
G01 X35.9488
G01 X35.8487
G01 X35.7486
G01 X35.6485
G01 X35.5484
G01 X35.4483
G01 X35.3482
G01 X35.2481
G01 X35.1480
G01 X35.0479
G01 X34.9479
G01 X34.8478
G01 X34.7477
G01 X34.6476
G01 X34.5475
G01 X34.4474
G01 X34.3473
G01 X34.2472
G01 X34.1471
G01 X34.0470
G01 X33.9469
G01 X33.8468
G01 X33.7467
G01 X33.6466
G01 X33.5465
G01 X33.4464
G01 X33.3463
G01 X33.2462
G01 X33.1461
G01 X33.0460
G01 X32.9459
G01 X32.8458
G01 X32.7457
G01 X32.6456
G01 X32.5455
G01 X32.4454
G01 X32.3453
G01 X32.2452
G01 X32.1451
G01 X32.0450
G01 X31.9449
G01 X31.8448
G01 X31.7447
G01 X31.6446
G01 X31.5445
G01 X31.4444
G01 X31.3443
G01 X31.2442
G01 X31.1441
G01 X31.0440
G01 X30.9439
G01 X30.8438
G01 X30.7437
G01 X30.6436
G01 X30.5435
G01 X30.4434
G01 X30.3433
G01 X30.2432
G01 X30.1431
G01 X30.0430
G01 X29.9429
G01 X29.8428
G01 X29.7427
G01 X29.6426
G01 X29.5425
G01 X29.4424
G01 X29.3423
G01 X29.2422
G01 X29.1421
G01 X29.0420
G01 X28.9419
G01 X28.8418
G01 X28.7417
G01 X28.6416
G01 X28.5415
G01 X28.4414
G01 X28.3413
G01 X28.2412
G01 X28.1411
G01 X28.0410
G01 X27.9409
G01 X27.8408
G01 X27.7407
G01 X27.6406
G01 X27.5405
G01 X27.4404
G01 X27.3403
G01 X27.2402
G01 X27.1401
G01 X27.0400
G01 X26.9399
G01 X26.8398
G01 X26.7397
G01 X26.6396
G01 X26.5395
G01 X26.4394
G01 X26.3393
G01 X26.2392
G01 X26.1391
G01 X26.0390
G01 X25.9389
G01 X25.8388
G01 X25.7387
G01 X25.6386
G01 X25.5385
G01 X25.4384
G01 X25.3383
G01 X25.2382
G01 X25.1381
G01 X25.0380
G01 X24.9379
G01 X24.8378
G01 X24.7377
G01 X24.6376
G01 X24.5375
G01 X24.4374
G01 X24.3373
G01 X24.2372
G01 X24.1371
G01 X24.0370
G01 X23.9369
G01 X23.8368
G01 X23.7367
G01 X23.6366
G01 X23.5365
G01 X23.4364
G01 X23.3363
G01 X23.2362
G01 X23.1361
G01 X23.0360
G01 X22.9359
G01 X22.8358
G01 X22.7357
G01 X22.6356
G01 X22.5355
G01 X22.4354
G01 X22.3353
G01 X22.2352
G01 X22.1351
G01 X22.0350
G01 X21.9349
G01 X21.8348
G01 X21.7347
G01 X21.6346
G01 X21.5345
G01 X21.4344
G01 X21.3343
G01 X21.2342
G01 X21.1341
G01 X21.0340
G01 X20.9339
G01 X20.8338
G01 X20.7337
G01 X20.6336
G01 X20.5335
G01 X20.4334
G01 X20.3333
G01 X20.2332
G01 X20.1331
G01 X20.0330
G01 X19.9329
G01 X19.8328
G01 X19.7327
G01 X19.6326
G01 X19.5325
G01 X19.4324
G01 X19.3323
G01 X19.2322
G01 X19.1321
G01 X19.0320
G01 X18.9319
G01 X18.8318
G01 X18.7317
G01 X18.6316
G01 X18.5315
G01 X18.4314
G01 X18.3313
G01 X18.2312
G01 X18.1311
G01 X18.0310
G01 X17.9309
G01 X17.8308
G01 X17.7307
G01 X17.6306
G01 X17.5305
G01 X17.4304
G01 X17.3303
G01 X17.2302
G01 X17.1301
G01 X17.0300
G01 X16.9299
G01 X16.8298
G01 X16.7297
G01 X16.6296
G01 X16.5295
G01 X16.4294
G01 X16.3293
G01 X16.2292
G01 X16.1291
G01 X16.0290
G01 X15.9289
G01 X15.8288
G01 X15.7287
G01 X15.6286
G01 X15.5285
G01 X15.4284
G01 X15.3283
G01 X15.2282
G01 X15.1281
G01 X15.0280
G01 X14.9279
G01 X14.8278
G01 X14.7277
G01 X14.6276
G01 X14.5275
G01 X14.4274
G01 X14.3273
G01 X14.2272
G01 X14.1271
G01 X14.0270
G01 X13.9269
G01 X13.8268
G01 X13.7267
G01 X13.6266
G01 X13.5265
G01 X13.4264
G01 X13.3263
G01 X13.2262
G01 X13.1261
G01 X13.0260
G01 X12.9259
G01 X12.8258
G01 X12.7257
G01 X12.6256
G01 X12.5255
G01 X12.4254
G01 X12.3253
G01 X12.2252
G01 X12.1251
G01 X12.0250
G01 X11.9249
G01 X11.8248
G01 X11.7247
G01 X11.6246
G01 X11.5245
G01 X11.4244
G01 X11.3243
G01 X11.2242
G01 X11.1241
G01 X11.0240
G01 X10.9239
G01 X10.8238
G01 X10.7237
G01 X10.6236
G01 X10.5235
G01 X10.4234
G01 X10.3233
G01 X10.2232
G01 X10.1231
G01 X10.0230
G01 X9.9230
G01 X9.8229
G01 X9.7228
G01 X9.6227
G01 X9.5226
G01 X9.4225
G01 X9.3724
G01 X9.3177 Y6.2714 Z-6.2714
G01 X9.2629 Y6.2717 Z-6.2717
G01 X9.2082 Y6.2723 Z-6.2723
G01 X9.1535 Y6.2732 Z-6.2732
G01 X9.0987 Y6.2742 Z-6.2742
G01 X9.0440 Y6.2755 Z-6.2755
G01 X8.9892 Y6.2771 Z-6.2771
G01 X8.9344 Y6.2789 Z-6.2789
G01 X8.8796 Y6.2809 Z-6.2809
G01 X8.8248 Y6.2832 Z-6.2832
G01 X8.7699 Y6.2857 Z-6.2857
G01 X8.7151 Y6.2885 Z-6.2885
G01 X8.6602 Y6.2915 Z-6.2915
G01 X8.6053 Y6.2947 Z-6.2947
G01 X8.5503 Y6.2982 Z-6.2982
G01 X8.4953 Y6.3019 Z-6.3019
G01 X8.4403 Y6.3059 Z-6.3059
G01 X8.3853 Y6.3101 Z-6.3101
G01 X8.3302 Y6.3145 Z-6.3145
G01 X8.2751 Y6.3192 Z-6.3192
G01 X8.2199 Y6.3242 Z-6.3242
G01 X8.1647 Y6.3294 Z-6.3294
G01 X8.1094 Y6.3348 Z-6.3348
G01 X8.0541 Y6.3405 Z-6.3405
G01 X7.9988 Y6.3465 Z-6.3465
G01 X7.9440 Y6.3552 Z-6.3500
G01 X7.8900 Y6.3679
G01 X7.8362 Y6.3811
G01 X7.7825 Y6.3948
G01 X7.7289 Y6.4089
G01 X7.6754 Y6.4234
G01 X7.6221 Y6.4385
G01 X7.5689 Y6.4540
G01 X7.5158 Y6.4700
G01 X7.4629 Y6.4864
G01 X7.4101 Y6.5033
G01 X7.3575 Y6.5206
G01 X7.3050 Y6.5384
G01 X7.2527 Y6.5567
G01 X7.2006 Y6.5754
G01 X7.1486 Y6.5946
G01 X7.0968 Y6.6143
G01 X7.0451 Y6.6343
G01 X6.9937 Y6.6549
G01 X6.9424 Y6.6759
G01 X6.8913 Y6.6973
G01 X6.8360 Y6.9768 Z-6.1164
G01 X6.7795 Y7.3419 Z-5.8111
G01 X6.7330 Y7.6814 Z-5.5314
G01 X6.6953 Y7.9977 Z-5.2746
G01 X6.6654 Y8.2933 Z-5.0382
G01 X6.6422 Y8.5700 Z-4.8203
G01 X6.6250 Y8.8295 Z-4.6189
G01 X6.6131 Y9.0735 Z-4.4326
G01 X6.6059 Y9.3033 Z-4.2598
G01 X6.6029 Y9.5201 Z-4.0994
G01 X6.6036 Y9.7250 Z-3.9503
G01 X6.6077 Y9.9189 Z-3.8114
G01 X6.6148 Y10.1028 Z-3.6819
G01 X6.6246 Y10.2774 Z-3.5611
G01 X6.6368 Y10.4434 Z-3.4481
G01 X6.6512 Y10.6015 Z-3.3425
G01 X6.6676 Y10.7522 Z-3.2436
G01 X6.6858 Y10.8962 Z-3.1509
G01 X6.7057 Y11.0337 Z-3.0639
G01 X6.7270 Y11.1654 Z-2.9823
G01 X6.7498 Y11.2916 Z-2.9057
G01 X6.7737 Y11.4126 Z-2.8337
G01 X6.7989 Y11.5288 Z-2.7660
G01 X6.8251 Y11.6404 Z-2.7023
G01 X6.8523 Y11.7479 Z-2.6424
G01 X6.8805 Y11.8514 Z-2.5860
G01 X6.9095 Y11.9512 Z-2.5329
G01 X6.9393 Y12.0475 Z-2.4830
G01 X6.9699 Y12.1404 Z-2.4359
G01 X7.0012 Y12.2303 Z-2.3917
G01 X7.0332 Y12.3172 Z-2.3500
G01 X7.0659 Y12.4014 Z-2.3108
G01 X7.0992 Y12.4830 Z-2.2740
G01 X7.1331 Y12.5620 Z-2.2394
G01 X7.1676 Y12.6388 Z-2.2069
G01 X7.2026 Y12.7133 Z-2.1765
G01 X7.2383 Y12.7856 Z-2.1479
G01 X7.2745 Y12.8560 Z-2.1212
G01 X7.3112 Y12.9245 Z-2.0963
G01 X7.3485 Y12.9912 Z-2.0731
G01 X7.3863 Y13.0561 Z-2.0514
G01 X7.4247 Y13.1194 Z-2.0314
G01 X7.4636 Y13.1812 Z-2.0129
G01 X7.5030 Y13.2414 Z-1.9958
G01 X7.5430 Y13.3002 Z-1.9801
G01 X7.5836 Y13.3577 Z-1.9658
G01 X7.6247 Y13.4139 Z-1.9529
G01 X7.6664 Y13.4688 Z-1.9413
G01 X7.7087 Y13.5225 Z-1.9309
G01 X7.7516 Y13.5751 Z-1.9218
G01 X7.7951 Y13.6265 Z-1.9139
G01 X7.8392 Y13.6770 Z-1.9073
G01 X7.8841 Y13.7264 Z-1.9018
G01 X7.9296 Y13.7748 Z-1.8975
G01 X7.9758 Y13.8223 Z-1.8943
G01 X8.0227 Y13.8689 Z-1.8924
G01 X8.0704 Y13.9146 Z-1.8915
G01 X8.1188 Y13.9594 Z-1.8919
G01 X8.1569 Y13.9940 Z-1.8926
G01 X8.2309 Y14.0613 Z-1.8940
G01 X8.3049 Y14.1286 Z-1.8954
G01 X8.3790 Y14.1958 Z-1.8968
G01 X8.4530 Y14.2631 Z-1.8982
G01 X8.5270 Y14.3304 Z-1.8996
G01 X8.6011 Y14.3977 Z-1.9010
G01 X8.6751 Y14.4650 Z-1.9025
G01 X8.7491 Y14.5322 Z-1.9039
G01 X8.8232 Y14.5995 Z-1.9053
G01 X8.8972 Y14.6668 Z-1.9067
G01 X8.9712 Y14.7341 Z-1.9081
G01 X9.0453 Y14.8014 Z-1.9095
G01 X9.1193 Y14.8687 Z-1.9109
G01 X9.1933 Y14.9359 Z-1.9123
G01 X9.2673 Y15.0032 Z-1.9137
G01 X9.3414 Y15.0705 Z-1.9152
G01 X9.4154 Y15.1378 Z-1.9166
G01 X9.4894 Y15.2051 Z-1.9180
G01 X9.5635 Y15.2724 Z-1.9194
G01 X9.6375 Y15.3396 Z-1.9208
G01 X9.7115 Y15.4069 Z-1.9222
G01 X9.7856 Y15.4742 Z-1.9236
G01 X9.8596 Y15.5415 Z-1.9250
G01 X9.9336 Y15.6088 Z-1.9264
G01 X10.0077 Y15.6761 Z-1.9278
G01 X10.0817 Y15.7433 Z-1.9293
G01 X10.1557 Y15.8106 Z-1.9307
G01 X10.2298 Y15.8779 Z-1.9321
G01 X10.3038 Y15.9452 Z-1.9335
G01 X10.3778 Y16.0125 Z-1.9349
G01 X10.4519 Y16.0797 Z-1.9363
G01 X10.5259 Y16.1470 Z-1.9377
G01 X10.5999 Y16.2143 Z-1.9391
G01 X10.6740 Y16.2816 Z-1.9405
G01 X10.7480 Y16.3489 Z-1.9420
G01 X10.8220 Y16.4162 Z-1.9434
G01 X10.8961 Y16.4834 Z-1.9448
G01 X10.9701 Y16.5507 Z-1.9462
G01 X11.0441 Y16.6180 Z-1.9476
G01 X11.1181 Y16.6853 Z-1.9490
G01 X11.1922 Y16.7526 Z-1.9504
G01 X11.2662 Y16.8199 Z-1.9518
G01 X11.3402 Y16.8871 Z-1.9532
G01 X11.4143 Y16.9544 Z-1.9546
G01 X11.4883 Y17.0217 Z-1.9561
G01 X11.5623 Y17.0890 Z-1.9575
G01 X11.6364 Y17.1563 Z-1.9589
G01 X11.7104 Y17.2235 Z-1.9603
G01 X11.7844 Y17.2908 Z-1.9617
G01 X11.8585 Y17.3581 Z-1.9631
G01 X11.9325 Y17.4254 Z-1.9645
G01 X12.0065 Y17.4927 Z-1.9659
G01 X12.0806 Y17.5600 Z-1.9673
G01 X12.1546 Y17.6272 Z-1.9687
G01 X12.2286 Y17.6945 Z-1.9702
G01 X12.3027 Y17.7618 Z-1.9716
G01 X12.3767 Y17.8291 Z-1.9730
G01 X12.4507 Y17.8964 Z-1.9744
G01 X12.5248 Y17.9637 Z-1.9758
G01 X12.5988 Y18.0309 Z-1.9772
G01 X12.6728 Y18.0982 Z-1.9786
G01 X12.7469 Y18.1655 Z-1.9800
G01 X12.8209 Y18.2328 Z-1.9814
G01 X12.8949 Y18.3001 Z-1.9829
G01 X12.9689 Y18.3673 Z-1.9843
G01 X13.0430 Y18.4346 Z-1.9857
G01 X13.1170 Y18.5019 Z-1.9871
G01 X13.1910 Y18.5692 Z-1.9885
G01 X13.2651 Y18.6365 Z-1.9899
G01 X13.3391 Y18.7038 Z-1.9913
G01 X13.4131 Y18.7710 Z-1.9927
G01 X13.4872 Y18.8383 Z-1.9941
G01 X13.5612 Y18.9056 Z-1.9955
G01 X13.6352 Y18.9729 Z-1.9970
G01 X13.7093 Y19.0402 Z-1.9984
G01 X13.7833 Y19.1075 Z-1.9998
G01 X13.8573 Y19.1747 Z-2.0012
G01 X13.9314 Y19.2420 Z-2.0026
G01 X14.0054 Y19.3093 Z-2.0040
G01 X14.0794 Y19.3766 Z-2.0054
G01 X14.1535 Y19.4439 Z-2.0068
G01 X14.2275 Y19.5111 Z-2.0082
G01 X14.3015 Y19.5784 Z-2.0097
G01 X14.3756 Y19.6457 Z-2.0111
G01 X14.4496 Y19.7130 Z-2.0125
G01 X14.5236 Y19.7803 Z-2.0139
G01 X14.5977 Y19.8476 Z-2.0153
G01 X14.6717 Y19.9148 Z-2.0167
G01 X14.7457 Y19.9821 Z-2.0181
G01 X14.8197 Y20.0494 Z-2.0195
G01 X14.8938 Y20.1167 Z-2.0209
G01 X14.9678 Y20.1840 Z-2.0223
G01 X15.0418 Y20.2513 Z-2.0238
G01 X15.1159 Y20.3185 Z-2.0252
G01 X15.1899 Y20.3858 Z-2.0266
G01 X15.2639 Y20.4531 Z-2.0280
G01 X15.3380 Y20.5204 Z-2.0294
G01 X15.4120 Y20.5877 Z-2.0308
G01 X15.4860 Y20.6549 Z-2.0322
G01 X15.5601 Y20.7222 Z-2.0336
G01 X15.6341 Y20.7895 Z-2.0350
G01 X15.7081 Y20.8568 Z-2.0364
G01 X15.7822 Y20.9241 Z-2.0379
G01 X15.8562 Y20.9914 Z-2.0393
G01 X15.9302 Y21.0586 Z-2.0407
G01 X16.0043 Y21.1259 Z-2.0421
G01 X16.0783 Y21.1932 Z-2.0435
G01 X16.1523 Y21.2605 Z-2.0449
G01 X16.2264 Y21.3278 Z-2.0463
G01 X16.3004 Y21.3951 Z-2.0477
G01 X16.3744 Y21.4623 Z-2.0491
G01 X16.4484 Y21.5296 Z-2.0506
G01 X16.5225 Y21.5969 Z-2.0520
G01 X16.5965 Y21.6642 Z-2.0534
G01 X16.6705 Y21.7315 Z-2.0548
G01 X16.7446 Y21.7988 Z-2.0562
G01 X16.8186 Y21.8660 Z-2.0576
G01 X16.8926 Y21.9333 Z-2.0590
G01 X16.9667 Y22.0006 Z-2.0604
G01 X17.0407 Y22.0679 Z-2.0618
G01 X17.1147 Y22.1352 Z-2.0632
G01 X17.1888 Y22.2024 Z-2.0647
G01 X17.2628 Y22.2697 Z-2.0661
G01 X17.3368 Y22.3370 Z-2.0675
G01 X17.4109 Y22.4043 Z-2.0689
G01 X17.4849 Y22.4716 Z-2.0703
G01 X17.5589 Y22.5389 Z-2.0717
G01 X17.6330 Y22.6061 Z-2.0731
G01 X17.7070 Y22.6734 Z-2.0745
G01 X17.7810 Y22.7407 Z-2.0759
G01 X17.8551 Y22.8080 Z-2.0774
G01 X17.9291 Y22.8753 Z-2.0788
G01 X18.0031 Y22.9426 Z-2.0802
G01 X18.0772 Y23.0098 Z-2.0816
G01 X18.1512 Y23.0771 Z-2.0830
G01 X18.2252 Y23.1444 Z-2.0844
G01 X18.2992 Y23.2117 Z-2.0858
G01 X18.3733 Y23.2790 Z-2.0872
G01 X18.4473 Y23.3462 Z-2.0886
G01 X18.5213 Y23.4135 Z-2.0900
G01 X18.5954 Y23.4808 Z-2.0915
G01 X18.6694 Y23.5481 Z-2.0929
G01 X18.7434 Y23.6154 Z-2.0943
G01 X18.8175 Y23.6827 Z-2.0957
G01 X18.8915 Y23.7499 Z-2.0971
G01 X18.9655 Y23.8172 Z-2.0985
G01 X19.0396 Y23.8845 Z-2.0999
G01 X19.1136 Y23.9518 Z-2.1013
G01 X19.1876 Y24.0191 Z-2.1027
G01 X19.2617 Y24.0864 Z-2.1042
G01 X19.3357 Y24.1536 Z-2.1056
G01 X19.4097 Y24.2209 Z-2.1070
G01 X19.4838 Y24.2882 Z-2.1084
G01 X19.5578 Y24.3555 Z-2.1098
G01 X19.6318 Y24.4228 Z-2.1112
G01 X19.7059 Y24.4900 Z-2.1126
G01 X19.7799 Y24.5573 Z-2.1140
G01 X19.8539 Y24.6246 Z-2.1154
G01 X19.9280 Y24.6919 Z-2.1168
G01 X20.0020 Y24.7592 Z-2.1183
G01 X20.0760 Y24.8265 Z-2.1197
G01 X20.1500 Y24.8937 Z-2.1211
G01 X20.2241 Y24.9610 Z-2.1225
G01 X20.2981 Y25.0283 Z-2.1239
G01 X20.3721 Y25.0956 Z-2.1253
G01 X20.4462 Y25.1629 Z-2.1267
G01 X20.5202 Y25.2302 Z-2.1281
G01 X20.5942 Y25.2974 Z-2.1295
G01 X20.6683 Y25.3647 Z-2.1309
G01 X20.7423 Y25.4320 Z-2.1324
G01 X20.8163 Y25.4993 Z-2.1338
G01 X20.8904 Y25.5666 Z-2.1352
G01 X20.9644 Y25.6338 Z-2.1366
G01 X21.0384 Y25.7011 Z-2.1380
G01 X21.1125 Y25.7684 Z-2.1394
G01 X21.1865 Y25.8357 Z-2.1408
G01 X21.2605 Y25.9030 Z-2.1422
G01 X21.3346 Y25.9703 Z-2.1436
G01 X21.4086 Y26.0375 Z-2.1451
G01 X21.4826 Y26.1048 Z-2.1465
G01 X21.5567 Y26.1721 Z-2.1479
G01 X21.6307 Y26.2394 Z-2.1493
G01 X21.7047 Y26.3067 Z-2.1507
G01 X21.7788 Y26.3740 Z-2.1521
G01 X21.8528 Y26.4412 Z-2.1535
G01 X21.9268 Y26.5085 Z-2.1549
G01 X22.0008 Y26.5758 Z-2.1563
G01 X22.0749 Y26.6431 Z-2.1577
G01 X22.1489 Y26.7104 Z-2.1592
G01 X22.2229 Y26.7776 Z-2.1606
G01 X22.2970 Y26.8449 Z-2.1620
G01 X22.3710 Y26.9122 Z-2.1634
G01 X22.4450 Y26.9795 Z-2.1648
G01 X22.5191 Y27.0468 Z-2.1662
G01 X22.5931 Y27.1141 Z-2.1676
G01 X22.6671 Y27.1813 Z-2.1690
G01 X22.7412 Y27.2486 Z-2.1704
G01 X22.8152 Y27.3159 Z-2.1719
G01 X22.8892 Y27.3832 Z-2.1733
G01 X22.9633 Y27.4505 Z-2.1747
G01 X23.0373 Y27.5178 Z-2.1761
G01 X23.1113 Y27.5850 Z-2.1775
G01 X23.1854 Y27.6523 Z-2.1789
G01 X23.2594 Y27.7196 Z-2.1803
G01 X23.3334 Y27.7869 Z-2.1817
G01 X23.4075 Y27.8542 Z-2.1831
G01 X23.4815 Y27.9215 Z-2.1845
G01 X23.5555 Y27.9887 Z-2.1860
G01 X23.6295 Y28.0560 Z-2.1874
G01 X23.7036 Y28.1233 Z-2.1888
G01 X23.7776 Y28.1906 Z-2.1902
G01 X23.8516 Y28.2579 Z-2.1916
G01 X23.9257 Y28.3251 Z-2.1930
G01 X23.9997 Y28.3924 Z-2.1944
G01 X24.0737 Y28.4597 Z-2.1958
G01 X24.1478 Y28.5270 Z-2.1972
G01 X24.2218 Y28.5943 Z-2.1987
G01 X24.2958 Y28.6616 Z-2.2001
G01 X24.3699 Y28.7288 Z-2.2015
G01 X24.4439 Y28.7961 Z-2.2029
G01 X24.5179 Y28.8634 Z-2.2043
G01 X24.5920 Y28.9307 Z-2.2057
G01 X24.6660 Y28.9980 Z-2.2071
G01 X24.7400 Y29.0653 Z-2.2085
G01 X24.8140 Y29.1326 Z-2.2100
G01 X24.8875 Y29.2004 Z-2.2122
G01 X24.9610 Y29.2684 Z-2.2145
G01 X25.0344 Y29.3363 Z-2.2168
G01 X25.1079 Y29.4043 Z-2.2190
G01 X25.1814 Y29.4722 Z-2.2213
G01 X25.2546 Y29.5403 Z-2.2238
G01 X25.3279 Y29.6085 Z-2.2265
G01 X25.4011 Y29.6767 Z-2.2291
G01 X25.4743 Y29.7449 Z-2.2317
G01 X25.5476 Y29.8131 Z-2.2343
G01 X25.6206 Y29.8814 Z-2.2372
G01 X25.6936 Y29.9499 Z-2.2402
G01 X25.7666 Y30.0183 Z-2.2431
G01 X25.8396 Y30.0868 Z-2.2461
G01 X25.9126 Y30.1552 Z-2.2491
G01 X25.9855 Y30.2238 Z-2.2522
G01 X26.0583 Y30.2926 Z-2.2556
G01 X26.1310 Y30.3613 Z-2.2589
G01 X26.2038 Y30.4300 Z-2.2622
G01 X26.2766 Y30.4987 Z-2.2655
G01 X26.3492 Y30.5676 Z-2.2690
G01 X26.4218 Y30.6365 Z-2.2727
G01 X26.4943 Y30.7055 Z-2.2764
G01 X26.5668 Y30.7745 Z-2.2800
G01 X26.6394 Y30.8435 Z-2.2837
G01 X26.7118 Y30.9126 Z-2.2876
G01 X26.7841 Y30.9818 Z-2.2916
G01 X26.8564 Y31.0511 Z-2.2956
G01 X26.9287 Y31.1203 Z-2.2996
G01 X27.0010 Y31.1895 Z-2.3037
G01 X27.0731 Y31.2589 Z-2.3079
G01 X27.1452 Y31.3284 Z-2.3123
G01 X27.2173 Y31.3980 Z-2.3167
G01 X27.2893 Y31.4675 Z-2.3211
G01 X27.3614 Y31.5370 Z-2.3254
G01 X27.4333 Y31.6066 Z-2.3300
G01 X27.5051 Y31.6764 Z-2.3348
G01 X27.5770 Y31.7462 Z-2.3395
G01 X27.6488 Y31.8160 Z-2.3443
G01 X27.7206 Y31.8858 Z-2.3490
G01 X27.7923 Y31.9557 Z-2.3540
G01 X27.8639 Y32.0258 Z-2.3591
G01 X27.9354 Y32.0959 Z-2.3642
G01 X28.0070 Y32.1659 Z-2.3693
G01 X28.0786 Y32.2360 Z-2.3745
G01 X28.1500 Y32.3062 Z-2.3798
G01 X28.2213 Y32.3766 Z-2.3853
G01 X28.2927 Y32.4469 Z-2.3908
G01 X28.3640 Y32.5172 Z-2.3963
G01 X28.4353 Y32.5876 Z-2.4018
G01 X28.5065 Y32.6581 Z-2.4075
G01 X28.5776 Y32.7287 Z-2.4134
G01 X28.6487 Y32.7993 Z-2.4192
G01 X28.7198 Y32.8700 Z-2.4251
G01 X28.7908 Y32.9406 Z-2.4310
G01 X28.8617 Y33.0114 Z-2.4371
G01 X28.9326 Y33.0823 Z-2.4434
G01 X29.0034 Y33.1532 Z-2.4496
G01 X29.0742 Y33.2241 Z-2.4559
G01 X29.1451 Y33.2950 Z-2.4621
G01 X29.2157 Y33.3662 Z-2.4687
G01 X29.2862 Y33.4374 Z-2.4753
G01 X29.3568 Y33.5086 Z-2.4819
G01 X29.4274 Y33.5798 Z-2.4886
G01 X29.4980 Y33.6510 Z-2.4952
G01 X29.5683 Y33.7225 Z-2.5022
G01 X29.6386 Y33.7939 Z-2.5092
G01 X29.7089 Y33.8654 Z-2.5162
G01 X29.7793 Y33.9369 Z-2.5233
G01 X29.8495 Y34.0084 Z-2.5303
G01 X29.9196 Y34.0802 Z-2.5377
G01 X29.9897 Y34.1520 Z-2.5451
G01 X30.0597 Y34.2238 Z-2.5525
G01 X30.1298 Y34.2955 Z-2.5599
G01 X30.1998 Y34.3674 Z-2.5675
G01 X30.2696 Y34.4395 Z-2.5753
G01 X30.3394 Y34.5115 Z-2.5831
G01 X30.4092 Y34.5836 Z-2.5909
G01 X30.4790 Y34.6557 Z-2.5987
G01 X30.5487 Y34.7279 Z-2.6067
G01 X30.6182 Y34.8003 Z-2.6149
G01 X30.6877 Y34.8726 Z-2.6231
G01 X30.7573 Y34.9450 Z-2.6312
G01 X30.8268 Y35.0173 Z-2.6394
G01 X30.8962 Y35.0899 Z-2.6479
G01 X30.9654 Y35.1626 Z-2.6565
G01 X31.0347 Y35.2353 Z-2.6651
G01 X31.1040 Y35.3079 Z-2.6737
G01 X31.1733 Y35.3806 Z-2.6823
G01 X31.2423 Y35.4536 Z-2.6913
G01 X31.3113 Y35.5265 Z-2.7003
G01 X31.3803 Y35.5995 Z-2.7093
G01 X31.4493 Y35.6725 Z-2.7183
G01 X31.5183 Y35.7455 Z-2.7274
G01 X31.5870 Y35.8188 Z-2.7368
G01 X31.6558 Y35.8920 Z-2.7462
G01 X31.7245 Y35.9653 Z-2.7556
G01 X31.7932 Y36.0386 Z-2.7650
G01 X31.8625 Y36.1113 Z-2.7736
G01 X31.9318 Y36.1839 Z-2.7822
G01 X32.0011 Y36.2565 Z-2.7907
G01 X32.0704 Y36.3292 Z-2.7992
G01 X32.1397 Y36.4019 Z-2.8079
G01 X32.2088 Y36.4747 Z-2.8166
G01 X32.2780 Y36.5474 Z-2.8254
G01 X32.3472 Y36.6202 Z-2.8342
G01 X32.4163 Y36.6930 Z-2.8429
G01 X32.4854 Y36.7660 Z-2.8519
G01 X32.5544 Y36.8389 Z-2.8609
G01 X32.6234 Y36.9119 Z-2.8699
G01 X32.6924 Y36.9849 Z-2.8789
G01 X32.7614 Y37.0579 Z-2.8879
G01 X32.8302 Y37.1310 Z-2.8971
G01 X32.8991 Y37.2042 Z-2.9064
G01 X32.9679 Y37.2773 Z-2.9156
G01 X33.0368 Y37.3505 Z-2.9249
G01 X33.1056 Y37.4237 Z-2.9342
G01 X33.1742 Y37.4970 Z-2.9437
G01 X33.2429 Y37.5704 Z-2.9531
G01 X33.3116 Y37.6437 Z-2.9626
G01 X33.3803 Y37.7170 Z-2.9721
G01 X33.4489 Y37.7905 Z-2.9818
G01 X33.5174 Y37.8640 Z-2.9915
G01 X33.5859 Y37.9375 Z-3.0012
G01 X33.6545 Y38.0110 Z-3.0110
G01 X33.7230 Y38.0846 Z-3.0207
G01 X33.7913 Y38.1582 Z-3.0307
G01 X33.8597 Y38.2320 Z-3.0406
G01 X33.9281 Y38.3057 Z-3.0506
G01 X33.9964 Y38.3794 Z-3.0606
G01 X34.0647 Y38.4531 Z-3.0707
G01 X34.1329 Y38.5270 Z-3.0809
G01 X34.2011 Y38.6009 Z-3.0911
G01 X34.2693 Y38.6748 Z-3.1013
G01 X34.3375 Y38.7487 Z-3.1116
G01 X34.4056 Y38.8227 Z-3.1220
G01 X34.4736 Y38.8968 Z-3.1324
G01 X34.5416 Y38.9708 Z-3.1429
G01 X34.6097 Y39.0449 Z-3.1534
G01 X34.6777 Y39.1190 Z-3.1639
G01 X34.7456 Y39.1933 Z-3.1746
G01 X34.8134 Y39.2675 Z-3.1853
G01 X34.8813 Y39.3418 Z-3.1961
G01 X34.9492 Y39.4161 Z-3.2068
G01 X35.0169 Y39.4904 Z-3.2176
G01 X35.0846 Y39.5649 Z-3.2286
G01 X35.1523 Y39.6393 Z-3.2396
G01 X35.2200 Y39.7138 Z-3.2506
G01 X35.2877 Y39.7882 Z-3.2616
G01 X35.3553 Y39.8629 Z-3.2728
G01 X35.4228 Y39.9375 Z-3.2840
G01 X35.4903 Y40.0122 Z-3.2952
G01 X35.5578 Y40.0868 Z-3.3065
G01 X35.6253 Y40.1615 Z-3.3178
G01 X35.6927 Y40.2364 Z-3.3293
G01 X35.7600 Y40.3112 Z-3.3408
G01 X35.8274 Y40.3860 Z-3.3523
G01 X35.8947 Y40.4609 Z-3.3638
G01 X35.9620 Y40.5359 Z-3.3754
G01 X36.0292 Y40.6109 Z-3.3872
G01 X36.0963 Y40.6859 Z-3.3990
G01 X36.1635 Y40.7610 Z-3.4107
G01 X36.2307 Y40.8360 Z-3.4225
G01 X36.2977 Y40.9113 Z-3.4345
G01 X36.3647 Y40.9865 Z-3.4465
G01 X36.4317 Y41.0617 Z-3.4586
G01 X36.4987 Y41.1370 Z-3.4706
G01 X36.5656 Y41.2123 Z-3.4828
G01 X36.6325 Y41.2877 Z-3.4950
G01 X36.6993 Y41.3632 Z-3.5073
G01 X36.7661 Y41.4386 Z-3.5196
G01 X36.8329 Y41.5140 Z-3.5319
G01 X36.8996 Y41.5897 Z-3.5445
G01 X36.9663 Y41.6653 Z-3.5570
G01 X37.0329 Y41.7409 Z-3.5695
G01 X37.0996 Y41.8166 Z-3.5821
G01 X37.1661 Y41.8923 Z-3.5948
G01 X37.2326 Y41.9681 Z-3.6076
G01 X37.2991 Y42.0440 Z-3.6204
G01 X37.3656 Y42.1198 Z-3.6332
G01 X37.4320 Y42.1956 Z-3.6461
G01 X37.4984 Y42.2717 Z-3.6592
G01 X37.5647 Y42.3477 Z-3.6722
G01 X37.6310 Y42.4237 Z-3.6853
G01 X37.6755 Y42.4751 Z-3.6940
G01 X37.7402 Y42.5499 Z-3.7065
G01 X37.8046 Y42.6249 Z-3.7191
G01 X37.8691 Y42.6999 Z-3.7318
G01 X37.9336 Y42.7749 Z-3.7445
G01 X37.9981 Y42.8499 Z-3.7571
G01 X38.0623 Y42.9251 Z-3.7702
G01 X38.1076 Y42.9796 Z-3.7802
G01 X38.1712 Y43.0568 Z-3.7943
G01 X38.2348 Y43.1340 Z-3.8085
G01 X38.2984 Y43.2112 Z-3.8226
G01 X38.3620 Y43.2884 Z-3.8368
G01 X38.4256 Y43.3656 Z-3.8510
G01 X38.4892 Y43.4428 Z-3.8651
G01 X38.5346 Y43.4981 Z-3.8751
G01 X38.5985 Y43.5763 Z-3.8890
G01 X38.6623 Y43.6544 Z-3.9030
G01 X38.7255 Y43.7333 Z-3.9179
G01 X38.7882 Y43.8128 Z-3.9337
G01 X38.8508 Y43.8923 Z-3.9495
G01 X38.9134 Y43.9718 Z-3.9652
G01 X38.9581 Y44.0288 Z-3.9764
G01 X39.0210 Y44.1093 Z-3.9919
G01 X39.0839 Y44.1897 Z-4.0075
G01 X39.1468 Y44.2702 Z-4.0230
G01 X39.2097 Y44.3506 Z-4.0386
G01 X39.2726 Y44.4310 Z-4.0541
G01 X39.3351 Y44.5120 Z-4.0703
G01 X39.3792 Y44.5706 Z-4.0826
G01 X39.4411 Y44.6533 Z-4.0997
G01 X39.5030 Y44.7360 Z-4.1169
G01 X39.5649 Y44.8188 Z-4.1341
G01 X39.6267 Y44.9015 Z-4.1513
G01 X39.6886 Y44.9842 Z-4.1685
G01 X39.7505 Y45.0669 Z-4.1856
G01 X39.7948 Y45.1263 Z-4.1978
G01 X39.8569 Y45.2100 Z-4.2148
G01 X39.9189 Y45.2938 Z-4.2319
G01 X39.9802 Y45.3784 Z-4.2502
G01 X40.0410 Y45.4634 Z-4.2690
G01 X40.1019 Y45.5484 Z-4.2878
G01 X40.1628 Y45.6334 Z-4.3066
G01 X40.2063 Y45.6944 Z-4.3200
G01 X40.2673 Y45.7803 Z-4.3386
G01 X40.3284 Y45.8663 Z-4.3572
G01 X40.3895 Y45.9522 Z-4.3759
G01 X40.4506 Y46.0382 Z-4.3945
G01 X40.5117 Y46.1242 Z-4.4132
G01 X40.5721 Y46.2108 Z-4.4327
G01 X40.6149 Y46.2734 Z-4.4472
G01 X40.6749 Y46.3616 Z-4.4675
G01 X40.7350 Y46.4498 Z-4.4878
G01 X40.7950 Y46.5380 Z-4.5081
G01 X40.8550 Y46.6263 Z-4.5283
G01 X40.9151 Y46.7145 Z-4.5486
G01 X40.9751 Y46.8027 Z-4.5689
G01 X41.0180 Y46.8659 Z-4.5833
G01 X41.0782 Y46.9551 Z-4.6034
G01 X41.1383 Y47.0445 Z-4.6238
G01 X41.1975 Y47.1348 Z-4.6454
G01 X41.2564 Y47.2252 Z-4.6673
G01 X41.3154 Y47.3157 Z-4.6892
G01 X41.3744 Y47.4062 Z-4.7112
G01 X41.4164 Y47.4709 Z-4.7267
G01 X41.4756 Y47.5623 Z-4.7485
G01 X41.5348 Y47.6537 Z-4.7702
G01 X41.5940 Y47.7452 Z-4.7920
G01 X41.6532 Y47.8366 Z-4.8137
G01 X41.7123 Y47.9282 Z-4.8357
G01 X41.7706 Y48.0204 Z-4.8586
G01 X41.8082 Y48.0808 Z-4.8739
G01 X41.8590 Y48.1628 Z-4.8944
G01 X41.9098 Y48.2447 Z-4.9148
G01 X41.9607 Y48.3267 Z-4.9353
G01 X42.0115 Y48.4086 Z-4.9558
G01 X42.0624 Y48.4906 Z-4.9763
G01 X42.1132 Y48.5725 Z-4.9968
G01 X42.1640 Y48.6545 Z-5.0172
G01 X42.1981 Y48.7095 Z-5.0309
G01 X42.2491 Y48.7923 Z-5.0512
G01 X42.2999 Y48.8753 Z-5.0719
G01 X42.3501 Y48.9589 Z-5.0934
G01 X42.4000 Y49.0428 Z-5.1153
G01 X42.4499 Y49.1267 Z-5.1372
G01 X42.4997 Y49.2106 Z-5.1591
G01 X42.5496 Y49.2945 Z-5.1810
G01 X42.5829 Y49.3507 Z-5.1956
G01 X42.6330 Y49.4354 Z-5.2174
G01 X42.6830 Y49.5201 Z-5.2392
G01 X42.7331 Y49.6049 Z-5.2610
G01 X42.7831 Y49.6896 Z-5.2828
G01 X42.8332 Y49.7744 Z-5.3046
G01 X42.8829 Y49.8594 Z-5.3269
G01 X42.9320 Y49.9451 Z-5.3500
G01 X42.9646 Y50.0024 Z-5.3654
G01 X43.0136 Y50.0891 Z-5.3887
G01 X43.0627 Y50.1757 Z-5.4119
G01 X43.1118 Y50.2624 Z-5.4352
G01 X43.1609 Y50.3491 Z-5.4584
G01 X43.2100 Y50.4357 Z-5.4816
G01 X43.2590 Y50.5224 Z-5.5049
G01 X43.3081 Y50.6090 Z-5.5281
G01 X43.3407 Y50.6668 Z-5.5435
G01 X43.3899 Y50.7543 Z-5.5666
G01 X43.4389 Y50.8421 Z-5.5901
G01 X43.4873 Y50.9304 Z-5.6145
G01 X43.5354 Y51.0190 Z-5.6391
G01 X43.5835 Y51.1075 Z-5.6638
G01 X43.6316 Y51.1961 Z-5.6884
G01 X43.6797 Y51.2846 Z-5.7131
G01 X43.7116 Y51.3434 Z-5.7293
G01 X43.7598 Y51.4329 Z-5.7539
G01 X43.8081 Y51.5223 Z-5.7785
G01 X43.8563 Y51.6117 Z-5.8030
G01 X43.9046 Y51.7011 Z-5.8276
G01 X43.9528 Y51.7906 Z-5.8522
G01 X44.0007 Y51.8803 Z-5.8772
G01 X44.0480 Y51.9706 Z-5.9031
G01 X44.0791 Y52.0305 Z-5.9203
G01 X44.1264 Y52.1218 Z-5.9462
G01 X44.1737 Y52.2131 Z-5.9722
G01 X44.2210 Y52.3044 Z-5.9982
G01 X44.2683 Y52.3957 Z-6.0242
G01 X44.3155 Y52.4870 Z-6.0502
G01 X44.3628 Y52.5783 Z-6.0762
G01 X44.4101 Y52.6696 Z-6.1022
G01 X44.4412 Y52.7298 Z-6.1192
G01 X44.4886 Y52.8220 Z-6.1451
G01 X44.5358 Y52.9144 Z-6.1713
G01 X44.5823 Y53.0074 Z-6.1984
G01 X44.6286 Y53.1005 Z-6.2258
G01 X44.6750 Y53.1937 Z-6.2532
G01 X44.7213 Y53.2868 Z-6.2805
G01 X44.7676 Y53.3800 Z-6.3079
G01 X44.7979 Y53.4412 Z-6.3258
G01 X44.8467 Y53.5332 Z-6.3500
G01 X44.9136 Y53.6091
G01 X44.9806 Y53.6851
G01 X45.0475 Y53.7611
G01 X45.1144 Y53.8371
G01 X45.1814 Y53.9131
G01 X45.2483 Y53.9890
G01 X45.2926 Y54.0396
G01 X45.3597 Y54.1166
G01 X45.4268 Y54.1937
G01 X45.4940 Y54.2707
G01 X45.5611 Y54.3477
G01 X45.6282 Y54.4247
G01 X45.6953 Y54.5017
G01 X45.7785 Y54.5997
G01 X45.8407 Y54.6751
G01 X45.9028 Y54.7504
G01 X45.9650 Y54.8257
G01 X46.0271 Y54.9011
G01 X46.0893 Y54.9764
G01 X46.1666 Y55.0774
G01 X46.2255 Y55.1553
G01 X46.2845 Y55.2331
G01 X46.3435 Y55.3109
G01 X46.4024 Y55.3887
G01 X46.4759 Y55.4935
G01 X46.5317 Y55.5738
G01 X46.5875 Y55.6541
G01 X46.6432 Y55.7344
G01 X46.6990 Y55.8148
G01 X46.7694 Y55.9243
G01 X46.8219 Y56.0072
G01 X46.8745 Y56.0900
G01 X46.9271 Y56.1728
G01 X46.9797 Y56.2556
G01 X47.0475 Y56.3712
G01 X47.0969 Y56.4566
G01 X47.1463 Y56.5419
G01 X47.1957 Y56.6272
G01 X47.2451 Y56.7125
G01 X47.3107 Y56.8354
G01 X47.3569 Y56.9233
G01 X47.4031 Y57.0111
G01 X47.4493 Y57.0989
G01 X47.4955 Y57.1867
G01 X47.5591 Y57.3182
G01 X47.6021 Y57.4085
G01 X47.6452 Y57.4988
G01 X47.6882 Y57.5891
G01 X47.7312 Y57.6794
G01 X47.7531 Y57.7278
G01 X47.7929 Y57.8206
G01 X47.8328 Y57.9134
G01 X47.8726 Y58.0062
G01 X47.9124 Y58.0991
G01 X47.9523 Y58.1919
G01 X47.9753 Y58.2486
G01 X48.0120 Y58.3439
G01 X48.0486 Y58.4392
G01 X48.0853 Y58.5345
G01 X48.1219 Y58.6299
G01 X48.1586 Y58.7252
G01 X48.1826 Y58.7913
G01 X48.2160 Y58.8891
G01 X48.2495 Y58.9869
G01 X48.2830 Y59.0848
G01 X48.3164 Y59.1826
G01 X48.3499 Y59.2804
G01 X48.3745 Y59.3569
G01 X48.4048 Y59.4573
G01 X48.4351 Y59.5576
G01 X48.4653 Y59.6579
G01 X48.4956 Y59.7582
G01 X48.5259 Y59.8585
G01 X48.5461 Y59.9292
G01 X48.5702 Y60.0206
G01 X48.5943 Y60.1119
G01 X48.6184 Y60.2033
G01 X48.6425 Y60.2947
G01 X48.6666 Y60.3861
G01 X48.6906 Y60.4775
G01 X48.7066 Y60.5426
G01 X48.7278 Y60.6362
G01 X48.7491 Y60.7298
G01 X48.7703 Y60.8234
G01 X48.7915 Y60.9170
G01 X48.8128 Y61.0106
G01 X48.8340 Y61.1042
G01 X48.8501 Y61.1811
G01 X48.8685 Y61.2769
G01 X48.8869 Y61.3728
G01 X48.9054 Y61.4686
G01 X48.9238 Y61.5644
G01 X48.9422 Y61.6602
G01 X48.9606 Y61.7561
G01 X48.9762 Y61.8452
G01 X48.9918 Y61.9432
G01 X49.0074 Y62.0413
G01 X49.0229 Y62.1393
G01 X49.0385 Y62.2374
G01 X49.0541 Y62.3355
G01 X49.0697 Y62.4335
G01 X49.0842 Y62.5353
G01 X49.0970 Y62.6355
G01 X49.1097 Y62.7358
G01 X49.1225 Y62.8361
G01 X49.1352 Y62.9364
G01 X49.1480 Y63.0366
G01 X49.1607 Y63.1369
G01 X49.1735 Y63.2516
G01 X49.1834 Y63.3541
G01 X49.1933 Y63.4566
G01 X49.2032 Y63.5591
G01 X49.2132 Y63.6616
G01 X49.2231 Y63.7641
G01 X49.2330 Y63.8666
G01 X49.2435 Y63.9944
G01 X49.2505 Y64.0991
G01 X49.2576 Y64.2038
G01 X49.2647 Y64.3085
G01 X49.2718 Y64.4132
G01 X49.2789 Y64.5180
G01 X49.2860 Y64.6227
G01 X49.2928 Y64.7477
G01 X49.2967 Y64.8440
G01 X49.3005 Y64.9402
G01 X49.3043 Y65.0364
G01 X49.3081 Y65.1327
G01 X49.3120 Y65.2289
G01 X49.3158 Y65.3252
G01 X49.3196 Y65.4214
G01 X49.3228 Y65.5433
G01 X49.3241 Y65.6416
G01 X49.3253 Y65.7398
G01 X49.3266 Y65.8381
G01 X49.3279 Y65.9363
G01 X49.3292 Y66.0345
G01 X49.3304 Y66.1328
G01 X49.3317 Y66.2310
G01 X49.3315 Y66.3161
G01 X49.3296 Y66.4119
G01 X49.3278 Y66.5076
G01 X49.3259 Y66.6033
G01 X49.3241 Y66.6990
G01 X49.3222 Y66.7948
G01 X49.3203 Y66.8905
G01 X49.3185 Y66.9862
G01 X49.3101 Y67.1393
G01 X49.3039 Y67.2439
G01 X49.2977 Y67.3486
G01 X49.2915 Y67.4533
G01 X49.2853 Y67.5580
G01 X49.2791 Y67.6626
G01 X49.2749 Y67.7156
G01 X49.2646 Y67.8186
G01 X49.2542 Y67.9215
G01 X49.2439 Y68.0245
G01 X49.2336 Y68.1275
G01 X49.2232 Y68.2305
G01 X49.2129 Y68.3335
G01 X49.1933 Y68.4774
G01 X49.1788 Y68.5787
G01 X49.1643 Y68.6800
G01 X49.1499 Y68.7813
G01 X49.1354 Y68.8826
G01 X49.1209 Y68.9839
G01 X49.0968 Y69.1171
G01 X49.0782 Y69.2167
G01 X49.0596 Y69.3163
G01 X49.0410 Y69.4159
G01 X49.0224 Y69.5155
G01 X49.0038 Y69.6152
G01 X48.9756 Y69.7390
G01 X48.9529 Y69.8369
G01 X48.9302 Y69.9349
G01 X48.9074 Y70.0328
G01 X48.8847 Y70.1307
G01 X48.8619 Y70.2287
G01 X48.8300 Y70.3447
G01 X48.8031 Y70.4410
G01 X48.7763 Y70.5372
G01 X48.7494 Y70.6335
G01 X48.7225 Y70.7297
G01 X48.6956 Y70.8260
G01 X48.6600 Y70.9359
G01 X48.6290 Y71.0304
G01 X48.5980 Y71.1250
G01 X48.5670 Y71.2196
G01 X48.5359 Y71.3141
G01 X48.5049 Y71.4087
G01 X48.4654 Y71.5141
G01 X48.4302 Y71.6070
G01 X48.3951 Y71.6999
G01 X48.3599 Y71.7928
G01 X48.3248 Y71.8857
G01 X48.2896 Y71.9785
G01 X48.2457 Y72.0812
G01 X48.2064 Y72.1724
G01 X48.1672 Y72.2636
G01 X48.1279 Y72.3548
G01 X48.0886 Y72.4460
G01 X48.0493 Y72.5371
G01 X48.0004 Y72.6386
G01 X47.9570 Y72.7281
G01 X47.9136 Y72.8176
G01 X47.8702 Y72.9071
G01 X47.8268 Y72.9966
G01 X47.7834 Y73.0861
G01 X47.7287 Y73.1878
G01 X47.6811 Y73.2757
G01 X47.6336 Y73.3635
G01 X47.5860 Y73.4513
G01 X47.5385 Y73.5392
G01 X47.4909 Y73.6270
G01 X47.4294 Y73.7303
G01 X47.3777 Y73.8165
G01 X47.3260 Y73.9026
G01 X47.2743 Y73.9888
G01 X47.2227 Y74.0749
G01 X47.1710 Y74.1611
G01 X47.1015 Y74.2672
G01 X47.0456 Y74.3517
G01 X46.9898 Y74.4361
G01 X46.9340 Y74.5206
G01 X46.8782 Y74.6050
G01 X46.8223 Y74.6895
G01 X46.7436 Y74.7994
G01 X46.6836 Y74.8822
G01 X46.6237 Y74.9650
G01 X46.5637 Y75.0477
G01 X46.5038 Y75.1305
G01 X46.4438 Y75.2133
G01 X46.3545 Y75.3277
G01 X46.2904 Y75.4087
G01 X46.2263 Y75.4898
G01 X46.1622 Y75.5709
G01 X46.0981 Y75.6520
G01 X46.0340 Y75.7331
G01 X46.0010 Y75.7731
G01 X45.9328 Y75.8525
G01 X45.8646 Y75.9319
G01 X45.7963 Y76.0113
G01 X45.7281 Y76.0907
