(Project KidWallRuler4)
(Created by Estlcam version 11 build 11.029)
(Machining time about 00:00:54 hours)

(Required tools:)
(1/2" Chamfer)
G21
G90
G94
M03 S24000
G00 Z5.0000


(No. 1: Carve 5)
G00 X41.4965 Y6.4935
G01 Z-3.1750 F1270 S24000
G01 Y6.5934
G01 Y6.6933
G01 Y6.7933
G01 Y6.8932
G01 Y6.9931
G01 Y7.0931
G01 Y7.1930
G01 Y7.2929
G01 Y7.3928
G01 Y7.4928
G01 Y7.5927
G01 Y7.6926
G01 Y7.7925
G01 Y7.8925
G01 Y7.9924
G01 Y8.0923
G01 Y8.1922
G01 Y8.2922
G01 Y8.3921
G01 Y8.4920
G01 Y8.5919
G01 Y8.6919
G01 Y8.7918
G01 Y8.8917
G01 Y8.9917
G01 Y9.0916
G01 Y9.1915
G01 Y9.2914
G01 Y9.3914
G01 Y9.4913
G01 Y9.5912
G01 Y9.6911
G01 Y9.7911
G01 Y9.8910
G01 Y9.9909
G01 Y10.0908
G01 Y10.1908
G01 Y10.2907
G01 Y10.3906
G01 Y10.4905
G01 Y10.5905
G01 Y10.6904
G01 Y10.7903
G01 Y10.8903
G01 Y10.9902
G01 Y11.0901
G01 Y11.1900
G01 Y11.2900
G01 Y11.3899
G01 Y11.4898
G01 Y11.5897
G01 Y11.6897
G01 Y11.7896
G01 Y11.8895
G01 Y11.9894
G01 Y12.0894
G01 Y12.1893
G01 Y12.2892
G01 Y12.3891
G01 Y12.4891
G01 Y12.5890
G01 Y12.6889
G01 Y12.7889
G01 Y12.8888
G01 Y12.9887
G01 Y13.0886
G01 Y13.1886
G01 Y13.2885
G01 Y13.3884
G01 Y13.4883
G01 Y13.5883
G01 Y13.6882
G01 Y13.7881
G01 Y13.8880
G01 Y13.9880
G01 Y14.0879
G01 Y14.1878
G01 Y14.2877
G01 Y14.3877
G01 Y14.4876
G01 Y14.5875
G01 Y14.6875
G01 Y14.7874
G01 Y14.8873
G01 Y14.9872
G01 Y15.0872
G01 Y15.1871
G01 Y15.2870
G01 Y15.3869
G01 Y15.4869
G01 Y15.5868
G01 Y15.6867
G01 Y15.7866
G01 Y15.8866
G01 Y15.9865
G01 Y16.0864
G01 Y16.1863
G01 Y16.2863
G01 Y16.3862
G01 Y16.4861
G01 Y16.5861
G01 Y16.6860
G01 Y16.7859
G01 Y16.8858
G01 Y16.9858
G01 Y17.0857
G01 Y17.1856
G01 Y17.2855
G01 Y17.3855
G01 Y17.4854
G01 Y17.5853
G01 Y17.6852
G01 Y17.7852
G01 Y17.8851
G01 Y17.9850
G01 Y18.0849
G01 Y18.1849
G01 Y18.2848
G01 Y18.3847
G01 Y18.4847
G01 Y18.5846
G01 Y18.6845
G01 Y18.7844
G01 Y18.8844
G01 Y18.9843
G01 Y19.0842
G01 Y19.1841
G01 Y19.2841
G01 Y19.3840
G01 Y19.4839
G01 Y19.5838
G01 Y19.6838
G01 Y19.7837
G01 Y19.8836
G01 Y19.9835
G01 Y20.0835
G01 Y20.1834
G01 Y20.2833
G01 Y20.3833
G01 Y20.4832
G01 Y20.5831
G01 Y20.6830
G01 Y20.7830
G01 Y20.8829
G01 Y20.9828
G01 Y21.0827
G01 Y21.1827
G01 Y21.2826
G01 Y21.3825
G01 Y21.4824
G01 Y21.5824
G01 Y21.6823
G01 Y21.7822
G01 Y21.8821
G01 Y21.9821
G01 Y22.0820
G01 Y22.1819
G01 Y22.2819
G01 Y22.3818
G01 Y22.4817
G01 Y22.5816
G01 Y22.6816
G01 Y22.7815
G01 Y22.8814
G01 Y22.9813
G01 Y23.0813
G01 Y23.1812
G01 Y23.2811
G01 Y23.4310
G01 X41.4963 Y23.4864
G01 X41.4955 Y23.5418
G01 X41.4943 Y23.5972
G01 X41.4926 Y23.6526
G01 X41.4905 Y23.7080
G01 X41.4878 Y23.7633
G01 X41.4847 Y23.8187
G01 X41.4810 Y23.8740
G01 X41.4769 Y23.9292
G01 X41.4723 Y23.9844
G01 X41.4673 Y24.0396
G01 X41.4617 Y24.0948
G01 X41.4557 Y24.1498
G01 X41.4492 Y24.2049
G01 X41.4422 Y24.2598
G01 X41.4347 Y24.3148
G01 X41.4268 Y24.3696
G01 X41.4183 Y24.4244
G01 X41.4094 Y24.4791
G01 X41.4000 Y24.5337
G01 X41.3902 Y24.5882
G01 X41.3798 Y24.6426
G01 X41.3690 Y24.6970
G01 X41.3578 Y24.7512
G01 X41.3460 Y24.8054
G01 X41.3338 Y24.8594
G01 X41.3211 Y24.9134
G01 X41.3079 Y24.9672
G01 X41.2943 Y25.0209
G01 X41.2801 Y25.0745
G01 X41.2656 Y25.1280
G01 X41.2505 Y25.1813
G01 X41.2350 Y25.2345
G01 X41.2190 Y25.2876
G01 X41.2026 Y25.3405
G01 X41.0853 Y25.3606 Z-3.1222
G01 X40.9135 Z-3.0406
G01 X40.7505 Z-2.9635
G01 X40.5956 Z-2.8903
G01 X40.4481 Z-2.8209
G01 X40.3075 Z-2.7550
G01 X40.1733 Z-2.6922
G01 X40.0451 Z-2.6325
G01 X39.9225 Z-2.5755
G01 X39.8050 Z-2.5212
G01 X39.6924 Z-2.4692
G01 X39.5843 Z-2.4196
G01 X39.4805 Z-2.3721
G01 X39.3807 Z-2.3266
G01 X39.2846 Z-2.2829
G01 X39.1920 Z-2.2411
G01 X39.1028 Z-2.2009
G01 X39.0167 Z-2.1623
G01 X38.9336 Z-2.1252
G01 X38.8533 Z-2.0895
G01 X38.7756 Z-2.0551
G01 X38.7004 Z-2.0220
G01 X38.6276 Z-1.9901
G01 X38.5571 Z-1.9593
G01 X38.4887 Z-1.9296
G01 X38.4224 Z-1.9010
G01 X38.3579 Z-1.8733
G01 X38.2954 Z-1.8465
G01 X38.2345 Z-1.8207
G01 X38.1754 Z-1.7957
G01 X38.1179 Z-1.7715
G01 X38.0618 Z-1.7480
G01 X38.0073 Z-1.7254
G01 X37.9541 Z-1.7034
G01 X37.9023 Z-1.6821
G01 X37.8517 Z-1.6614
G01 X37.8024 Z-1.6414
G01 X37.7542 Z-1.6220
G01 X37.7072 Z-1.6032
G01 X37.6612 Z-1.5849
G01 X37.6163 Z-1.5671
G01 X37.5724 Z-1.5499
G01 X37.5294 Z-1.5331
G01 X37.4873 Z-1.5168
G01 X37.4461 Z-1.5010
G01 X37.4058 Z-1.4856
G01 X37.3663 Z-1.4706
G01 X37.3275 Z-1.4561
G01 X37.2896 Z-1.4419
G01 X37.2523 Z-1.4281
G01 X37.2158 Z-1.4147
G01 X37.1799 Z-1.4016
G01 X37.1447 Z-1.3889
G01 X37.1101 Z-1.3765
G01 X37.0761 Z-1.3644
G01 X37.0427 Z-1.3527
G01 X37.0099 Z-1.3412
G01 X36.9777 Z-1.3301
G01 X36.9459 Z-1.3192
G01 X36.9147 Z-1.3086
G01 X36.8839 Z-1.2983
G01 X36.8537 Z-1.2882
G01 X36.7946 Z-1.2688
G01 X36.7372 Z-1.2504
G01 X36.6814 Z-1.2328
G01 X36.6272 Z-1.2161
G01 X36.5744 Z-1.2002
G01 X36.5229 Z-1.1851
G01 X36.4727 Z-1.1707
G01 X36.4237 Z-1.1570
G01 X36.3758 Z-1.1440
G01 X36.3290 Z-1.1316
G01 X36.2831 Z-1.1197
G01 X36.2382 Z-1.1085
G01 X36.1942 Z-1.0978
G01 X36.1510 Z-1.0877
G01 X36.1086 Z-1.0781
G01 X36.0669 Z-1.0689
G01 X36.0259 Z-1.0603
G01 X35.9855 Z-1.0521
G01 X35.9458 Z-1.0443
G01 X35.9066 Z-1.0370
G01 X35.8680 Z-1.0300
G01 X35.8298 Z-1.0235
G01 X35.7735 Z-1.0145
G01 X35.7181 Z-1.0062
G01 X35.6636 Z-0.9988
G01 X35.6098 Z-0.9922
G01 X35.5567 Z-0.9864
G01 X35.5041 Z-0.9812
G01 X35.4521 Z-0.9768
G01 X35.4006 Z-0.9731
G01 X35.3493 Z-0.9701
G01 X35.2984 Z-0.9678
G01 X35.2476 Z-0.9661
G01 X35.1970 Z-0.9651
G01 X35.1465 Z-0.9648
G01 X35.0964
G01 X34.9963
G01 X34.8962
G01 X34.7960
G01 X34.6959
G01 X34.5958
G01 X34.4957
G01 X34.3955
G01 X34.2954
G01 X34.1953
G01 X34.0951
G01 X33.9950
G01 X33.8949
G01 X33.7947
G01 X33.6946
G01 X33.5945
G01 X33.4943
G01 X33.3942
G01 X33.2941
G01 X33.1939
G01 X33.0938
G01 X32.9937
G01 X32.8935
G01 X32.7934
G01 X32.6933
G01 X32.5931
G01 X32.4930
G01 X32.3929
G01 X32.2927
G01 X32.1926
G01 X32.0925
G01 X31.9923
G01 X31.8922
G01 X31.7921
G01 X31.6919
G01 X31.5918
G01 X31.4917
G01 X31.3915
G01 X31.2914
G01 X31.1913
G01 X31.0911
G01 X30.9910
G01 X30.8909
G01 X30.7907
G01 X30.6906
G01 X30.5905
G01 X30.4904
G01 X30.3902
G01 X30.2901
G01 X30.1900
G01 X30.0898
G01 X29.9897
G01 X29.8896
G01 X29.7894
G01 X29.6893
G01 X29.5892
G01 X29.4890
G01 X29.3889
G01 X29.2888
G01 X29.1886
G01 X29.0885
G01 X28.9884
G01 X28.8882
G01 X28.7881
G01 X28.6880
G01 X28.5878
G01 X28.4877
G01 X28.3876
G01 X28.2874
G01 X28.1873
G01 X28.0872
G01 X27.9870
G01 X27.8869
G01 X27.7868
G01 X27.6866
G01 X27.5865
G01 X27.4864
G01 X27.3862
G01 X27.2861
G01 X27.1860
G01 X27.0858
G01 X26.9857
G01 X26.8856
G01 X26.7854
G01 X26.6853
G01 X26.5852
G01 X26.4851
G01 X26.3849
G01 X26.2848
G01 X26.1847
G01 X26.0845
G01 X25.9844
G01 X25.8843
G01 X25.7841
G01 X25.6840
G01 X25.5839
G01 X25.4837
G01 X25.3836
G01 X25.2835
G01 X25.1833
G01 X25.0832
G01 X24.9831
G01 X24.8829
G01 X24.7828
G01 X24.6827
G01 X24.5825
G01 X24.4824
G01 X24.3823
G01 X24.2821
G01 X24.1820
G01 X24.0819
G01 X23.9817
G01 X23.8816
G01 X23.7815
G01 X23.6813
G01 X23.5812
G01 X23.4811
G01 X23.3809
G01 X23.2808
G01 X23.1807
G01 X23.0805
G01 X22.9804
G01 X22.8803
G01 X22.7801
G01 X22.6800
G01 X22.5799
G01 X22.4798
G01 X22.3796
G01 X22.2795
G01 X22.1794
G01 X22.0792
G01 X21.9791
G01 X21.8790
G01 X21.7788
G01 X21.6787
G01 X21.5786
G01 X21.4784
G01 X21.3783
G01 X21.2782
G01 X21.1780
G01 X21.0779
G01 X20.9778
G01 X20.8776
G01 X20.7775
G01 X20.6774
G01 X20.5772
G01 X20.4771
G01 X20.3770
G01 X20.2768
G01 X20.1767
G01 X20.0766
G01 X19.9764
G01 X19.8763
G01 X19.7762
G01 X19.6760
G01 X19.5759
G01 X19.4758
G01 X19.3756
G01 X19.2755
G01 X19.1754
G01 X19.0752
G01 X18.9751
G01 X18.8750
G01 X18.7748
G01 X18.6747
G01 X18.5746
G01 X18.4744
G01 X18.3743
G01 X18.2742
G01 X18.1741
G01 X18.0739
G01 X17.9738
G01 X17.8737
G01 X17.7735
G01 X17.6734
G01 X17.5733
G01 X17.4731
G01 X17.3730
G01 X17.2729
G01 X17.1727
G01 X17.0726
G01 X16.9725
G01 X16.8723
G01 X16.7722
G01 X16.6721
G01 X16.5719
G01 X16.4718
G01 X16.3717
G01 X16.2715
G01 X16.1714
G01 X16.0713
G01 X15.9711
G01 X15.8710
G01 X15.7709
G01 X15.6707
G01 X15.5706
G01 X15.4705
G01 X15.3703
G01 X15.2702
G01 X15.1701
G01 X15.0699
G01 X14.9698
G01 X14.8697
G01 X14.7695
G01 X14.6694
G01 X14.5693
G01 X14.4691
G01 X14.3690
G01 X14.2689
G01 X14.1688
G01 X14.0686
G01 X13.9685
G01 X13.8684
G01 X13.7682
G01 X13.6681
G01 X13.5680
G01 X13.4678
G01 X13.3677
G01 X13.2676
G01 X13.1674
G01 X13.0673
G01 X12.9672
G01 X12.8670
G01 X12.7669
G01 X12.6668
G01 X12.5666
G01 X12.4665
G01 X12.3664
G01 X12.2662
G01 X12.1661
G01 X12.0660
G01 X11.9658
G01 X11.8657
G01 X11.7656
G01 X11.6654
G01 X11.5653
G01 X11.4652
G01 X11.3650
G01 X11.2649
G01 X11.1648
G01 X11.0646
G01 X10.9645
G01 X10.8644
G01 X10.7642
G01 X10.6641
G01 X10.5640
G01 X10.4638
G01 X10.3637
G01 X10.2636
G01 X10.1635
G01 X10.0633
G01 X9.9632
G01 X9.8631
G01 X9.7629
G01 X9.6628
G01 X9.5627
G01 X9.4625
G01 X9.3624
G01 X9.2623
G01 X9.1621
G01 X9.0620
G01 X8.9619
G01 X8.8617
G01 X8.7616
G01 X8.6615
G01 X8.5613
G01 X8.4612
G01 X8.3611
G01 X8.2609
G01 X8.1608
G01 X8.0607
G01 X7.9605
G01 X7.8604
G01 X7.7603
G01 X7.6601
G01 X7.5600
G01 X7.4599
G01 X7.3597
G01 X7.2596
G01 X7.1595
G01 X7.0593
G01 X6.9592
G01 X6.8591
G01 X6.7589
G01 X6.6588
G01 X6.5587
G01 X6.4585
G01 X6.3584
G01 X6.2583
G01 X6.1581
G01 X6.0580
G01 X5.9579
G01 X5.8578
G01 X5.7576
G01 X5.6575
G01 X5.5574
G01 X5.4572
G01 X5.3571
G01 X5.2570
G01 X5.1568
G01 X5.0567
G01 X4.9566
G01 X4.8564
G01 X4.7563 Y25.3612 Z-0.9651
G01 X4.6562 Y25.3643 Z-0.9666
G01 X4.5560 Y25.3699 Z-0.9695
G01 X4.4559 Y25.3782 Z-0.9736
G01 X4.3558 Y25.3890 Z-0.9790
G01 X4.2556 Y25.4025 Z-0.9857
G01 X4.1555 Y25.4185 Z-0.9938
G01 X4.0554 Y25.4372 Z-1.0031
G01 X3.9552 Y25.4584 Z-1.0137
G01 X3.8551 Y25.4823 Z-1.0256
G01 X3.7550 Y25.5087 Z-1.0388
G01 X3.6548 Y25.5377 Z-1.0534
G01 X3.5547 Y25.5694 Z-1.0692
G01 X3.4546 Y25.6036 Z-1.0863
G01 X3.3544 Y25.6404 Z-1.1047
G01 X3.2543 Y25.6799 Z-1.1244
G01 X3.1542 Y25.7219 Z-1.1454
G01 X3.0540 Y25.7665 Z-1.1678
G01 X2.9539 Y25.8137 Z-1.1914
G01 X2.8538 Y25.8636 Z-1.2163
G01 X2.7536 Y25.9160 Z-1.2425
G01 X2.6535 Y25.9710 Z-1.2700
G01 X2.5534 Y25.9844 Z-1.2767
G01 X2.4532 Y25.8843 Z-1.2266
G01 X2.3531 Y25.7841 Z-1.1766
G01 X2.2530 Y25.6840 Z-1.1265
G01 X2.1528 Y25.5839 Z-1.0764
G01 X2.0527 Y25.4837 Z-1.0264
G01 X1.9526 Y25.3836 Z-0.9763
G01 X1.8525 Y25.2835 Z-0.9262
G01 X1.7523 Y25.1833 Z-0.8762
G01 X1.6522 Y25.0832 Z-0.8261
G01 X1.5521 Y24.9831 Z-0.7760
G01 X1.4519 Y24.8829 Z-0.7260
G01 X1.3518 Y24.7828 Z-0.6759
G01 X1.2517 Y24.6827 Z-0.6258
G01 X1.1515 Y24.5825 Z-0.5758
G01 X1.0514 Y24.4824 Z-0.5257
G01 X0.9513 Y24.3823 Z-0.4756
G01 X0.8511 Y24.2821 Z-0.4256
G01 X0.7510 Y24.1820 Z-0.3755
G01 X0.6509 Y24.0819 Z-0.3254
G01 X0.5507 Y23.9817 Z-0.2754
G01 X0.4506 Y23.8816 Z-0.2253
G01 X0.3505 Y23.7815 Z-0.1752
G01 X0.2503 Y23.6813 Z-0.1252
G01 X0.1502 Y23.5812 Z-0.0751
G01 X0.0501 Y23.4811 Z-0.0250
G01 X0.0000 Y23.4310 Z0.0000
G01 X0.0495 Y23.4805 Z-0.0247
G01 X0.1484 Y23.5794 Z-0.0742
G01 X0.2474 Y23.6784 Z-0.1237
G01 X0.3463 Y23.7773 Z-0.1732
G01 X0.5443 Y23.9753 Z-0.2721
G01 X0.7422 Y24.1732 Z-0.3711
G01 X0.9401 Y24.3711 Z-0.4700
G01 X1.1380 Y24.5690 Z-0.5690
G01 X1.3359 Y24.7669 Z-0.6679
G01 X1.5338 Y24.9648 Z-0.7669
G01 X1.7317 Y25.1627 Z-0.8659
G01 X1.9296 Y25.3606 Z-0.9648
G01 X2.1275 Y25.5585 Z-1.0638
G01 X2.3254 Y25.7564 Z-1.1627
G01 X2.5233 Y25.9544 Z-1.2617
G01 X2.5706 Y26.0533 Z-1.2853
G01 X2.5462 Y26.1523 Z-1.2731
G01 X2.5239 Y26.2512 Z-1.2620
G01 X2.5036 Y26.3502 Z-1.2518
G01 X2.4853 Y26.4491 Z-1.2427
G01 X2.4691 Y26.5481 Z-1.2346
G01 X2.1670 Y26.6470 Z-1.0835
G01 X1.8336 Y26.7460 Z-0.9168
G01 X1.5002 Y26.8449 Z-0.7501
G01 X1.1794 Y26.9402 Z-0.5897
G01 X2.4703 Y26.5771 Z-1.2297
G01 X2.4869 Y26.6857 Z-1.2070
G01 X2.5056 Y26.7929 Z-1.1856
G01 X2.5263 Y26.8987 Z-1.1654
G01 X2.5491 Y27.0032 Z-1.1465
G01 X2.5740 Y27.1064 Z-1.1287
G01 X2.6010 Y27.2082 Z-1.1123
G01 X2.6300 Y27.3086 Z-1.0970
G01 X2.6611 Y27.4077 Z-1.0830
G01 X2.6943 Y27.5055 Z-1.0703
G01 X2.7296 Y27.6019 Z-1.0588
G01 X2.7669 Y27.6969 Z-1.0485
G01 X2.8063 Y27.7906 Z-1.0394
G01 X2.8478 Y27.8830 Z-1.0316
G01 X2.8913 Y27.9739 Z-1.0250
G01 X2.9369 Y28.0636 Z-1.0197
G01 X2.9846 Y28.1519 Z-1.0156
G01 X3.0344 Y28.2388 Z-1.0127
G01 X3.0863 Y28.3244 Z-1.0111
G01 X3.1401 Y28.4087 Z-1.0107
G01 X3.1947 Y28.4925
G01 X3.2493 Y28.5763
G01 X3.3038 Y28.6602
G01 X3.3584 Y28.7440
G01 X3.4130 Y28.8278
G01 X3.4676 Y28.9116
G01 X3.5221 Y28.9955
G01 X3.5767 Y29.0793
G01 X3.6313 Y29.1631
G01 X3.6858 Y29.2469
G01 X3.7404 Y29.3308
G01 X3.7950 Y29.4146
G01 X3.8495 Y29.4984
G01 X3.9041 Y29.5822
G01 X3.9587 Y29.6660
G01 X4.0132 Y29.7499
G01 X4.0678 Y29.8337
G01 X4.1224 Y29.9175
G01 X4.1770 Y30.0013
G01 X4.2315 Y30.0852
G01 X4.2861 Y30.1690
G01 X4.3407 Y30.2528
G01 X4.3952 Y30.3366
G01 X4.4498 Y30.4204
G01 X4.5044 Y30.5043
G01 X4.5589 Y30.5881
G01 X4.6135 Y30.6719
G01 X4.6681 Y30.7557
G01 X4.7226 Y30.8396
G01 X4.7772 Y30.9234
G01 X4.8318 Y31.0072
G01 X4.8864 Y31.0910
G01 X4.9409 Y31.1749
G01 X4.9955 Y31.2587
G01 X5.0501 Y31.3425
G01 X5.1046 Y31.4263
G01 X5.1592 Y31.5101
G01 X5.2138 Y31.5940
G01 X5.2683 Y31.6778
G01 X5.3229 Y31.7616
G01 X5.3775 Y31.8454
G01 X5.4320 Y31.9293
G01 X5.4866 Y32.0131
G01 X5.5412 Y32.0969
G01 X5.5958 Y32.1807
G01 X5.6503 Y32.2646
G01 X5.7049 Y32.3484
G01 X5.7595 Y32.4322
G01 X5.8140 Y32.5160
G01 X5.8686 Y32.5998
G01 X5.9232 Y32.6837
G01 X5.9777 Y32.7675
G01 X6.0323 Y32.8513
G01 X6.0869 Y32.9351
G01 X6.1414 Y33.0190
G01 X6.1960 Y33.1028
G01 X6.2506 Y33.1866
G01 X6.3052 Y33.2704
G01 X6.3597 Y33.3542
G01 X6.4143 Y33.4381
G01 X6.4689 Y33.5219
G01 X6.5234 Y33.6057
G01 X6.5780 Y33.6895
G01 X6.6326 Y33.7734
G01 X6.6871 Y33.8572
G01 X6.7417 Y33.9410
G01 X6.7963 Y34.0248
G01 X6.8508 Y34.1087
G01 X6.9054 Y34.1925
G01 X6.9600 Y34.2763
G01 X7.0146 Y34.3601
G01 X7.0691 Y34.4439
G01 X7.1237 Y34.5278
G01 X7.1783 Y34.6116
G01 X7.2328 Y34.6954
G01 X7.2874 Y34.7792
G01 X7.3420 Y34.8631
G01 X7.3965 Y34.9469
G01 X7.4511 Y35.0307
G01 X7.5057 Y35.1145
G01 X7.5602 Y35.1983
G01 X7.6148 Y35.2822
G01 X7.6694 Y35.3660
G01 X7.7240 Y35.4498
G01 X7.7785 Y35.5336
G01 X7.8331 Y35.6175
G01 X7.8877 Y35.7013
G01 X7.9422 Y35.7851
G01 X7.9968 Y35.8689
G01 X8.0514 Y35.9528
G01 X8.1059 Y36.0366
G01 X8.1605 Y36.1204
G01 X8.2151 Y36.2042
G01 X8.2696 Y36.2880
G01 X8.3242 Y36.3719
G01 X8.3788 Y36.4557
G01 X8.4334 Y36.5395
G01 X8.4879 Y36.6233
G01 X8.5425 Y36.7072
G01 X8.5971 Y36.7910
G01 X8.6516 Y36.8748
G01 X8.7062 Y36.9586
G01 X8.7608 Y37.0425
G01 X8.8153 Y37.1263
G01 X8.8699 Y37.2101
G01 X8.9245 Y37.2939
G01 X8.9790 Y37.3777
G01 X9.0336 Y37.4616
G01 X9.0882 Y37.5454
G01 X9.1428 Y37.6292
G01 X9.1973 Y37.7130
G01 X9.2519 Y37.7969
G01 X9.3065 Y37.8807
G01 X9.3610 Y37.9645
G01 X9.4156 Y38.0483
G01 X9.4702 Y38.1321
G01 X9.5247 Y38.2160
G01 X9.5793 Y38.2998
G01 X9.6339 Y38.3836
G01 X9.6884 Y38.4674
G01 X9.7430 Y38.5513
G01 X9.7976 Y38.6351
G01 X9.8522 Y38.7189
G01 X9.9067 Y38.8027
G01 X9.9613 Y38.8866
G01 X10.0159 Y38.9704
G01 X10.0704 Y39.0542
G01 X10.1250 Y39.1380
G01 X10.1796 Y39.2218
G01 X10.2341 Y39.3057
G01 X10.2887 Y39.3895
G01 X10.3433 Y39.4733
G01 X10.3978 Y39.5571
G01 X10.4524 Y39.6410
G01 X10.5070 Y39.7248
G01 X10.5616 Y39.8086
G01 X10.6161 Y39.8924
G01 X10.6707 Y39.9762
G01 X10.7253 Y40.0601
G01 X10.7798 Y40.1439
G01 X10.8344 Y40.2277
G01 X10.8890 Y40.3115
G01 X10.9435 Y40.3954
G01 X10.9981 Y40.4792
G01 X11.0527 Y40.5630
G01 X11.1072 Y40.6468
G01 X11.1618 Y40.7307
G01 X11.2164 Y40.8145
G01 X11.2710 Y40.8983
G01 X11.3255 Y40.9821
G01 X11.3801 Y41.0659
G01 X11.4347 Y41.1498
G01 X11.4892 Y41.2336
G01 X11.5438 Y41.3174
G01 X11.5984 Y41.4012
G01 X11.6529 Y41.4851
G01 X11.7075 Y41.5689
G01 X11.7621 Y41.6527
G01 X11.8166 Y41.7365
G01 X11.8712 Y41.8204
G01 X11.9258 Y41.9042
G01 X11.9804 Y41.9880
G01 X12.0349 Y42.0718
G01 X12.0895 Y42.1556
G01 X12.1441 Y42.2395
G01 X12.1986 Y42.3233
G01 X12.2532 Y42.4071
G01 X12.3078 Y42.4909
G01 X12.3623 Y42.5748
G01 X12.4169 Y42.6586
G01 X12.4715 Y42.7424
G01 X12.5260 Y42.8262
G01 X12.5806 Y42.9100
G01 X12.6352 Y42.9939
G01 X12.6898 Y43.0777
G01 X12.7443 Y43.1615
G01 X12.7989 Y43.2453
G01 X12.8535 Y43.3292
G01 X12.9080 Y43.4130
G01 X12.9626 Y43.4968
G01 X13.0172 Y43.5806
G01 X13.0717 Y43.6645
G01 X13.1263 Y43.7483
G01 X13.1809 Y43.8321
G01 X13.2354 Y43.9159
G01 X13.2900 Y43.9997
G01 X13.3446 Y44.0836
G01 X13.3992 Y44.1674
G01 X13.4537 Y44.2512
G01 X13.5083 Y44.3350
G01 X13.5629 Y44.4189
G01 X13.6174 Y44.5027
G01 X13.6720 Y44.5865
G01 X13.7266 Y44.6703
G01 X13.7811 Y44.7541
G01 X13.8357 Y44.8380
G01 X13.8903 Y44.9218
G01 X13.9448 Y45.0056
G01 X13.9994 Y45.0894
G01 X14.0540 Y45.1733
G01 X14.1086 Y45.2571
G01 X14.1631 Y45.3409
G01 X14.2177 Y45.4247
G01 X14.2723 Y45.5086
G01 X14.3268 Y45.5924
G01 X14.3814 Y45.6762
G01 X14.4360 Y45.7600
G01 X14.4905 Y45.8438
G01 X14.5451 Y45.9277
G01 X14.5997 Y46.0115
G01 X14.6542 Y46.0953
G01 X14.7088 Y46.1791
G01 X14.7634 Y46.2630
G01 X14.8180 Y46.3468
G01 X14.8725 Y46.4306
G01 X14.9271 Y46.5144
G01 X14.9817 Y46.5983
G01 X15.0362 Y46.6821
G01 X15.0908 Y46.7659
G01 X15.1454 Y46.8497
G01 X15.1999 Y46.9335
G01 X15.2545 Y47.0174
G01 X15.3091 Y47.1012
G01 X15.3636 Y47.1850
G01 X15.4182 Y47.2688
G01 X15.4728 Y47.3527
G01 X15.5274 Y47.4365
G01 X15.5819 Y47.5203
G01 X15.6365 Y47.6041
G01 X15.6911 Y47.6879
G01 X15.7456 Y47.7718
G01 X15.8002 Y47.8556
G01 X15.8548 Y47.9394
G01 X15.9093 Y48.0232
G01 X15.9639 Y48.1071
G01 X16.0185 Y48.1909
G01 X16.0730 Y48.2747
G01 X16.1276 Y48.3585
G01 X16.1822 Y48.4424
G01 X16.2368 Y48.5262
G01 X16.2913 Y48.6100
G01 X16.3459 Y48.6938
G01 X16.4005 Y48.7776
G01 X16.4550 Y48.8615
G01 X16.5096 Y48.9453
G01 X16.5642 Y49.0291
G01 X16.6187 Y49.1129
G01 X16.6733 Y49.1968
G01 X16.7279 Y49.2806
G01 X16.7824 Y49.3644
G01 X16.8370 Y49.4482
G01 X16.8916 Y49.5320
G01 X16.9462 Y49.6159
G01 X17.0007 Y49.6997
G01 X17.0553 Y49.7835
G01 X17.1099 Y49.8673
G01 X17.1644 Y49.9512
G01 X17.2190 Y50.0350
G01 X17.2736 Y50.1188
G01 X17.3281 Y50.2026
G01 X17.3827 Y50.2865
G01 X17.4373 Y50.3703
G01 X17.4918 Y50.4541
G01 X17.5464 Y50.5379
G01 X17.6010 Y50.6217
G01 X17.6556 Y50.7056
G01 X17.7101 Y50.7894
G01 X17.7647 Y50.8732
G01 X17.8193 Y50.9570
G01 X17.8738 Y51.0409
G01 X17.9284 Y51.1247
G01 X17.9830 Y51.2085
G01 X18.0375 Y51.2923
G01 X18.0921 Y51.3762
G01 X18.1467 Y51.4600
G01 X18.2012 Y51.5438
G01 X18.2558 Y51.6276
G01 X18.3104 Y51.7114
G01 X18.3650 Y51.7953
G01 X18.4195 Y51.8791
G01 X18.4741 Y51.9629
G01 X18.5287 Y52.0467
G01 X18.5832 Y52.1306
G01 X18.6378 Y52.2144
G01 X18.6924 Y52.2982
G01 X18.7469 Y52.3820
G01 X18.8015 Y52.4658
G01 X18.8561 Y52.5497
G01 X18.9106 Y52.6335
G01 X18.9652 Y52.7173
G01 X19.0198 Y52.8011
G01 X19.0744 Y52.8850
G01 X19.1289 Y52.9688
G01 X19.1835 Y53.0526
G01 X19.2381 Y53.1364
G01 X19.2926 Y53.2203
G01 X19.3472 Y53.3041
G01 X19.4018 Y53.3879
G01 X19.4563 Y53.4717
G01 X19.5109 Y53.5555
G01 X19.5655 Y53.6394
G01 X19.6200 Y53.7232
G01 X19.6746 Y53.8070
G01 X19.7292 Y53.8908
G01 X19.7838 Y53.9747
G01 X19.8383 Y54.0585
G01 X19.8929 Y54.1423
G01 X19.9475 Y54.2261
G01 X20.0020 Y54.3099
G01 X20.0566 Y54.3938
G01 X20.1112 Y54.4776
G01 X20.1657 Y54.5614
G01 X20.2203 Y54.6452
G01 X20.2749 Y54.7291
G01 X20.3294 Y54.8129
G01 X20.3840 Y54.8967
G01 X20.4386 Y54.9805
G01 X20.4932 Y55.0644
G01 X20.5477 Y55.1482
G01 X20.6023 Y55.2320
G01 X20.6569 Y55.3158
G01 X20.7114 Y55.3996
G01 X20.7660 Y55.4835
G01 X20.8206 Y55.5673
G01 X20.8751 Y55.6511
G01 X20.9297 Y55.7349
G01 X20.9843 Y55.8188
G01 X21.0388 Y55.9026
G01 X21.0934 Y55.9864
G01 X21.1480 Y56.0702
G01 X21.2026 Y56.1541
G01 X21.2571 Y56.2379
G01 X21.3117 Y56.3217
G01 X21.3663 Y56.4055
G01 X21.4208 Y56.4893
G01 X21.4754 Y56.5732
G01 X21.5300 Y56.6570
G01 X21.5845 Y56.7408
G01 X21.6391 Y56.8246
G01 X21.6937 Y56.9085
G01 X21.7482 Y56.9923
G01 X21.8028 Y57.0761
G01 X21.8574 Y57.1599
G01 X21.9120 Y57.2437
G01 X21.9665 Y57.3276
G01 X22.0211 Y57.4114
G01 X22.0757 Y57.4952
G01 X22.1302 Y57.5790
G01 X22.1848 Y57.6629
G01 X22.2394 Y57.7467
G01 X22.2939 Y57.8305
G01 X22.3485 Y57.9143
G01 X22.4031 Y57.9982
G01 X22.4576 Y58.0820
G01 X22.5122 Y58.1658
G01 X22.5668 Y58.2496
G01 X22.6213 Y58.3334
G01 X22.6759 Y58.4173
G01 X22.7305 Y58.5011
G01 X22.7851 Y58.5849
G01 X22.8396 Y58.6687
G01 X22.8942 Y58.7526
G01 X22.9488 Y58.8364
G01 X23.0033 Y58.9202
G01 X23.0579 Y59.0040
G01 X23.1125 Y59.0878
G01 X23.1670 Y59.1717
G01 X23.2216 Y59.2555
G01 X23.2762 Y59.3393
G01 X23.3307 Y59.4231
G01 X23.3853 Y59.5070
G01 X23.4399 Y59.5908
G01 X23.4945 Y59.6746
G01 X23.5490 Y59.7584
G01 X23.6036 Y59.8423
G01 X23.6582 Y59.9261
G01 X23.7127 Y60.0099
G01 X23.7673 Y60.0937
G01 X23.8219 Y60.1775
G01 X23.8764 Y60.2614
G01 X23.9310 Y60.3452
G01 X23.9856 Y60.4290
G01 X24.0401 Y60.5128
G01 X24.0947 Y60.5967
G01 X24.1493 Y60.6805
G01 X24.2039 Y60.7643
G01 X24.2584 Y60.8481
G01 X24.3130 Y60.9320
G01 X24.3676 Y61.0158
G01 X24.4221 Y61.0996
G01 X24.4767 Y61.1834
G01 X24.5313 Y61.2672
G01 X24.5858 Y61.3511
G01 X24.6404 Y61.4349
G01 X24.6950 Y61.5187
G01 X24.7495 Y61.6025
G01 X24.8041 Y61.6864
G01 X24.8587 Y61.7702
G01 X24.9133 Y61.8540
G01 X24.9678 Y61.9378
G01 X25.0224 Y62.0216
G01 X25.0770 Y62.1055
G01 X25.1315 Y62.1893
G01 X25.1861 Y62.2731
G01 X25.2407 Y62.3569
G01 X25.2952 Y62.4408
G01 X25.3498 Y62.5246
G01 X25.4044 Y62.6084
G01 X25.4589 Y62.6922
G01 X25.5135 Y62.7761
G01 X25.5681 Y62.8599
G01 X25.6227 Y62.9437
G01 X25.6772 Y63.0275
G01 X25.7318 Y63.1113
G01 X25.7864 Y63.1952
G01 X25.8409 Y63.2790
G01 X25.8955 Y63.3628
G01 X25.9501 Y63.4466
G01 X26.0046 Y63.5305
G01 X26.0592 Y63.6143
G01 X26.1138 Y63.6981
G01 X26.1683 Y63.7819
G01 X26.2229 Y63.8657
G01 X26.2775 Y63.9496
G01 X26.3321 Y64.0334
G01 X26.3866 Y64.1172
G01 X26.4412 Y64.2010
G01 X26.4958 Y64.2849
G01 X26.5503 Y64.3687
G01 X26.6049 Y64.4525
G01 X26.6595 Y64.5363
G01 X26.7140 Y64.6202
G01 X26.7686 Y64.7040
G01 X26.8232 Y64.7878
G01 X26.8777 Y64.8716
G01 X26.9323 Y64.9554
G01 X26.9869 Y65.0393
G01 X27.0415 Y65.1231
G01 X27.0960 Y65.2069
G01 X27.1506 Y65.2907
G01 X27.2052 Y65.3746
G01 X27.2597 Y65.4584
G01 X27.3143 Y65.5422
G01 X27.3689 Y65.6260
G01 X27.4234 Y65.7099
G01 X27.4780 Y65.7937
G01 X27.5326 Y65.8775
G01 X27.5871 Y65.9613
G01 X27.6417 Y66.0451
G01 X27.6963 Y66.1290
G01 X27.7509 Y66.2128
G01 X27.8054 Y66.2966
G01 X27.8600 Y66.3804
G01 X27.9146 Y66.4643
G01 X27.9691 Y66.5481
G01 X28.0237 Y66.6319
G01 X28.0783 Y66.7157
G01 X28.1328 Y66.7995
G01 X28.1874 Y66.8834
G01 X28.2420 Y66.9672
G01 X28.2965 Y67.0510
G01 X28.3511 Y67.1348
G01 X28.4057 Y67.2187
G01 X28.4603 Y67.3025
G01 X28.5148 Y67.3863
G01 X28.5694 Y67.4701
G01 X28.6240 Y67.5540
G01 X28.6785 Y67.6378
G01 X28.7331 Y67.7216
G01 X28.7877 Y67.8054
G01 X28.8422 Y67.8892
G01 X28.8968 Y67.9731
G01 X28.9514 Y68.0569
G01 X29.0059 Y68.1407
G01 X29.0605 Y68.2245
G01 X29.1151 Y68.3084
G01 X29.1697 Y68.3922
G01 X29.2242 Y68.4760
G01 X29.2788 Y68.5598
G01 X29.3334 Y68.6436
G01 X29.3879 Y68.7275
G01 X29.4425 Y68.8113
G01 X29.4971 Y68.8951
G01 X29.5516 Y68.9789
G01 X29.6062 Y69.0628
G01 X29.6608 Y69.1466
G01 X29.7153 Y69.2304
G01 X29.7699 Y69.3142
G01 X29.8245 Y69.3981
G01 X29.8791 Y69.4819
G01 X29.9336 Y69.5657
G01 X29.9882 Y69.6495
G01 X30.0428 Y69.7333
G01 X30.0973 Y69.8172
G01 X30.1519 Y69.9010
G01 X30.2065 Y69.9848
G01 X30.2610 Y70.0686
G01 X30.3156 Y70.1525
G01 X30.3702 Y70.2363
G01 X30.4247 Y70.3201
G01 X30.4793 Y70.4039
G01 X30.5339 Y70.4878
G01 X30.5885 Y70.5716
G01 X30.6430 Y70.6554
G01 X30.6976 Y70.7392
G01 X30.7522 Y70.8230
G01 X30.8067 Y70.9069
G01 X30.8613 Y70.9907
G01 X30.9159 Y71.0745
G01 X30.9704 Y71.1583
G01 X31.0250 Y71.2422
G01 X31.0796 Y71.3260
G01 X31.1341 Y71.4098
G01 X31.1887 Y71.4936
G01 X31.2433 Y71.5774
G01 X31.2979 Y71.6613
G01 X31.3524 Y71.7451
G01 X31.4070 Y71.8289
G01 X31.4616 Y71.9127
G01 X31.5161 Y71.9966
G01 X31.5707 Y72.0804
G01 X31.6253 Y72.1642
G01 X31.6798 Y72.2480
G01 X31.7344 Y72.3319
G01 X31.7890 Y72.4157
G01 X31.8435 Y72.4995
G01 X31.8981 Y72.5833
G01 X31.9527 Y72.6671
G01 X32.0073 Y72.7510
G01 X32.0618 Y72.8348
G01 X32.1164 Y72.9186
G01 X32.1710 Y73.0024
G01 X32.2255 Y73.0863
G01 X32.2801 Y73.1701
G01 X32.3347 Y73.2539
G01 X32.3892 Y73.3377
G01 X32.4438 Y73.4215
G01 X32.4984 Y73.5054
G01 X32.5529 Y73.5892
G01 X32.6075 Y73.6730
G01 X32.6621 Y73.7568
G01 X32.7167 Y73.8407
G01 X32.7712 Y73.9245
G01 X32.8258 Y74.0083
G01 X32.8804 Y74.0921
G01 X32.9349 Y74.1760
G01 X32.9895 Y74.2598
G01 X33.0441 Y74.3436
G01 X33.0986 Y74.4274
G01 X33.1532 Y74.5112
G01 X33.2078 Y74.5951
G01 X33.2623 Y74.6789
G01 X33.3169 Y74.7627
G01 X33.3715 Y74.8465
G01 X33.4244 Y74.9314 Z-1.0097
G01 X33.4789 Y75.0153
G01 X33.5354 Y75.0979 Z-1.0108
G01 X33.5940 Y75.1791 Z-1.0132
G01 X33.6547 Y75.2589 Z-1.0169
G01 X33.7175 Y75.3374 Z-1.0218
G01 X33.7823 Y75.4145 Z-1.0279
G01 X33.8492 Y75.4903 Z-1.0353
G01 X33.9182 Y75.5648 Z-1.0439
G01 X33.9893 Y75.6378 Z-1.0537
G01 X34.0624 Y75.7096 Z-1.0648
G01 X34.1376 Y75.7800 Z-1.0771
G01 X34.2149 Y75.8490 Z-1.0907
G01 X34.2943 Y75.9167 Z-1.1055
G01 X34.3757 Y75.9830 Z-1.1215
G01 X34.4592 Y76.0480 Z-1.1388
G01 X34.5448 Y76.1116 Z-1.1573
G01 X34.6325 Y76.1739 Z-1.1770
G01 X34.7223 Y76.2348 Z-1.1980
G01 X34.8141 Y76.2943 Z-1.2202
G01 X34.9080 Y76.3526 Z-1.2437
G01 X35.0040 Y76.4094 Z-1.2684
G01 X35.1020 Y76.4649 Z-1.2944
G01 X35.2022 Y76.5191 Z-1.3215
G01 X35.3044 Y76.5719 Z-1.3500
G01 X35.4086 Y76.6234 Z-1.3796
G01 X35.5150 Y76.6735 Z-1.4105
G01 X35.6234 Y76.7222 Z-1.4427
G01 X35.7339 Y76.7696 Z-1.4760
G01 X35.8465 Y76.8157 Z-1.5107
G01 X35.9612 Y76.8604 Z-1.5465
G01 X36.1968 Y76.9457 Z-1.6219
G01 X36.4406 Y77.0257 Z-1.7023
G01 X36.6928 Y77.1002 Z-1.7876
G01 X36.9533 Y77.1693 Z-1.8779
G01 X37.2220 Y77.2331 Z-1.9732
G01 X37.4991 Y77.2914 Z-2.0734
G01 X37.7845 Y77.3443 Z-2.1785
G01 X38.0782 Y77.3918 Z-2.2886
G01 X38.3802 Y77.4339 Z-2.4037
G01 X38.6905 Y77.4706 Z-2.5237
G01 X39.0091 Y77.5019 Z-2.6487
G01 X39.3360 Y77.5277 Z-2.7786
G01 X39.6712 Y77.5482 Z-2.9135
G01 X40.0147 Y77.5633 Z-3.0533
G01 X40.3278 Y77.5981 Z-3.1750
G01 X40.3824 Y77.6820
G01 X40.4370 Y77.7658
G01 X40.4915 Y77.8496
G01 X40.5461 Y77.9334
G01 X40.6007 Y78.0172
G01 X40.6552 Y78.1011
G01 X40.7098 Y78.1849
G01 X40.7644 Y78.2687
G01 X40.8189 Y78.3525
G01 X40.8735 Y78.4364
G01 X40.9281 Y78.5202
G01 X40.9826 Y78.6040
G01 X41.0372 Y78.6878
G01 X41.0918 Y78.7716
G01 X41.1464 Y78.8555
G01 X41.2009 Y78.9393
G01 X41.2555 Y79.0231
G01 X41.3101 Y79.1069
G01 X41.3646 Y79.1908
G01 X41.4192 Y79.2746
G01 X41.4738 Y79.3584
G01 X41.5283 Y79.4422
G01 X41.5829 Y79.5261
G01 X41.6375 Y79.6099
G01 X41.6920 Y79.6937
G01 X41.7466 Y79.7775
G01 X41.8012 Y79.8613
G01 X41.8558 Y79.9452
G01 X41.9103 Y80.0290
G01 X41.9649 Y80.1128
G01 X42.0195 Y80.1966
G01 X42.0740 Y80.2805
G01 X42.1286 Y80.3643
G01 X42.1832 Y80.4481
G01 X42.2377 Y80.5319
G01 X42.2923 Y80.6158
G01 X42.3469 Y80.6996
G01 X42.4014 Y80.7834
G01 X42.4560 Y80.8672
G01 X42.5106 Y80.9510
G01 X42.5652 Y81.0349
G01 X42.6197 Y81.1187
G01 X42.6743 Y81.2025
G01 X42.7289 Y81.2863
G01 X42.7834 Y81.3702
G01 X42.8380 Y81.4540
G01 X42.8926 Y81.5378
G01 X42.9471 Y81.6216
G01 X43.0017 Y81.7054
G01 X43.0563 Y81.7893
G01 X43.1108 Y81.8731
G01 X43.1654 Y81.9569
G01 X43.2200 Y82.0407
G01 X43.2746 Y82.1246
G01 X43.3291 Y82.2084
G01 X43.3837 Y82.2922
G01 X43.4383 Y82.3760
G01 X43.4928 Y82.4599
G01 X43.5474 Y82.5437
G01 X43.4591 Y82.7205 Z-3.0897
G01 X43.3590 Y82.9050 Z-2.9975
G01 X43.2590 Y83.0895 Z-2.9053
G01 X43.1590 Y83.2739 Z-2.8130
G01 X43.0590 Y83.4584 Z-2.7208
G01 X42.9589 Y83.6428 Z-2.6286
G01 X42.8589 Y83.8273 Z-2.5363
G01 X42.7589 Y84.0118 Z-2.4441
G01 X42.6589 Y84.1962 Z-2.3519
G01 X42.5589 Y84.3807 Z-2.2597
G01 X42.4588 Y84.5652 Z-2.1674
G01 X42.3588 Y84.7496 Z-2.0752
G01 X42.2588 Y84.9341 Z-1.9830
G01 X42.1588 Y85.1185 Z-1.8907
G01 X42.0588 Y85.3030 Z-1.7985
G01 X41.9587 Y85.4875 Z-1.7063
G01 X41.8587 Y85.6719 Z-1.6140
G01 X41.7587 Y85.8564 Z-1.5218
G01 X41.6587 Y86.0408 Z-1.4296
G01 X41.5587 Y86.2253 Z-1.3373
G01 X41.4586 Y86.4098 Z-1.2451
G01 X41.3586 Y86.5942 Z-1.1529
G01 X41.2586 Y86.7787 Z-1.0607
G01 X41.1586 Y86.9632 Z-0.9684
G01 X41.0586 Y87.1476 Z-0.8762
G01 X40.9585 Y87.3321 Z-0.7840
G01 X40.8585 Y87.5165 Z-0.6917
G01 X40.7585 Y87.7010 Z-0.5995
G01 X40.6585 Y87.8855 Z-0.5073
G01 X40.5585 Y88.0699 Z-0.4150
G01 X40.4584 Y88.2544 Z-0.3228
G01 X40.3584 Y88.4388 Z-0.2306
G01 X40.2584 Y88.6233 Z-0.1383
G01 X40.1584 Y88.8078 Z-0.0461
G01 X40.1084 Y88.9000 Z0.0000
G01 X40.1585 Y88.8076 Z-0.0462
G01 X40.3590 Y88.4378 Z-0.2311
G01 X40.5594 Y88.0681 Z-0.4159
G01 X40.7599 Y87.6984 Z-0.6008
G01 X40.9604 Y87.3286 Z-0.7857
G01 X41.1609 Y86.9589 Z-0.9705
G01 X41.3614 Y86.5892 Z-1.1554
G01 X41.5618 Y86.2194 Z-1.3403
G01 X41.7623 Y85.8497 Z-1.5251
G01 X41.9628 Y85.4800 Z-1.7100
G01 X42.1633 Y85.1102 Z-1.8949
G01 X42.3638 Y84.7405 Z-2.0797
G01 X42.5642 Y84.3708 Z-2.2646
G01 X42.7647 Y84.0010 Z-2.4495
G01 X42.9652 Y83.6313 Z-2.6343
G01 X43.1657 Y83.2616 Z-2.8192
G01 X43.3662 Y82.8919 Z-3.0041
G01 X43.5666 Y82.5500 Z-3.1750
G01 X43.6669
G01 X43.7671 Y82.6350 Z-3.1325
G01 X43.8674 Y82.7353 Z-3.0824
G01 X43.9676 Y82.8355 Z-3.0323
G01 X44.0678 Y82.9357 Z-2.9821
G01 X44.1681 Y83.0360 Z-2.9320
G01 X44.2683 Y83.1362 Z-2.8819
G01 X44.3686 Y83.2365 Z-2.8318
G01 X44.4688 Y83.3367 Z-2.7817
G01 X44.5690 Y83.4369 Z-2.7315
G01 X44.6693 Y83.5372 Z-2.6814
G01 X44.7695 Y83.6374 Z-2.6313
G01 X44.8698 Y83.7377 Z-2.5812
G01 X44.9700 Y83.8379 Z-2.5311
G01 X45.0702 Y83.9381 Z-2.4809
G01 X45.1705 Y84.0384 Z-2.4308
G01 X45.2707 Y84.1386 Z-2.3807
G01 X45.3710 Y84.2389 Z-2.3306
G01 X45.4712 Y84.3391 Z-2.2805
G01 X45.5714 Y84.4393 Z-2.2303
G01 X45.6717 Y84.5396 Z-2.1802
G01 X45.7719 Y84.6398 Z-2.1301
G01 X45.8722 Y84.7401 Z-2.0800
G01 X45.9724 Y84.8403 Z-2.0299
G01 X46.0726 Y84.9405 Z-1.9797
G01 X46.1729 Y85.0408 Z-1.9296
G01 X46.2731 Y85.1410 Z-1.8795
G01 X46.3734 Y85.2413 Z-1.8294
G01 X46.4736 Y85.3415 Z-1.7793
G01 X46.5738 Y85.4417 Z-1.7291
G01 X46.6741 Y85.5420 Z-1.6790
G01 X46.7743 Y85.6422 Z-1.6289
G01 X46.8745 Y85.7425 Z-1.5788
G01 X46.9748 Y85.8427 Z-1.5287
G01 X47.0750 Y85.9429 Z-1.4785
G01 X47.1753 Y86.0432 Z-1.4284
G01 X47.2755 Y86.1434 Z-1.3783
G01 X47.3757 Y86.2437 Z-1.3282
G01 X47.4760 Y86.3439 Z-1.2781
G01 X47.5762 Y86.4441 Z-1.2279
G01 X47.6765 Y86.5444 Z-1.1778
G01 X47.7767 Y86.6446 Z-1.1277
G01 X47.8769 Y86.7449 Z-1.0776
G01 X47.9772 Y86.8451 Z-1.0275
G01 X48.0774 Y86.9453 Z-0.9773
G01 X48.1777 Y87.0456 Z-0.9272
G01 X48.2779 Y87.1458 Z-0.8771
G01 X48.3781 Y87.2460 Z-0.8270
G01 X48.4784 Y87.3463 Z-0.7769
G01 X48.5786 Y87.4465 Z-0.7267
G01 X48.6789 Y87.5468 Z-0.6766
G01 X48.7791 Y87.6470 Z-0.6265
G01 X48.8793 Y87.7472 Z-0.5764
G01 X48.9796 Y87.8475 Z-0.5263
G01 X49.0798 Y87.9477 Z-0.4761
G01 X49.1801 Y88.0480 Z-0.4260
G01 X49.2803 Y88.1482 Z-0.3759
G01 X49.3805 Y88.2484 Z-0.3258
G01 X49.4808 Y88.3487 Z-0.2757
G01 X49.5810 Y88.4489 Z-0.2255
G01 X49.6813 Y88.5492 Z-0.1754
G01 X49.7815 Y88.6494 Z-0.1253
G01 X49.8817 Y88.7496 Z-0.0752
G01 X49.9820 Y88.8499 Z-0.0251
G01 X50.0321 Y88.9000 Z0.0000
G01 X49.9821 Y88.8500 Z-0.0250
G01 X49.8821 Y88.7500 Z-0.0750
G01 X49.7821 Y88.6500 Z-0.1250
G01 X49.6820 Y88.5499 Z-0.1750
G01 X49.4820 Y88.3499 Z-0.2750
G01 X49.2820 Y88.1499 Z-0.3751
G01 X49.0819 Y87.9499 Z-0.4751
G01 X48.8819 Y87.7498 Z-0.5751
G01 X48.6819 Y87.5498 Z-0.6751
G01 X48.4819 Y87.3498 Z-0.7751
G01 X48.2818 Y87.1497 Z-0.8751
G01 X48.0818 Y86.9497 Z-0.9752
G01 X47.8818 Y86.7497 Z-1.0752
G01 X47.6817 Y86.5496 Z-1.1752
G01 X47.4817 Y86.3496 Z-1.2752
G01 X47.2817 Y86.1496 Z-1.3752
G01 X47.0816 Y85.9495 Z-1.4752
G01 X46.8816 Y85.7495 Z-1.5752
G01 X46.6816 Y85.5495 Z-1.6753
G01 X46.4815 Y85.3494 Z-1.7753
G01 X46.2815 Y85.1494 Z-1.8753
G01 X46.0815 Y84.9494 Z-1.9753
G01 X45.8814 Y84.7493 Z-2.0753
G01 X45.6814 Y84.5493 Z-2.1753
G01 X45.4814 Y84.3493 Z-2.2754
G01 X45.2813 Y84.1493 Z-2.3754
G01 X45.0813 Y83.9492 Z-2.4754
G01 X44.8813 Y83.7492 Z-2.5754
G01 X44.6813 Y83.5492 Z-2.6754
G01 X44.4812 Y83.3491 Z-2.7754
G01 X44.2812 Y83.1491 Z-2.8755
G01 X44.0812 Y82.9491 Z-2.9755
G01 X43.8811 Y82.7490 Z-3.0755
G01 X43.6821 Y82.5490 Z-3.1750
G01 Y82.4490
G01 Y82.3490
G01 Y82.2489
G01 Y82.1489
G01 Y82.0489
G01 Y81.9489
G01 Y81.8489
G01 Y81.7489
G01 Y81.6489
G01 Y81.5488
G01 Y81.4488
G01 Y81.3488
G01 Y81.2488
G01 Y81.1488
G01 Y81.0488
G01 Y80.9487
G01 Y80.8487
G01 Y80.7487
G01 Y80.6487
G01 Y80.5487
G01 Y80.4487
G01 Y80.3486
G01 Y80.2486
G01 Y80.1486
G01 Y80.0486
G01 Y79.9486
G01 Y79.8486
G01 Y79.7486
G01 Y79.6485
G01 Y79.5485
G01 Y79.4485
G01 Y79.3485
G01 Y79.2485
G01 Y79.1485
G01 Y79.0484
G01 Y78.9484
G01 Y78.8484
G01 Y78.7484
G01 Y78.6484
G01 Y78.5484
G01 Y78.4483
G01 Y78.3483
G01 Y78.2483
G01 Y78.1483
G01 Y78.0483
G01 Y77.9483
G01 Y77.8483
G01 Y77.7482
G01 Y77.6482
G01 Y77.5482
G01 Y77.4482
G01 Y77.3482
G01 Y77.2482
G01 Y77.1481
G01 Y77.0481
G01 Y76.9481
G01 Y76.8481
G01 Y76.7481
G01 Y76.6481
G01 Y76.5480
G01 Y76.4480
G01 Y76.3480
G01 Y76.2480
G01 Y76.1480
G01 Y76.0480
G01 Y75.9480
G01 Y75.8479
G01 Y75.7479
G01 Y75.6479
G01 Y75.5479
G01 Y75.4479
G01 Y75.3479
G01 Y75.2478
G01 Y75.1478
G01 Y75.0478
G01 Y74.9478
G01 Y74.8478
G01 Y74.7478
G01 Y74.6477
G01 Y74.5477
G01 Y74.4477
G01 Y74.3477
G01 Y74.2477
G01 Y74.1477
G01 Y74.0476
G01 Y73.9476
G01 Y73.8476
G01 Y73.7476
G01 Y73.6476
G01 Y73.5476
G01 Y73.4476
G01 Y73.3475
G01 Y73.2475
G01 Y73.1475
G01 Y73.0475
G01 Y72.9475
G01 Y72.8475
G01 Y72.7474
G01 Y72.6474
G01 Y72.5474
G01 Y72.4474
G01 Y72.3474
G01 Y72.2474
G01 Y72.1473
G01 Y72.0473
G01 Y71.9473
G01 Y71.8473
G01 Y71.7473
G01 Y71.6473
G01 Y71.5473
G01 Y71.4472
G01 Y71.3472
G01 Y71.2472
G01 Y71.1472
G01 Y71.0472
G01 Y70.9472
G01 Y70.8471
G01 Y70.7471
G01 Y70.6471
G01 Y70.5471
G01 Y70.4471
G01 Y70.3471
G01 Y70.2470
G01 Y70.1470
G01 Y70.0470
G01 Y69.9470
G01 Y69.8470
G01 Y69.7470
G01 Y69.6470
G01 Y69.5469
G01 Y69.4469
G01 Y69.3469
G01 Y69.2469
G01 Y69.1469
G01 Y69.0469
G01 Y68.9468
G01 Y68.8468
G01 Y68.7468
G01 Y68.6468
G01 Y68.5468
G01 Y68.4468
G01 Y68.3467
G01 Y68.2467
G01 Y68.1467
G01 Y68.0467
G01 Y67.9467
G01 Y67.8467
G01 Y67.7467
G01 Y67.6466
G01 Y67.5466
G01 Y67.4466
G01 Y67.3466
G01 Y67.2466
G01 Y67.1466
G01 Y67.0465
G01 Y66.9465
G01 Y66.8465
G01 Y66.7465
G01 Y66.6465
G01 Y66.5465
G01 Y66.4464
G01 Y66.3464
G01 Y66.2464
G01 Y66.1464
G01 Y66.0464
G01 Y65.9464
G01 Y65.8464
G01 Y65.7463
G01 Y65.6463
G01 Y65.5463
G01 Y65.4463
G01 Y65.3463
G01 Y65.2463
G01 Y65.1462
G01 Y65.0462
G01 Y64.9462
G01 Y64.8462
G01 Y64.7462
G01 Y64.6462
G01 Y64.5461
G01 Y64.4461
G01 Y64.3461
G01 Y64.2461
G01 Y64.1461
G01 Y64.0461
G01 Y63.9460
G01 Y63.8460
G01 Y63.7460
G01 Y63.6460
G01 Y63.5460
G01 Y63.4460
G01 Y63.3460
G01 Y63.2459
G01 Y63.1459
G01 Y63.0459
G01 Y62.9459
G01 Y62.8459
G01 Y62.7459
G01 Y62.6458
G01 Y62.5458
G01 Y62.4458
G01 Y62.3458
G01 Y62.2458
G01 Y62.1458
G01 Y62.0457
G01 Y61.9457
G01 Y61.8457
G01 Y61.7457
G01 Y61.6457
G01 Y61.5457
G01 Y61.4457
G01 Y61.3456
G01 Y61.2456
G01 Y61.1456
G01 Y61.0456
G01 Y60.9456
G01 Y60.8456
G01 Y60.7455
G01 Y60.6455
G01 Y60.5455
G01 Y60.4455
G01 Y60.3455
G01 Y60.2455
G01 Y60.1454
G01 Y60.0454
G01 Y59.9454
G01 Y59.8454
G01 Y59.7454
G01 Y59.6454
G01 Y59.5454
G01 Y59.4453
G01 Y59.3453
G01 Y59.2453
G01 Y59.1453
G01 Y59.0453
G01 Y58.9453
G01 Y58.8452
G01 Y58.7452
G01 Y58.6452
G01 Y58.5452
G01 Y58.4452
G01 Y58.3452
G01 Y58.2451
G01 Y58.1451
G01 Y58.0451
G01 Y57.9451
G01 Y57.8451
G01 Y57.7451
G01 Y57.6451
G01 Y57.5450
G01 Y57.4450
G01 Y57.3450
G01 Y57.2450
G01 Y57.1450
G01 Y57.0450
G01 Y56.9449
G01 Y56.8449
G01 Y56.7449
G01 Y56.6449
G01 Y56.5449
G01 Y56.4449
G01 Y56.3448
G01 Y56.2448
G01 Y56.1448
G01 Y56.0448
G01 Y55.9448
G01 Y55.8448
G01 Y55.7447
G01 Y55.6447
G01 Y55.5447
G01 Y55.4447
G01 Y55.3447
G01 Y55.2447
G01 Y55.1447
G01 Y55.0446
G01 Y54.9446
G01 Y54.8446
G01 Y54.7446
G01 Y54.6446
G01 Y54.5446
G01 Y54.4445
G01 Y54.3445
G01 Y54.2445
G01 Y54.1445
G01 Y54.0445
G01 Y53.9445
G01 Y53.8444
G01 Y53.7444
G01 Y53.6444
G01 Y53.5444
G01 Y53.4444
G01 Y53.3444
G01 Y53.2444
G01 Y53.1443
G01 Y53.0443
G01 Y52.9443
G01 Y52.8443
G01 Y52.7443
G01 Y52.6443
G01 Y52.5442
G01 Y52.4442
G01 Y52.3442
G01 Y52.2442
G01 Y52.1442
G01 Y52.0442
G01 Y51.9441
G01 Y51.8441
G01 Y51.7441
G01 Y51.6441
G01 Y51.5441
G01 Y51.4441
G01 Y51.3441
G01 Y51.2440
G01 Y51.1440
G01 Y51.0440
G01 Y50.9440
G01 Y50.8440
G01 Y50.7440
G01 Y50.6439
G01 Y50.5439
G01 Y50.4439
G01 Y50.3439
G01 Y50.2439
G01 Y50.1439
G01 Y50.0438
G01 Y49.9438
G01 Y49.8438
G01 Y49.7438
G01 Y49.6438
G01 Y49.5438
G01 Y49.4438
G01 Y49.3437
G01 Y49.2437
G01 Y49.1437
G01 Y49.0437
G01 Y48.9437
G01 Y48.8437
G01 Y48.7436
G01 Y48.6436
G01 Y48.5436
G01 Y48.4436
G01 Y48.3436
G01 Y48.2436
G01 Y48.1435
G01 Y48.0435
G01 Y47.9435
G01 Y47.8435
G01 Y47.7435
G01 Y47.6435
G01 Y47.5434
G01 Y47.4434
G01 Y47.3434
G01 Y47.2434
G01 Y47.1434
G01 Y47.0434
G01 Y46.9434
G01 Y46.8433
G01 Y46.7433
G01 Y46.6433
G01 Y46.5433
G01 Y46.4433
G01 Y46.3433
G01 Y46.2432
G01 Y46.1432
G01 Y46.0432
G01 Y45.9432
G01 Y45.8432
G01 Y45.7432
G01 Y45.6431
G01 Y45.5431
G01 Y45.4431
G01 Y45.3431
G01 Y45.2431
G01 Y45.1431
G01 Y45.0431
G01 Y44.9430
G01 Y44.8430
G01 Y44.7430
G01 Y44.6430
G01 Y44.5430
G01 Y44.4430
G01 Y44.3429
G01 Y44.2429
G01 Y44.1429
G01 Y44.0429
G01 Y43.9429
G01 Y43.8429
G01 Y43.7428
G01 Y43.6428
G01 Y43.5428
G01 Y43.4428
G01 Y43.3428
G01 Y43.2428
G01 Y43.1428
G01 Y43.0427
G01 Y42.9427
G01 Y42.8427
G01 Y42.7427
G01 Y42.6427
G01 Y42.5427
G01 Y42.4426
G01 Y42.3426
G01 Y42.2426
G01 Y42.1426
G01 Y42.0426
G01 Y41.9426
G01 Y41.8425
G01 Y41.7425
G01 Y41.6425
G01 Y41.5425
G01 Y41.4425
G01 Y41.3425
G01 Y41.2425
G01 Y41.1424
G01 Y41.0424
G01 Y40.9424
G01 Y40.8424
G01 Y40.7424
G01 Y40.6424
G01 Y40.5423
G01 Y40.4423
G01 Y40.3423
G01 Y40.2423
G01 Y40.1423
G01 Y40.0423
G01 Y39.9422
G01 Y39.8422
G01 Y39.7422
G01 Y39.6422
G01 Y39.5422
G01 Y39.4422
G01 Y39.3422
G01 Y39.2421
G01 Y39.1421
G01 Y39.0421
G01 Y38.9421
G01 Y38.8421
G01 Y38.7421
G01 Y38.6420
G01 Y38.5420
G01 Y38.4420
G01 Y38.3420
G01 Y38.2420
G01 Y38.1420
G01 Y38.0419
G01 Y37.9419
G01 Y37.8419
G01 Y37.7419
G01 Y37.6419
G01 Y37.5419
G01 Y37.4418
G01 Y37.3418
G01 Y37.2418
G01 Y37.1418
G01 Y37.0418
G01 Y36.9418
G01 Y36.8418
G01 Y36.7417
G01 Y36.6417
G01 Y36.5417
G01 Y36.4417
G01 Y36.3417
G01 Y36.2417
G01 Y36.1416
G01 Y36.0416
G01 Y35.9416
G01 Y35.8416
G01 Y35.7416
G01 Y35.6416
G01 Y35.5415
G01 Y35.4415
G01 Y35.3415
G01 Y35.2415
G01 Y35.1415
G01 Y35.0415
G01 Y34.9415
G01 Y34.8414
G01 Y34.7414
G01 Y34.6414
G01 Y34.5414
G01 Y34.4414
G01 Y34.3414
G01 Y34.2413
G01 Y34.1413
G01 Y34.0413
G01 Y33.9413
G01 Y33.8413
G01 Y33.7413
G01 Y33.6412
G01 Y33.5412
G01 Y33.4412
G01 Y33.3412
G01 Y33.2412
G01 Y33.1412
G01 Y33.0412
G01 Y32.9411
G01 Y32.8411
G01 Y32.7411
G01 Y32.6411
G01 Y32.5411
G01 Y32.4411
G01 Y32.3410
G01 Y32.2410
G01 Y32.1410
G01 Y32.0410
G01 Y31.9410
G01 Y31.8410
G01 Y31.7409
G01 Y31.6409
G01 Y31.5409
G01 Y31.4409
G01 Y31.3409
G01 Y31.2409
G01 Y31.1409
G01 Y31.0408
G01 Y30.9408
G01 Y30.8408
G01 Y30.7408
G01 Y30.6408
G01 Y30.5408
G01 Y30.4407
G01 Y30.3407
G01 Y30.2407
G01 Y30.1407
G01 Y30.0407
G01 Y29.9407
G01 Y29.8406
G01 Y29.7406
G01 Y29.6406
G01 Y29.5406
G01 Y29.4406
G01 Y29.3406
G01 Y29.2405
G01 Y29.1405
G01 Y29.0405
G01 Y28.9405
G01 Y28.8405
G01 Y28.7405
G01 Y28.6405
G01 Y28.5404
G01 Y28.4404
G01 Y28.3404
G01 Y28.2404
G01 Y28.1404
G01 Y28.0404
G01 Y27.9403
G01 Y27.8403
G01 Y27.7403
G01 Y27.6403
G01 Y27.5403
G01 Y27.4403
G01 Y27.3402
G01 Y27.2902
G01 X43.6823 Y27.2348
G01 X43.6831 Y27.1794
G01 X43.6843 Y27.1240
G01 X43.6860 Y27.0686
G01 X43.6881 Y27.0133
G01 X43.6908 Y26.9579
G01 X43.6939 Y26.9026
G01 X43.6976 Y26.8473
G01 X43.7017 Y26.7920
G01 X43.7063 Y26.7368
G01 X43.7113 Y26.6816
G01 X43.7169 Y26.6265
G01 X43.7229 Y26.5714
G01 X43.7294 Y26.5164
G01 X43.7364 Y26.4614
G01 X43.7439 Y26.4065
G01 X43.7518 Y26.3517
G01 X43.7603 Y26.2969
G01 X43.7692 Y26.2422
G01 X43.7786 Y26.1876
G01 X43.7884 Y26.1330
G01 X43.7988 Y26.0786
G01 X43.8096 Y26.0243
G01 X43.8209 Y25.9700
G01 X43.8326 Y25.9158
G01 X43.8448 Y25.8618
G01 X43.8575 Y25.8079
G01 X43.8707 Y25.7540
G01 X43.8844 Y25.7003
G01 X43.8985 Y25.6467
G01 X43.9130 Y25.5933
G01 X43.9281 Y25.5399
G01 Z-6.3500
G01 X43.9130 Y25.5933
G01 X43.8985 Y25.6467
G01 X43.8844 Y25.7003
G01 X43.8707 Y25.7540
G01 X43.8575 Y25.8079
G01 X43.8448 Y25.8618
G01 X43.8326 Y25.9158
G01 X43.8209 Y25.9700
G01 X43.8096 Y26.0243
G01 X43.7988 Y26.0786
G01 X43.7884 Y26.1330
G01 X43.7786 Y26.1876
G01 X43.7692 Y26.2422
G01 X43.7603 Y26.2969
G01 X43.7518 Y26.3517
G01 X43.7439 Y26.4065
G01 X43.7364 Y26.4614
G01 X43.7294 Y26.5164
G01 X43.7229 Y26.5714
G01 X43.7169 Y26.6265
G01 X43.7113 Y26.6816
G01 X43.7063 Y26.7368
G01 X43.7017 Y26.7920
G01 X43.6976 Y26.8473
G01 X43.6939 Y26.9026
G01 X43.6908 Y26.9579
G01 X43.6881 Y27.0133
G01 X43.6860 Y27.0686
G01 X43.6843 Y27.1240
G01 X43.6831 Y27.1794
G01 X43.6823 Y27.2348
G01 X43.6821 Y27.2902
G01 Y27.3402
G01 Y27.4403
G01 Y27.5403
G01 Y27.6403
G01 Y27.7403
G01 Y27.8403
G01 Y27.9403
G01 Y28.0404
G01 Y28.1404
G01 Y28.2404
G01 Y28.3404
G01 Y28.4404
G01 Y28.5404
G01 Y28.6405
G01 Y28.7405
G01 Y28.8405
G01 Y28.9405
G01 Y29.0405
G01 Y29.1405
G01 Y29.2405
G01 Y29.3406
G01 Y29.4406
G01 Y29.5406
G01 Y29.6406
G01 Y29.7406
G01 Y29.8406
G01 Y29.9407
G01 Y30.0407
G01 Y30.1407
G01 Y30.2407
G01 Y30.3407
G01 Y30.4407
G01 Y30.5408
G01 Y30.6408
G01 Y30.7408
G01 Y30.8408
G01 Y30.9408
G01 Y31.0408
G01 Y31.1409
G01 Y31.2409
G01 Y31.3409
G01 Y31.4409
G01 Y31.5409
G01 Y31.6409
G01 Y31.7409
G01 Y31.8410
G01 Y31.9410
G01 Y32.0410
G01 Y32.1410
G01 Y32.2410
G01 Y32.3410
G01 Y32.4411
G01 Y32.5411
G01 Y32.6411
G01 Y32.7411
G01 Y32.8411
G01 Y32.9411
G01 Y33.0412
G01 Y33.1412
G01 Y33.2412
G01 Y33.3412
G01 Y33.4412
G01 Y33.5412
G01 Y33.6412
G01 Y33.7413
G01 Y33.8413
G01 Y33.9413
G01 Y34.0413
G01 Y34.1413
G01 Y34.2413
G01 Y34.3414
G01 Y34.4414
G01 Y34.5414
G01 Y34.6414
G01 Y34.7414
G01 Y34.8414
G01 Y34.9415
G01 Y35.0415
G01 Y35.1415
G01 Y35.2415
G01 Y35.3415
G01 Y35.4415
G01 Y35.5415
G01 Y35.6416
G01 Y35.7416
G01 Y35.8416
G01 Y35.9416
G01 Y36.0416
G01 Y36.1416
G01 Y36.2417
G01 Y36.3417
G01 Y36.4417
G01 Y36.5417
G01 Y36.6417
G01 Y36.7417
G01 Y36.8418
G01 Y36.9418
G01 Y37.0418
G01 Y37.1418
G01 Y37.2418
G01 Y37.3418
G01 Y37.4418
G01 Y37.5419
G01 Y37.6419
G01 Y37.7419
G01 Y37.8419
G01 Y37.9419
G01 Y38.0419
G01 Y38.1420
G01 Y38.2420
G01 Y38.3420
G01 Y38.4420
G01 Y38.5420
G01 Y38.6420
G01 Y38.7421
G01 Y38.8421
G01 Y38.9421
G01 Y39.0421
G01 Y39.1421
G01 Y39.2421
G01 Y39.3422
G01 Y39.4422
G01 Y39.5422
G01 Y39.6422
G01 Y39.7422
G01 Y39.8422
G01 Y39.9422
G01 Y40.0423
G01 Y40.1423
G01 Y40.2423
G01 Y40.3423
G01 Y40.4423
G01 Y40.5423
G01 Y40.6424
G01 Y40.7424
G01 Y40.8424
G01 Y40.9424
G01 Y41.0424
G01 Y41.1424
G01 Y41.2425
G01 Y41.3425
G01 Y41.4425
G01 Y41.5425
G01 Y41.6425
G01 Y41.7425
G01 Y41.8425
G01 Y41.9426
G01 Y42.0426
G01 Y42.1426
G01 Y42.2426
G01 Y42.3426
G01 Y42.4426
G01 Y42.5427
G01 Y42.6427
G01 Y42.7427
G01 Y42.8427
G01 Y42.9427
G01 Y43.0427
G01 Y43.1428
G01 Y43.2428
G01 Y43.3428
G01 Y43.4428
G01 Y43.5428
G01 Y43.6428
G01 Y43.7428
G01 Y43.8429
G01 Y43.9429
G01 Y44.0429
G01 Y44.1429
G01 Y44.2429
G01 Y44.3429
G01 Y44.4430
G01 Y44.5430
G01 Y44.6430
G01 Y44.7430
G01 Y44.8430
G01 Y44.9430
G01 Y45.0431
G01 Y45.1431
G01 Y45.2431
G01 Y45.3431
G01 Y45.4431
G01 Y45.5431
G01 Y45.6431
G01 Y45.7432
G01 Y45.8432
G01 Y45.9432
G01 Y46.0432
G01 Y46.1432
G01 Y46.2432
G01 Y46.3433
G01 Y46.4433
G01 Y46.5433
G01 Y46.6433
G01 Y46.7433
G01 Y46.8433
G01 Y46.9434
G01 Y47.0434
G01 Y47.1434
G01 Y47.2434
G01 Y47.3434
G01 Y47.4434
G01 Y47.5434
G01 Y47.6435
G01 Y47.7435
G01 Y47.8435
G01 Y47.9435
G01 Y48.0435
G01 Y48.1435
G01 Y48.2436
G01 Y48.3436
G01 Y48.4436
G01 Y48.5436
G01 Y48.6436
G01 Y48.7436
G01 Y48.8437
G01 Y48.9437
G01 Y49.0437
G01 Y49.1437
G01 Y49.2437
G01 Y49.3437
G01 Y49.4438
G01 Y49.5438
G01 Y49.6438
G01 Y49.7438
G01 Y49.8438
G01 Y49.9438
G01 Y50.0438
G01 Y50.1439
G01 Y50.2439
G01 Y50.3439
G01 Y50.4439
G01 Y50.5439
G01 Y50.6439
G01 Y50.7440
G01 Y50.8440
G01 Y50.9440
G01 Y51.0440
G01 Y51.1440
G01 Y51.2440
G01 Y51.3441
G01 Y51.4441
G01 Y51.5441
G01 Y51.6441
G01 Y51.7441
G01 Y51.8441
G01 Y51.9441
G01 Y52.0442
G01 Y52.1442
G01 Y52.2442
G01 Y52.3442
G01 Y52.4442
G01 Y52.5442
G01 Y52.6443
G01 Y52.7443
G01 Y52.8443
G01 Y52.9443
G01 Y53.0443
G01 Y53.1443
G01 Y53.2444
G01 Y53.3444
G01 Y53.4444
G01 Y53.5444
G01 Y53.6444
G01 Y53.7444
G01 Y53.8444
G01 Y53.9445
G01 Y54.0445
G01 Y54.1445
G01 Y54.2445
G01 Y54.3445
G01 Y54.4445
G01 Y54.5446
G01 Y54.6446
G01 Y54.7446
G01 Y54.8446
G01 Y54.9446
G01 Y55.0446
G01 Y55.1447
G01 Y55.2447
G01 Y55.3447
G01 Y55.4447
G01 Y55.5447
G01 Y55.6447
G01 Y55.7447
G01 Y55.8448
G01 Y55.9448
G01 Y56.0448
G01 Y56.1448
G01 Y56.2448
G01 Y56.3448
G01 Y56.4449
G01 Y56.5449
G01 Y56.6449
G01 Y56.7449
G01 Y56.8449
G01 Y56.9449
G01 Y57.0450
G01 Y57.1450
G01 Y57.2450
G01 Y57.3450
G01 Y57.4450
G01 Y57.5450
G01 Y57.6451
G01 Y57.7451
G01 Y57.8451
G01 Y57.9451
G01 Y58.0451
G01 Y58.1451
G01 Y58.2451
G01 Y58.3452
G01 Y58.4452
G01 Y58.5452
G01 Y58.6452
G01 Y58.7452
G01 Y58.8452
G01 Y58.9453
G01 Y59.0453
G01 Y59.1453
G01 Y59.2453
G01 Y59.3453
G01 Y59.4453
G01 Y59.5454
G01 Y59.6454
G01 Y59.7454
G01 Y59.8454
G01 Y59.9454
G01 Y60.0454
G01 Y60.1454
G01 Y60.2455
G01 Y60.3455
G01 Y60.4455
G01 Y60.5455
G01 Y60.6455
G01 Y60.7455
G01 Y60.8456
G01 Y60.9456
G01 Y61.0456
G01 Y61.1456
G01 Y61.2456
G01 Y61.3456
G01 Y61.4457
G01 Y61.5457
G01 Y61.6457
G01 Y61.7457
G01 Y61.8457
G01 Y61.9457
G01 Y62.0457
G01 Y62.1458
G01 Y62.2458
G01 Y62.3458
G01 Y62.4458
G01 Y62.5458
G01 Y62.6458
G01 Y62.7459
G01 Y62.8459
G01 Y62.9459
G01 Y63.0459
G01 Y63.1459
G01 Y63.2459
G01 Y63.3460
G01 Y63.4460
G01 Y63.5460
G01 Y63.6460
G01 Y63.7460
G01 Y63.8460
G01 Y63.9460
G01 Y64.0461
G01 Y64.1461
G01 Y64.2461
G01 Y64.3461
G01 Y64.4461
G01 Y64.5461
G01 Y64.6462
G01 Y64.7462
G01 Y64.8462
G01 Y64.9462
G01 Y65.0462
G01 Y65.1462
G01 Y65.2463
G01 Y65.3463
G01 Y65.4463
G01 Y65.5463
G01 Y65.6463
G01 Y65.7463
G01 Y65.8464
G01 Y65.9464
G01 Y66.0464
G01 Y66.1464
G01 Y66.2464
G01 Y66.3464
G01 Y66.4464
G01 Y66.5465
G01 Y66.6465
G01 Y66.7465
G01 Y66.8465
G01 Y66.9465
G01 Y67.0465
G01 Y67.1466
G01 Y67.2466
G01 Y67.3466
G01 Y67.4466
G01 Y67.5466
G01 Y67.6466
G01 Y67.7467
G01 Y67.8467
G01 Y67.9467
G01 Y68.0467
G01 Y68.1467
G01 Y68.2467
G01 Y68.3467
G01 Y68.4468
G01 Y68.5468
G01 Y68.6468
G01 Y68.7468
G01 Y68.8468
G01 Y68.9468
G01 Y69.0469
G01 Y69.1469
G01 Y69.2469
G01 Y69.3469
G01 Y69.4469
G01 Y69.5469
G01 Y69.6470
G01 Y69.7470
G01 Y69.8470
G01 Y69.9470
G01 Y70.0470
G01 Y70.1470
G01 Y70.2470
G01 Y70.3471
G01 Y70.4471
G01 Y70.5471
G01 Y70.6471
G01 Y70.7471
G01 Y70.8471
G01 Y70.9472
G01 Y71.0472
G01 Y71.1472
G01 Y71.2472
G01 Y71.3472
G01 Y71.4472
G01 Y71.5473
G01 Y71.6473
G01 Y71.7473
G01 Y71.8473
G01 Y71.9473
G01 Y72.0473
G01 Y72.1473
G01 Y72.2474
G01 Y72.3474
G01 Y72.4474
G01 Y72.5474
G01 Y72.6474
G01 Y72.7474
G01 Y72.8475
G01 Y72.9475
G01 Y73.0475
G01 Y73.1475
G01 Y73.2475
G01 Y73.3475
G01 Y73.4476
G01 Y73.5476
G01 Y73.6476
G01 Y73.7476
G01 Y73.8476
G01 Y73.9476
G01 Y74.0476
G01 Y74.1477
G01 Y74.2477
G01 Y74.3477
G01 Y74.4477
G01 Y74.5477
G01 Y74.6477
G01 Y74.7478
G01 Y74.8478
G01 Y74.9478
G01 Y75.0478
G01 Y75.1478
G01 Y75.2478
G01 Y75.3479
G01 Y75.4479
G01 Y75.5479
G01 Y75.6479
G01 Y75.7479
G01 Y75.8479
G01 Y75.9480
G01 Y76.0480
G01 Y76.1480
G01 Y76.2480
G01 Y76.3480
G01 Y76.4480
G01 Y76.5480
G01 Y76.6481
G01 Y76.7481
G01 Y76.8481
G01 Y76.9481
G01 Y77.0481
G01 Y77.1481
G01 Y77.2482
G01 Y77.3482
G01 Y77.4482
G01 Y77.5482
G01 Y77.6482
G01 Y77.7482
G01 Y77.8483
G01 Y77.9483
G01 Y78.0483
G01 Y78.1483
G01 Y78.2483
G01 Y78.3483
G01 Y78.4483
G01 Y78.5484
G01 Y78.6484
G01 Y78.7484
G01 Y78.8484
G01 Y78.9484
G01 Y79.0484
G01 Y79.1485
G01 Y79.2485
G01 Y79.3485
G01 Y79.4485
G01 Y79.5485
G01 Y79.6485
G01 Y79.7486
G01 Y79.8486
G01 Y79.9486
G01 Y80.0486
G01 Y80.1486
G01 Y80.2486
G01 Y80.3486
G01 Y80.4487
G01 Y80.5487
G01 Y80.6487
G01 Y80.7487
G01 Y80.8487
G01 Y80.9487
G01 Y81.0488
G01 Y81.1488
G01 Y81.2488
G01 Y81.3488
G01 Y81.4488
G01 Y81.5488
G01 Y81.6489
G01 Y81.7489
G01 Y81.8489
G01 Y81.9489
G01 Y82.0489
G01 Y82.1489
G01 Y82.2489
G01 Y82.3490
G01 Y82.4490
G01 Y82.5490
G01 X43.8811 Y82.7490 Z-6.1510
G01 X44.0812 Y82.9491 Z-5.9509
G01 X44.2812 Y83.1491 Z-5.7509
G01 X44.4812 Y83.3491 Z-5.5509
G01 X44.6813 Y83.5492 Z-5.3508
G01 X44.8813 Y83.7492 Z-5.1508
G01 X45.0813 Y83.9492 Z-4.9508
G01 X45.2813 Y84.1493 Z-4.7508
G01 X45.4814 Y84.3493 Z-4.5507
G01 X45.6814 Y84.5493 Z-4.3507
G01 X45.8814 Y84.7493 Z-4.1507
G01 X46.0815 Y84.9494 Z-3.9506
G01 X46.2815 Y85.1494 Z-3.7506
G01 X46.4815 Y85.3494 Z-3.5506
G01 X46.6816 Y85.5495 Z-3.3505
G01 X46.8816 Y85.7495 Z-3.1505
G01 X47.0816 Y85.9495 Z-2.9505
G01 X47.2817 Y86.1496 Z-2.7504
G01 X47.4817 Y86.3496 Z-2.5504
G01 X47.6817 Y86.5496 Z-2.3504
G01 X47.8818 Y86.7497 Z-2.1503
G01 X48.0818 Y86.9497 Z-1.9503
G01 X48.2818 Y87.1497 Z-1.7503
G01 X48.4819 Y87.3498 Z-1.5502
G01 X48.6819 Y87.5498 Z-1.3502
G01 X48.8819 Y87.7498 Z-1.1502
G01 X49.0819 Y87.9499 Z-0.9502
G01 X49.2820 Y88.1499 Z-0.7501
G01 X49.4820 Y88.3499 Z-0.5501
G01 X49.6820 Y88.5499 Z-0.3501
G01 X49.7821 Y88.6500 Z-0.2500
G01 X49.8821 Y88.7500 Z-0.1500
G01 X49.9821 Y88.8500 Z-0.0500
G01 X50.0321 Y88.9000 Z0.0000
G01 X49.9820 Y88.8499 Z-0.0501
G01 X49.8817 Y88.7496 Z-0.1504
G01 X49.7815 Y88.6494 Z-0.2506
G01 X49.6813 Y88.5492 Z-0.3508
G01 X49.5810 Y88.4489 Z-0.4511
G01 X49.4808 Y88.3487 Z-0.5513
G01 X49.3805 Y88.2484 Z-0.6516
G01 X49.2803 Y88.1482 Z-0.7518
G01 X49.1801 Y88.0480 Z-0.8520
G01 X49.0798 Y87.9477 Z-0.9523
G01 X48.9796 Y87.8475 Z-1.0525
G01 X48.8793 Y87.7472 Z-1.1528
G01 X48.7791 Y87.6470 Z-1.2530
G01 X48.6789 Y87.5468 Z-1.3532
G01 X48.5786 Y87.4465 Z-1.4535
G01 X48.4784 Y87.3463 Z-1.5537
G01 X48.3781 Y87.2460 Z-1.6540
G01 X48.2779 Y87.1458 Z-1.7542
G01 X48.1777 Y87.0456 Z-1.8544
G01 X48.0774 Y86.9453 Z-1.9547
G01 X47.9772 Y86.8451 Z-2.0549
G01 X47.8769 Y86.7449 Z-2.1552
G01 X47.7767 Y86.6446 Z-2.2554
G01 X47.6765 Y86.5444 Z-2.3556
G01 X47.5762 Y86.4441 Z-2.4559
G01 X47.4760 Y86.3439 Z-2.5561
G01 X47.3757 Y86.2437 Z-2.6564
G01 X47.2755 Y86.1434 Z-2.7566
G01 X47.1753 Y86.0432 Z-2.8568
G01 X47.0750 Y85.9429 Z-2.9571
G01 X46.9748 Y85.8427 Z-3.0573
G01 X46.8745 Y85.7425 Z-3.1575
G01 X46.7743 Y85.6422 Z-3.2578
G01 X46.6741 Y85.5420 Z-3.3580
G01 X46.5738 Y85.4417 Z-3.4583
G01 X46.4736 Y85.3415 Z-3.5585
G01 X46.3734 Y85.2413 Z-3.6587
G01 X46.2731 Y85.1410 Z-3.7590
G01 X46.1729 Y85.0408 Z-3.8592
G01 X46.0726 Y84.9405 Z-3.9595
G01 X45.9724 Y84.8403 Z-4.0597
G01 X45.8722 Y84.7401 Z-4.1599
G01 X45.7719 Y84.6398 Z-4.2602
G01 X45.6717 Y84.5396 Z-4.3604
G01 X45.5714 Y84.4393 Z-4.4607
G01 X45.4712 Y84.3391 Z-4.5609
G01 X45.3710 Y84.2389 Z-4.6611
G01 X45.2707 Y84.1386 Z-4.7614
G01 X45.1705 Y84.0384 Z-4.8616
G01 X45.0702 Y83.9381 Z-4.9619
G01 X44.9700 Y83.8379 Z-5.0621
G01 X44.8698 Y83.7377 Z-5.1623
G01 X44.7695 Y83.6374 Z-5.2626
G01 X44.6693 Y83.5372 Z-5.3628
G01 X44.5690 Y83.4369 Z-5.4631
G01 X44.4688 Y83.3367 Z-5.5633
G01 X44.3686 Y83.2365 Z-5.6635
G01 X44.2683 Y83.1362 Z-5.7638
G01 X44.1681 Y83.0360 Z-5.8640
G01 X44.0678 Y82.9357 Z-5.9643
G01 X43.9676 Y82.8355 Z-6.0645
G01 X43.8674 Y82.7353 Z-6.1647
G01 X43.7671 Y82.6350 Z-6.2650
G01 X43.6669 Y82.5500 Z-6.3500
G01 X43.5666
G01 X43.3662 Y82.8919 Z-6.0082
G01 X43.1657 Y83.2616 Z-5.6384
G01 X42.9652 Y83.6313 Z-5.2687
G01 X42.7647 Y84.0010 Z-4.8990
G01 X42.5642 Y84.3708 Z-4.5292
G01 X42.3638 Y84.7405 Z-4.1595
G01 X42.1633 Y85.1102 Z-3.7898
G01 X41.9628 Y85.4800 Z-3.4200
G01 X41.7623 Y85.8497 Z-3.0503
G01 X41.5618 Y86.2194 Z-2.6806
G01 X41.3614 Y86.5892 Z-2.3108
G01 X41.1609 Y86.9589 Z-1.9411
G01 X40.9604 Y87.3286 Z-1.5714
G01 X40.7599 Y87.6984 Z-1.2016
G01 X40.5594 Y88.0681 Z-0.8319
G01 X40.3590 Y88.4378 Z-0.4622
G01 X40.1585 Y88.8076 Z-0.0924
G01 X40.1084 Y88.9000 Z0.0000
G01 X40.1584 Y88.8078 Z-0.0922
G01 X40.2584 Y88.6233 Z-0.2767
G01 X40.3584 Y88.4388 Z-0.4612
G01 X40.4584 Y88.2544 Z-0.6456
G01 X40.5585 Y88.0699 Z-0.8301
G01 X40.6585 Y87.8855 Z-1.0145
G01 X40.7585 Y87.7010 Z-1.1990
G01 X40.8585 Y87.5165 Z-1.3835
G01 X40.9585 Y87.3321 Z-1.5679
G01 X41.0586 Y87.1476 Z-1.7524
G01 X41.1586 Y86.9632 Z-1.9368
G01 X41.2586 Y86.7787 Z-2.1213
G01 X41.3586 Y86.5942 Z-2.3058
G01 X41.4586 Y86.4098 Z-2.4902
G01 X41.5587 Y86.2253 Z-2.6747
G01 X41.6587 Y86.0408 Z-2.8592
G01 X41.7587 Y85.8564 Z-3.0436
G01 X41.8587 Y85.6719 Z-3.2281
G01 X41.9587 Y85.4875 Z-3.4125
G01 X42.0588 Y85.3030 Z-3.5970
G01 X42.1588 Y85.1185 Z-3.7815
G01 X42.2588 Y84.9341 Z-3.9659
G01 X42.3588 Y84.7496 Z-4.1504
G01 X42.4588 Y84.5652 Z-4.3348
G01 X42.5589 Y84.3807 Z-4.5193
G01 X42.6589 Y84.1962 Z-4.7038
G01 X42.7589 Y84.0118 Z-4.8882
G01 X42.8589 Y83.8273 Z-5.0727
G01 X42.9589 Y83.6428 Z-5.2572
G01 X43.0590 Y83.4584 Z-5.4416
G01 X43.1590 Y83.2739 Z-5.6261
G01 X43.2590 Y83.0895 Z-5.8105
G01 X43.3590 Y82.9050 Z-5.9950
G01 X43.4591 Y82.7205 Z-6.1795
G01 X43.5474 Y82.5437 Z-6.3500
G01 X43.4928 Y82.4599
G01 X43.4383 Y82.3760
G01 X43.3837 Y82.2922
G01 X43.3291 Y82.2084
G01 X43.2746 Y82.1246
G01 X43.2200 Y82.0407
G01 X43.1654 Y81.9569
G01 X43.1108 Y81.8731
G01 X43.0563 Y81.7893
G01 X43.0017 Y81.7054
G01 X42.9471 Y81.6216
G01 X42.8926 Y81.5378
G01 X42.8380 Y81.4540
G01 X42.7834 Y81.3702
G01 X42.7289 Y81.2863
G01 X42.6743 Y81.2025
G01 X42.6197 Y81.1187
G01 X42.5652 Y81.0349
G01 X42.5106 Y80.9510
G01 X42.4560 Y80.8672
G01 X42.4014 Y80.7834
G01 X42.3469 Y80.6996
G01 X42.2923 Y80.6158
G01 X42.2377 Y80.5319
G01 X42.1832 Y80.4481
G01 X42.1286 Y80.3643
G01 X42.0740 Y80.2805
G01 X42.0195 Y80.1966
G01 X41.9649 Y80.1128
G01 X41.9103 Y80.0290
G01 X41.8558 Y79.9452
G01 X41.8012 Y79.8613
G01 X41.7466 Y79.7775
G01 X41.6920 Y79.6937
G01 X41.6375 Y79.6099
G01 X41.5829 Y79.5261
G01 X41.5283 Y79.4422
G01 X41.4738 Y79.3584
G01 X41.4192 Y79.2746
G01 X41.3646 Y79.1908
G01 X41.3101 Y79.1069
G01 X41.2555 Y79.0231
G01 X41.2009 Y78.9393
G01 X41.1464 Y78.8555
G01 X41.0918 Y78.7716
G01 X41.0372 Y78.6878
G01 X40.9826 Y78.6040
G01 X40.9281 Y78.5202
G01 X40.8735 Y78.4364
G01 X40.8189 Y78.3525
G01 X40.7644 Y78.2687
G01 X40.7098 Y78.1849
G01 X40.6552 Y78.1011
G01 X40.6007 Y78.0172
G01 X40.5461 Y77.9334
G01 X40.4915 Y77.8496
G01 X40.4370 Y77.7658
G01 X40.3824 Y77.6820
G01 X40.3278 Y77.5981
G01 X40.0147 Y77.5633 Z-6.1066
G01 X39.6712 Y77.5482 Z-5.8270
G01 X39.3360 Y77.5277 Z-5.5572
G01 X39.0091 Y77.5019 Z-5.2973
G01 X38.6905 Y77.4706 Z-5.0474
G01 X38.3802 Y77.4339 Z-4.8074
G01 X38.0782 Y77.3918 Z-4.5773
G01 X37.7845 Y77.3443 Z-4.3570
G01 X37.4991 Y77.2914 Z-4.1467
G01 X37.2220 Y77.2331 Z-3.9463
G01 X36.9533 Y77.1693 Z-3.7559
G01 X36.6928 Y77.1002 Z-3.5753
G01 X36.4406 Y77.0257 Z-3.4046
G01 X36.1968 Y76.9457 Z-3.2439
G01 X35.9612 Y76.8604 Z-3.0930
G01 X35.8465 Y76.8157 Z-3.0213
G01 X35.7339 Y76.7696 Z-2.9521
G01 X35.6234 Y76.7222 Z-2.8853
G01 X35.5150 Y76.6735 Z-2.8211
G01 X35.4086 Y76.6234 Z-2.7593
G01 X35.3044 Y76.5719 Z-2.6999
G01 X35.2022 Y76.5191 Z-2.6431
G01 X35.1020 Y76.4649 Z-2.5887
G01 X35.0040 Y76.4094 Z-2.5368
G01 X34.9080 Y76.3526 Z-2.4874
G01 X34.8141 Y76.2943 Z-2.4405
G01 X34.7223 Y76.2348 Z-2.3960
G01 X34.6325 Y76.1739 Z-2.3541
G01 X34.5448 Y76.1116 Z-2.3146
G01 X34.4592 Y76.0480 Z-2.2775
G01 X34.3757 Y75.9830 Z-2.2430
G01 X34.2943 Y75.9167 Z-2.2109
G01 X34.2149 Y75.8490 Z-2.1813
G01 X34.1376 Y75.7800 Z-2.1542
G01 X34.0624 Y75.7096 Z-2.1296
G01 X33.9893 Y75.6378 Z-2.1074
G01 X33.9182 Y75.5648 Z-2.0877
G01 X33.8492 Y75.4903 Z-2.0705
G01 X33.7823 Y75.4145 Z-2.0558
G01 X33.7175 Y75.3374 Z-2.0436
G01 X33.6547 Y75.2589 Z-2.0338
G01 X33.5940 Y75.1791 Z-2.0265
G01 X33.5354 Y75.0979 Z-2.0217
G01 X33.4789 Y75.0153 Z-2.0193
G01 X33.4244 Y74.9314 Z-2.0195
G01 X33.3715 Y74.8465 Z-2.0214
G01 X33.3169 Y74.7627
G01 X33.2623 Y74.6789
G01 X33.2078 Y74.5951
G01 X33.1532 Y74.5112
G01 X33.0986 Y74.4274
G01 X33.0441 Y74.3436
G01 X32.9895 Y74.2598
G01 X32.9349 Y74.1760
G01 X32.8804 Y74.0921
G01 X32.8258 Y74.0083
G01 X32.7712 Y73.9245
G01 X32.7167 Y73.8407
G01 X32.6621 Y73.7568
G01 X32.6075 Y73.6730
G01 X32.5529 Y73.5892
G01 X32.4984 Y73.5054
G01 X32.4438 Y73.4215
G01 X32.3892 Y73.3377
G01 X32.3347 Y73.2539
G01 X32.2801 Y73.1701
G01 X32.2255 Y73.0863
G01 X32.1710 Y73.0024
G01 X32.1164 Y72.9186
G01 X32.0618 Y72.8348
G01 X32.0073 Y72.7510
G01 X31.9527 Y72.6671
G01 X31.8981 Y72.5833
G01 X31.8435 Y72.4995
G01 X31.7890 Y72.4157
G01 X31.7344 Y72.3319
G01 X31.6798 Y72.2480
G01 X31.6253 Y72.1642
G01 X31.5707 Y72.0804
G01 X31.5161 Y71.9966
G01 X31.4616 Y71.9127
G01 X31.4070 Y71.8289
G01 X31.3524 Y71.7451
G01 X31.2979 Y71.6613
G01 X31.2433 Y71.5774
G01 X31.1887 Y71.4936
G01 X31.1341 Y71.4098
G01 X31.0796 Y71.3260
G01 X31.0250 Y71.2422
G01 X30.9704 Y71.1583
G01 X30.9159 Y71.0745
G01 X30.8613 Y70.9907
G01 X30.8067 Y70.9069
G01 X30.7522 Y70.8230
G01 X30.6976 Y70.7392
G01 X30.6430 Y70.6554
G01 X30.5885 Y70.5716
G01 X30.5339 Y70.4878
G01 X30.4793 Y70.4039
G01 X30.4247 Y70.3201
G01 X30.3702 Y70.2363
G01 X30.3156 Y70.1525
G01 X30.2610 Y70.0686
G01 X30.2065 Y69.9848
G01 X30.1519 Y69.9010
G01 X30.0973 Y69.8172
G01 X30.0428 Y69.7333
G01 X29.9882 Y69.6495
G01 X29.9336 Y69.5657
G01 X29.8791 Y69.4819
G01 X29.8245 Y69.3981
G01 X29.7699 Y69.3142
G01 X29.7153 Y69.2304
G01 X29.6608 Y69.1466
G01 X29.6062 Y69.0628
G01 X29.5516 Y68.9789
G01 X29.4971 Y68.8951
G01 X29.4425 Y68.8113
G01 X29.3879 Y68.7275
G01 X29.3334 Y68.6436
G01 X29.2788 Y68.5598
G01 X29.2242 Y68.4760
G01 X29.1697 Y68.3922
G01 X29.1151 Y68.3084
G01 X29.0605 Y68.2245
G01 X29.0059 Y68.1407
G01 X28.9514 Y68.0569
G01 X28.8968 Y67.9731
G01 X28.8422 Y67.8892
G01 X28.7877 Y67.8054
G01 X28.7331 Y67.7216
G01 X28.6785 Y67.6378
G01 X28.6240 Y67.5540
G01 X28.5694 Y67.4701
G01 X28.5148 Y67.3863
G01 X28.4603 Y67.3025
G01 X28.4057 Y67.2187
G01 X28.3511 Y67.1348
G01 X28.2965 Y67.0510
G01 X28.2420 Y66.9672
G01 X28.1874 Y66.8834
G01 X28.1328 Y66.7995
G01 X28.0783 Y66.7157
G01 X28.0237 Y66.6319
G01 X27.9691 Y66.5481
G01 X27.9146 Y66.4643
G01 X27.8600 Y66.3804
G01 X27.8054 Y66.2966
G01 X27.7509 Y66.2128
G01 X27.6963 Y66.1290
G01 X27.6417 Y66.0451
G01 X27.5871 Y65.9613
G01 X27.5326 Y65.8775
G01 X27.4780 Y65.7937
G01 X27.4234 Y65.7099
G01 X27.3689 Y65.6260
G01 X27.3143 Y65.5422
G01 X27.2597 Y65.4584
G01 X27.2052 Y65.3746
G01 X27.1506 Y65.2907
G01 X27.0960 Y65.2069
G01 X27.0415 Y65.1231
G01 X26.9869 Y65.0393
G01 X26.9323 Y64.9554
G01 X26.8777 Y64.8716
G01 X26.8232 Y64.7878
G01 X26.7686 Y64.7040
G01 X26.7140 Y64.6202
G01 X26.6595 Y64.5363
G01 X26.6049 Y64.4525
G01 X26.5503 Y64.3687
G01 X26.4958 Y64.2849
G01 X26.4412 Y64.2010
G01 X26.3866 Y64.1172
G01 X26.3321 Y64.0334
G01 X26.2775 Y63.9496
G01 X26.2229 Y63.8657
G01 X26.1683 Y63.7819
G01 X26.1138 Y63.6981
G01 X26.0592 Y63.6143
G01 X26.0046 Y63.5305
G01 X25.9501 Y63.4466
G01 X25.8955 Y63.3628
G01 X25.8409 Y63.2790
G01 X25.7864 Y63.1952
G01 X25.7318 Y63.1113
G01 X25.6772 Y63.0275
G01 X25.6227 Y62.9437
G01 X25.5681 Y62.8599
G01 X25.5135 Y62.7761
G01 X25.4589 Y62.6922
G01 X25.4044 Y62.6084
G01 X25.3498 Y62.5246
G01 X25.2952 Y62.4408
G01 X25.2407 Y62.3569
G01 X25.1861 Y62.2731
G01 X25.1315 Y62.1893
G01 X25.0770 Y62.1055
G01 X25.0224 Y62.0216
G01 X24.9678 Y61.9378
G01 X24.9133 Y61.8540
G01 X24.8587 Y61.7702
G01 X24.8041 Y61.6864
G01 X24.7495 Y61.6025
G01 X24.6950 Y61.5187
G01 X24.6404 Y61.4349
G01 X24.5858 Y61.3511
G01 X24.5313 Y61.2672
G01 X24.4767 Y61.1834
G01 X24.4221 Y61.0996
G01 X24.3676 Y61.0158
G01 X24.3130 Y60.9320
G01 X24.2584 Y60.8481
G01 X24.2039 Y60.7643
G01 X24.1493 Y60.6805
G01 X24.0947 Y60.5967
G01 X24.0401 Y60.5128
G01 X23.9856 Y60.4290
G01 X23.9310 Y60.3452
G01 X23.8764 Y60.2614
G01 X23.8219 Y60.1775
G01 X23.7673 Y60.0937
G01 X23.7127 Y60.0099
G01 X23.6582 Y59.9261
G01 X23.6036 Y59.8423
G01 X23.5490 Y59.7584
G01 X23.4945 Y59.6746
G01 X23.4399 Y59.5908
G01 X23.3853 Y59.5070
G01 X23.3307 Y59.4231
G01 X23.2762 Y59.3393
G01 X23.2216 Y59.2555
G01 X23.1670 Y59.1717
G01 X23.1125 Y59.0878
G01 X23.0579 Y59.0040
G01 X23.0033 Y58.9202
G01 X22.9488 Y58.8364
G01 X22.8942 Y58.7526
G01 X22.8396 Y58.6687
G01 X22.7851 Y58.5849
G01 X22.7305 Y58.5011
G01 X22.6759 Y58.4173
G01 X22.6213 Y58.3334
G01 X22.5668 Y58.2496
G01 X22.5122 Y58.1658
G01 X22.4576 Y58.0820
G01 X22.4031 Y57.9982
G01 X22.3485 Y57.9143
G01 X22.2939 Y57.8305
G01 X22.2394 Y57.7467
G01 X22.1848 Y57.6629
G01 X22.1302 Y57.5790
G01 X22.0757 Y57.4952
G01 X22.0211 Y57.4114
G01 X21.9665 Y57.3276
G01 X21.9120 Y57.2437
G01 X21.8574 Y57.1599
G01 X21.8028 Y57.0761
G01 X21.7482 Y56.9923
G01 X21.6937 Y56.9085
G01 X21.6391 Y56.8246
G01 X21.5845 Y56.7408
G01 X21.5300 Y56.6570
G01 X21.4754 Y56.5732
G01 X21.4208 Y56.4893
G01 X21.3663 Y56.4055
G01 X21.3117 Y56.3217
G01 X21.2571 Y56.2379
G01 X21.2026 Y56.1541
G01 X21.1480 Y56.0702
G01 X21.0934 Y55.9864
G01 X21.0388 Y55.9026
G01 X20.9843 Y55.8188
G01 X20.9297 Y55.7349
G01 X20.8751 Y55.6511
G01 X20.8206 Y55.5673
G01 X20.7660 Y55.4835
G01 X20.7114 Y55.3996
G01 X20.6569 Y55.3158
G01 X20.6023 Y55.2320
G01 X20.5477 Y55.1482
G01 X20.4932 Y55.0644
G01 X20.4386 Y54.9805
G01 X20.3840 Y54.8967
G01 X20.3294 Y54.8129
G01 X20.2749 Y54.7291
G01 X20.2203 Y54.6452
G01 X20.1657 Y54.5614
G01 X20.1112 Y54.4776
G01 X20.0566 Y54.3938
G01 X20.0020 Y54.3099
G01 X19.9475 Y54.2261
G01 X19.8929 Y54.1423
G01 X19.8383 Y54.0585
G01 X19.7838 Y53.9747
G01 X19.7292 Y53.8908
G01 X19.6746 Y53.8070
G01 X19.6200 Y53.7232
G01 X19.5655 Y53.6394
G01 X19.5109 Y53.5555
G01 X19.4563 Y53.4717
G01 X19.4018 Y53.3879
G01 X19.3472 Y53.3041
G01 X19.2926 Y53.2203
G01 X19.2381 Y53.1364
G01 X19.1835 Y53.0526
G01 X19.1289 Y52.9688
G01 X19.0744 Y52.8850
G01 X19.0198 Y52.8011
G01 X18.9652 Y52.7173
G01 X18.9106 Y52.6335
G01 X18.8561 Y52.5497
G01 X18.8015 Y52.4658
G01 X18.7469 Y52.3820
G01 X18.6924 Y52.2982
G01 X18.6378 Y52.2144
G01 X18.5832 Y52.1306
G01 X18.5287 Y52.0467
G01 X18.4741 Y51.9629
G01 X18.4195 Y51.8791
G01 X18.3650 Y51.7953
G01 X18.3104 Y51.7114
G01 X18.2558 Y51.6276
G01 X18.2012 Y51.5438
G01 X18.1467 Y51.4600
G01 X18.0921 Y51.3762
G01 X18.0375 Y51.2923
G01 X17.9830 Y51.2085
G01 X17.9284 Y51.1247
G01 X17.8738 Y51.0409
G01 X17.8193 Y50.9570
G01 X17.7647 Y50.8732
G01 X17.7101 Y50.7894
G01 X17.6556 Y50.7056
G01 X17.6010 Y50.6217
G01 X17.5464 Y50.5379
G01 X17.4918 Y50.4541
G01 X17.4373 Y50.3703
G01 X17.3827 Y50.2865
G01 X17.3281 Y50.2026
G01 X17.2736 Y50.1188
G01 X17.2190 Y50.0350
G01 X17.1644 Y49.9512
G01 X17.1099 Y49.8673
G01 X17.0553 Y49.7835
G01 X17.0007 Y49.6997
G01 X16.9462 Y49.6159
G01 X16.8916 Y49.5320
G01 X16.8370 Y49.4482
G01 X16.7824 Y49.3644
G01 X16.7279 Y49.2806
G01 X16.6733 Y49.1968
G01 X16.6187 Y49.1129
G01 X16.5642 Y49.0291
G01 X16.5096 Y48.9453
G01 X16.4550 Y48.8615
G01 X16.4005 Y48.7776
G01 X16.3459 Y48.6938
G01 X16.2913 Y48.6100
G01 X16.2368 Y48.5262
G01 X16.1822 Y48.4424
G01 X16.1276 Y48.3585
G01 X16.0730 Y48.2747
G01 X16.0185 Y48.1909
G01 X15.9639 Y48.1071
G01 X15.9093 Y48.0232
G01 X15.8548 Y47.9394
G01 X15.8002 Y47.8556
G01 X15.7456 Y47.7718
G01 X15.6911 Y47.6879
G01 X15.6365 Y47.6041
G01 X15.5819 Y47.5203
G01 X15.5274 Y47.4365
G01 X15.4728 Y47.3527
G01 X15.4182 Y47.2688
G01 X15.3636 Y47.1850
G01 X15.3091 Y47.1012
G01 X15.2545 Y47.0174
G01 X15.1999 Y46.9335
G01 X15.1454 Y46.8497
G01 X15.0908 Y46.7659
G01 X15.0362 Y46.6821
G01 X14.9817 Y46.5983
G01 X14.9271 Y46.5144
G01 X14.8725 Y46.4306
G01 X14.8180 Y46.3468
G01 X14.7634 Y46.2630
G01 X14.7088 Y46.1791
G01 X14.6542 Y46.0953
G01 X14.5997 Y46.0115
G01 X14.5451 Y45.9277
G01 X14.4905 Y45.8438
G01 X14.4360 Y45.7600
G01 X14.3814 Y45.6762
G01 X14.3268 Y45.5924
G01 X14.2723 Y45.5086
G01 X14.2177 Y45.4247
G01 X14.1631 Y45.3409
G01 X14.1086 Y45.2571
G01 X14.0540 Y45.1733
G01 X13.9994 Y45.0894
G01 X13.9448 Y45.0056
G01 X13.8903 Y44.9218
G01 X13.8357 Y44.8380
G01 X13.7811 Y44.7541
G01 X13.7266 Y44.6703
G01 X13.6720 Y44.5865
G01 X13.6174 Y44.5027
G01 X13.5629 Y44.4189
G01 X13.5083 Y44.3350
G01 X13.4537 Y44.2512
G01 X13.3992 Y44.1674
G01 X13.3446 Y44.0836
G01 X13.2900 Y43.9997
G01 X13.2354 Y43.9159
G01 X13.1809 Y43.8321
G01 X13.1263 Y43.7483
G01 X13.0717 Y43.6645
G01 X13.0172 Y43.5806
G01 X12.9626 Y43.4968
G01 X12.9080 Y43.4130
G01 X12.8535 Y43.3292
G01 X12.7989 Y43.2453
G01 X12.7443 Y43.1615
G01 X12.6898 Y43.0777
G01 X12.6352 Y42.9939
G01 X12.5806 Y42.9100
G01 X12.5260 Y42.8262
G01 X12.4715 Y42.7424
G01 X12.4169 Y42.6586
G01 X12.3623 Y42.5748
G01 X12.3078 Y42.4909
G01 X12.2532 Y42.4071
G01 X12.1986 Y42.3233
G01 X12.1441 Y42.2395
G01 X12.0895 Y42.1556
G01 X12.0349 Y42.0718
G01 X11.9804 Y41.9880
G01 X11.9258 Y41.9042
G01 X11.8712 Y41.8204
G01 X11.8166 Y41.7365
G01 X11.7621 Y41.6527
G01 X11.7075 Y41.5689
G01 X11.6529 Y41.4851
G01 X11.5984 Y41.4012
G01 X11.5438 Y41.3174
G01 X11.4892 Y41.2336
G01 X11.4347 Y41.1498
G01 X11.3801 Y41.0659
G01 X11.3255 Y40.9821
G01 X11.2710 Y40.8983
G01 X11.2164 Y40.8145
G01 X11.1618 Y40.7307
G01 X11.1072 Y40.6468
G01 X11.0527 Y40.5630
G01 X10.9981 Y40.4792
G01 X10.9435 Y40.3954
G01 X10.8890 Y40.3115
G01 X10.8344 Y40.2277
G01 X10.7798 Y40.1439
G01 X10.7253 Y40.0601
G01 X10.6707 Y39.9762
G01 X10.6161 Y39.8924
G01 X10.5616 Y39.8086
G01 X10.5070 Y39.7248
G01 X10.4524 Y39.6410
G01 X10.3978 Y39.5571
G01 X10.3433 Y39.4733
G01 X10.2887 Y39.3895
G01 X10.2341 Y39.3057
G01 X10.1796 Y39.2218
G01 X10.1250 Y39.1380
G01 X10.0704 Y39.0542
G01 X10.0159 Y38.9704
G01 X9.9613 Y38.8866
G01 X9.9067 Y38.8027
G01 X9.8522 Y38.7189
G01 X9.7976 Y38.6351
G01 X9.7430 Y38.5513
G01 X9.6884 Y38.4674
G01 X9.6339 Y38.3836
G01 X9.5793 Y38.2998
G01 X9.5247 Y38.2160
G01 X9.4702 Y38.1321
G01 X9.4156 Y38.0483
G01 X9.3610 Y37.9645
G01 X9.3065 Y37.8807
G01 X9.2519 Y37.7969
G01 X9.1973 Y37.7130
G01 X9.1428 Y37.6292
G01 X9.0882 Y37.5454
G01 X9.0336 Y37.4616
G01 X8.9790 Y37.3777
G01 X8.9245 Y37.2939
G01 X8.8699 Y37.2101
G01 X8.8153 Y37.1263
G01 X8.7608 Y37.0425
G01 X8.7062 Y36.9586
G01 X8.6516 Y36.8748
G01 X8.5971 Y36.7910
G01 X8.5425 Y36.7072
G01 X8.4879 Y36.6233
G01 X8.4334 Y36.5395
G01 X8.3788 Y36.4557
G01 X8.3242 Y36.3719
G01 X8.2696 Y36.2880
G01 X8.2151 Y36.2042
G01 X8.1605 Y36.1204
G01 X8.1059 Y36.0366
G01 X8.0514 Y35.9528
G01 X7.9968 Y35.8689
G01 X7.9422 Y35.7851
G01 X7.8877 Y35.7013
G01 X7.8331 Y35.6175
G01 X7.7785 Y35.5336
G01 X7.7240 Y35.4498
G01 X7.6694 Y35.3660
G01 X7.6148 Y35.2822
G01 X7.5602 Y35.1983
G01 X7.5057 Y35.1145
G01 X7.4511 Y35.0307
G01 X7.3965 Y34.9469
G01 X7.3420 Y34.8631
G01 X7.2874 Y34.7792
G01 X7.2328 Y34.6954
G01 X7.1783 Y34.6116
G01 X7.1237 Y34.5278
G01 X7.0691 Y34.4439
G01 X7.0146 Y34.3601
G01 X6.9600 Y34.2763
G01 X6.9054 Y34.1925
G01 X6.8508 Y34.1087
G01 X6.7963 Y34.0248
G01 X6.7417 Y33.9410
G01 X6.6871 Y33.8572
G01 X6.6326 Y33.7734
G01 X6.5780 Y33.6895
G01 X6.5234 Y33.6057
G01 X6.4689 Y33.5219
G01 X6.4143 Y33.4381
G01 X6.3597 Y33.3542
G01 X6.3052 Y33.2704
G01 X6.2506 Y33.1866
G01 X6.1960 Y33.1028
G01 X6.1414 Y33.0190
G01 X6.0869 Y32.9351
G01 X6.0323 Y32.8513
G01 X5.9777 Y32.7675
G01 X5.9232 Y32.6837
G01 X5.8686 Y32.5998
G01 X5.8140 Y32.5160
G01 X5.7595 Y32.4322
G01 X5.7049 Y32.3484
G01 X5.6503 Y32.2646
G01 X5.5958 Y32.1807
G01 X5.5412 Y32.0969
G01 X5.4866 Y32.0131
G01 X5.4320 Y31.9293
G01 X5.3775 Y31.8454
G01 X5.3229 Y31.7616
G01 X5.2683 Y31.6778
G01 X5.2138 Y31.5940
G01 X5.1592 Y31.5101
G01 X5.1046 Y31.4263
G01 X5.0501 Y31.3425
G01 X4.9955 Y31.2587
G01 X4.9409 Y31.1749
G01 X4.8864 Y31.0910
G01 X4.8318 Y31.0072
G01 X4.7772 Y30.9234
G01 X4.7226 Y30.8396
G01 X4.6681 Y30.7557
G01 X4.6135 Y30.6719
G01 X4.5589 Y30.5881
G01 X4.5044 Y30.5043
G01 X4.4498 Y30.4204
G01 X4.3952 Y30.3366
G01 X4.3407 Y30.2528
G01 X4.2861 Y30.1690
G01 X4.2315 Y30.0852
G01 X4.1770 Y30.0013
G01 X4.1224 Y29.9175
G01 X4.0678 Y29.8337
G01 X4.0132 Y29.7499
G01 X3.9587 Y29.6660
G01 X3.9041 Y29.5822
G01 X3.8495 Y29.4984
G01 X3.7950 Y29.4146
G01 X3.7404 Y29.3308
G01 X3.6858 Y29.2469
G01 X3.6313 Y29.1631
G01 X3.5767 Y29.0793
G01 X3.5221 Y28.9955
G01 X3.4676 Y28.9116
G01 X3.4130 Y28.8278
G01 X3.3584 Y28.7440
G01 X3.3038 Y28.6602
G01 X3.2493 Y28.5763
G01 X3.1947 Y28.4925
G01 X3.1401 Y28.4087
G01 X3.0863 Y28.3244 Z-2.0222
G01 X3.0344 Y28.2388 Z-2.0255
G01 X2.9846 Y28.1519 Z-2.0312
G01 X2.9369 Y28.0636 Z-2.0394
G01 X2.8913 Y27.9739 Z-2.0501
G01 X2.8478 Y27.8830 Z-2.0632
G01 X2.8063 Y27.7906 Z-2.0788
G01 X2.7669 Y27.6969 Z-2.0969
G01 X2.7296 Y27.6019 Z-2.1175
G01 X2.6943 Y27.5055 Z-2.1406
G01 X2.6611 Y27.4077 Z-2.1661
G01 X2.6300 Y27.3086 Z-2.1941
G01 X2.6010 Y27.2082 Z-2.2246
G01 X2.5740 Y27.1064 Z-2.2575
G01 X2.5491 Y27.0032 Z-2.2929
G01 X2.5263 Y26.8987 Z-2.3308
G01 X2.5056 Y26.7929 Z-2.3712
G01 X2.4869 Y26.6857 Z-2.4140
G01 X2.4703 Y26.5771 Z-2.4593
G01 X1.1794 Y26.9402 Z-1.1794
G01 X1.5002 Y26.8449 Z-1.5002
G01 X1.8336 Y26.7460 Z-1.8336
G01 X2.1670 Y26.6470 Z-2.1670
G01 X2.4691 Y26.5481 Z-2.4691
G01 X2.4853 Y26.4491 Z-2.4853
G01 X2.5036 Y26.3502 Z-2.5036
G01 X2.5239 Y26.2512 Z-2.5239
G01 X2.5462 Y26.1523 Z-2.5462
G01 X2.5706 Y26.0533 Z-2.5706
G01 X2.5233 Y25.9544 Z-2.5233
G01 X2.3254 Y25.7564 Z-2.3254
G01 X2.1275 Y25.5585 Z-2.1275
G01 X1.9296 Y25.3606 Z-1.9296
G01 X1.7317 Y25.1627 Z-1.7317
G01 X1.5338 Y24.9648 Z-1.5338
G01 X1.3359 Y24.7669 Z-1.3359
G01 X1.1380 Y24.5690 Z-1.1380
G01 X0.9401 Y24.3711 Z-0.9401
G01 X0.7422 Y24.1732 Z-0.7422
G01 X0.5443 Y23.9753 Z-0.5443
G01 X0.3463 Y23.7773 Z-0.3463
G01 X0.2474 Y23.6784 Z-0.2474
G01 X0.1484 Y23.5794 Z-0.1484
G01 X0.0495 Y23.4805 Z-0.0495
G01 X0.0000 Y23.4310 Z0.0000
G01 X0.0501 Y23.4811 Z-0.0501
G01 X0.1502 Y23.5812 Z-0.1502
G01 X0.2503 Y23.6813 Z-0.2503
G01 X0.3505 Y23.7815 Z-0.3505
G01 X0.4506 Y23.8816 Z-0.4506
G01 X0.5507 Y23.9817 Z-0.5507
G01 X0.6509 Y24.0819 Z-0.6509
G01 X0.7510 Y24.1820 Z-0.7510
G01 X0.8511 Y24.2821 Z-0.8511
G01 X0.9513 Y24.3823 Z-0.9513
G01 X1.0514 Y24.4824 Z-1.0514
G01 X1.1515 Y24.5825 Z-1.1515
G01 X1.2517 Y24.6827 Z-1.2517
G01 X1.3518 Y24.7828 Z-1.3518
G01 X1.4519 Y24.8829 Z-1.4519
G01 X1.5521 Y24.9831 Z-1.5521
G01 X1.6522 Y25.0832 Z-1.6522
G01 X1.7523 Y25.1833 Z-1.7523
G01 X1.8525 Y25.2835 Z-1.8525
G01 X1.9526 Y25.3836 Z-1.9526
G01 X2.0527 Y25.4837 Z-2.0527
G01 X2.1528 Y25.5839 Z-2.1528
G01 X2.2530 Y25.6840 Z-2.2530
G01 X2.3531 Y25.7841 Z-2.3531
G01 X2.4532 Y25.8843 Z-2.4532
G01 X2.5534 Y25.9844 Z-2.5534
G01 X2.6535 Y25.9710 Z-2.5400
G01 X2.7536 Y25.9160 Z-2.4850
G01 X2.8538 Y25.8636 Z-2.4326
G01 X2.9539 Y25.8137 Z-2.3827
G01 X3.0540 Y25.7665 Z-2.3355
G01 X3.1542 Y25.7219 Z-2.2909
G01 X3.2543 Y25.6799 Z-2.2489
G01 X3.3544 Y25.6404 Z-2.2094
G01 X3.4546 Y25.6036 Z-2.1726
G01 X3.5547 Y25.5694 Z-2.1384
G01 X3.6548 Y25.5377 Z-2.1067
G01 X3.7550 Y25.5087 Z-2.0777
G01 X3.8551 Y25.4823 Z-2.0513
G01 X3.9552 Y25.4584 Z-2.0274
G01 X4.0554 Y25.4372 Z-2.0062
G01 X4.1555 Y25.4185 Z-1.9875
G01 X4.2556 Y25.4025 Z-1.9715
G01 X4.3558 Y25.3890 Z-1.9580
G01 X4.4559 Y25.3782 Z-1.9472
G01 X4.5560 Y25.3699 Z-1.9389
G01 X4.6562 Y25.3643 Z-1.9333
G01 X4.7563 Y25.3612 Z-1.9302
G01 X4.8564 Y25.3606 Z-1.9296
G01 X4.9566
G01 X5.0567
G01 X5.1568
G01 X5.2570
G01 X5.3571
G01 X5.4572
G01 X5.5574
G01 X5.6575
G01 X5.7576
G01 X5.8578
G01 X5.9579
G01 X6.0580
G01 X6.1581
G01 X6.2583
G01 X6.3584
G01 X6.4585
G01 X6.5587
G01 X6.6588
G01 X6.7589
G01 X6.8591
G01 X6.9592
G01 X7.0593
G01 X7.1595
G01 X7.2596
G01 X7.3597
G01 X7.4599
G01 X7.5600
G01 X7.6601
G01 X7.7603
G01 X7.8604
G01 X7.9605
G01 X8.0607
G01 X8.1608
G01 X8.2609
G01 X8.3611
G01 X8.4612
G01 X8.5613
G01 X8.6615
G01 X8.7616
G01 X8.8617
G01 X8.9619
G01 X9.0620
G01 X9.1621
G01 X9.2623
G01 X9.3624
G01 X9.4625
G01 X9.5627
G01 X9.6628
G01 X9.7629
G01 X9.8631
G01 X9.9632
G01 X10.0633
G01 X10.1635
G01 X10.2636
G01 X10.3637
G01 X10.4638
G01 X10.5640
G01 X10.6641
G01 X10.7642
G01 X10.8644
G01 X10.9645
G01 X11.0646
G01 X11.1648
G01 X11.2649
G01 X11.3650
G01 X11.4652
G01 X11.5653
G01 X11.6654
G01 X11.7656
G01 X11.8657
G01 X11.9658
G01 X12.0660
G01 X12.1661
G01 X12.2662
G01 X12.3664
G01 X12.4665
G01 X12.5666
G01 X12.6668
G01 X12.7669
G01 X12.8670
G01 X12.9672
G01 X13.0673
G01 X13.1674
G01 X13.2676
G01 X13.3677
G01 X13.4678
G01 X13.5680
G01 X13.6681
G01 X13.7682
G01 X13.8684
G01 X13.9685
G01 X14.0686
G01 X14.1688
G01 X14.2689
G01 X14.3690
G01 X14.4691
G01 X14.5693
G01 X14.6694
G01 X14.7695
G01 X14.8697
G01 X14.9698
G01 X15.0699
G01 X15.1701
G01 X15.2702
G01 X15.3703
G01 X15.4705
G01 X15.5706
G01 X15.6707
G01 X15.7709
G01 X15.8710
G01 X15.9711
G01 X16.0713
G01 X16.1714
G01 X16.2715
G01 X16.3717
G01 X16.4718
G01 X16.5719
G01 X16.6721
G01 X16.7722
G01 X16.8723
G01 X16.9725
G01 X17.0726
G01 X17.1727
G01 X17.2729
G01 X17.3730
G01 X17.4731
G01 X17.5733
G01 X17.6734
G01 X17.7735
G01 X17.8737
G01 X17.9738
G01 X18.0739
G01 X18.1741
G01 X18.2742
G01 X18.3743
G01 X18.4744
G01 X18.5746
G01 X18.6747
G01 X18.7748
G01 X18.8750
G01 X18.9751
G01 X19.0752
G01 X19.1754
G01 X19.2755
G01 X19.3756
G01 X19.4758
G01 X19.5759
G01 X19.6760
G01 X19.7762
G01 X19.8763
G01 X19.9764
G01 X20.0766
G01 X20.1767
G01 X20.2768
G01 X20.3770
G01 X20.4771
G01 X20.5772
G01 X20.6774
G01 X20.7775
G01 X20.8776
G01 X20.9778
G01 X21.0779
G01 X21.1780
G01 X21.2782
G01 X21.3783
G01 X21.4784
G01 X21.5786
G01 X21.6787
G01 X21.7788
G01 X21.8790
G01 X21.9791
G01 X22.0792
G01 X22.1794
G01 X22.2795
G01 X22.3796
G01 X22.4798
G01 X22.5799
G01 X22.6800
G01 X22.7801
G01 X22.8803
G01 X22.9804
G01 X23.0805
G01 X23.1807
G01 X23.2808
G01 X23.3809
G01 X23.4811
G01 X23.5812
G01 X23.6813
G01 X23.7815
G01 X23.8816
G01 X23.9817
G01 X24.0819
G01 X24.1820
G01 X24.2821
G01 X24.3823
G01 X24.4824
G01 X24.5825
G01 X24.6827
G01 X24.7828
G01 X24.8829
G01 X24.9831
G01 X25.0832
G01 X25.1833
G01 X25.2835
G01 X25.3836
G01 X25.4837
G01 X25.5839
G01 X25.6840
G01 X25.7841
G01 X25.8843
G01 X25.9844
G01 X26.0845
G01 X26.1847
G01 X26.2848
G01 X26.3849
G01 X26.4851
G01 X26.5852
G01 X26.6853
G01 X26.7854
G01 X26.8856
G01 X26.9857
G01 X27.0858
G01 X27.1860
G01 X27.2861
G01 X27.3862
G01 X27.4864
G01 X27.5865
G01 X27.6866
G01 X27.7868
G01 X27.8869
G01 X27.9870
G01 X28.0872
G01 X28.1873
G01 X28.2874
G01 X28.3876
G01 X28.4877
G01 X28.5878
G01 X28.6880
G01 X28.7881
G01 X28.8882
G01 X28.9884
G01 X29.0885
G01 X29.1886
G01 X29.2888
G01 X29.3889
G01 X29.4890
G01 X29.5892
G01 X29.6893
G01 X29.7894
G01 X29.8896
G01 X29.9897
G01 X30.0898
G01 X30.1900
G01 X30.2901
G01 X30.3902
G01 X30.4904
G01 X30.5905
G01 X30.6906
G01 X30.7907
G01 X30.8909
G01 X30.9910
G01 X31.0911
G01 X31.1913
G01 X31.2914
G01 X31.3915
G01 X31.4917
G01 X31.5918
G01 X31.6919
G01 X31.7921
G01 X31.8922
G01 X31.9923
G01 X32.0925
G01 X32.1926
G01 X32.2927
G01 X32.3929
G01 X32.4930
G01 X32.5931
G01 X32.6933
G01 X32.7934
G01 X32.8935
G01 X32.9937
G01 X33.0938
G01 X33.1939
G01 X33.2941
G01 X33.3942
G01 X33.4943
G01 X33.5945
G01 X33.6946
G01 X33.7947
G01 X33.8949
G01 X33.9950
G01 X34.0951
G01 X34.1953
G01 X34.2954
G01 X34.3955
G01 X34.4957
G01 X34.5958
G01 X34.6959
G01 X34.7960
G01 X34.8962
G01 X34.9963
G01 X35.0964
G01 X35.1465
G01 X35.1970 Z-1.9303
G01 X35.2476 Z-1.9323
G01 X35.2984 Z-1.9356
G01 X35.3493 Z-1.9402
G01 X35.4006 Z-1.9463
G01 X35.4521 Z-1.9537
G01 X35.5041 Z-1.9625
G01 X35.5567 Z-1.9727
G01 X35.6098 Z-1.9844
G01 X35.6636 Z-1.9977
G01 X35.7181 Z-2.0125
G01 X35.7735 Z-2.0289
G01 X35.8298 Z-2.0470
G01 X35.8680 Z-2.0601
G01 X35.9066 Z-2.0739
G01 X35.9458 Z-2.0886
G01 X35.9855 Z-2.1041
G01 X36.0259 Z-2.1205
G01 X36.0669 Z-2.1379
G01 X36.1086 Z-2.1562
G01 X36.1510 Z-2.1754
G01 X36.1942 Z-2.1957
G01 X36.2382 Z-2.2170
G01 X36.2831 Z-2.2395
G01 X36.3290 Z-2.2631
G01 X36.3758 Z-2.2879
G01 X36.4237 Z-2.3140
G01 X36.4727 Z-2.3414
G01 X36.5229 Z-2.3702
G01 X36.5744 Z-2.4004
G01 X36.6272 Z-2.4322
G01 X36.6814 Z-2.4656
G01 X36.7372 Z-2.5007
G01 X36.7946 Z-2.5376
G01 X36.8537 Z-2.5764
G01 X36.8839 Z-2.5966
G01 X36.9147 Z-2.6172
G01 X36.9459 Z-2.6384
G01 X36.9777 Z-2.6602
G01 X37.0099 Z-2.6825
G01 X37.0427 Z-2.7054
G01 X37.0761 Z-2.7289
G01 X37.1101 Z-2.7530
G01 X37.1447 Z-2.7778
G01 X37.1799 Z-2.8032
G01 X37.2158 Z-2.8294
G01 X37.2523 Z-2.8562
G01 X37.2896 Z-2.8838
G01 X37.3275 Z-2.9121
G01 X37.3663 Z-2.9412
G01 X37.4058 Z-2.9712
G01 X37.4461 Z-3.0020
G01 X37.4873 Z-3.0336
G01 X37.5294 Z-3.0662
G01 X37.5724 Z-3.0997
G01 X37.6163 Z-3.1342
G01 X37.6612 Z-3.1697
G01 X37.7072 Z-3.2063
G01 X37.7542 Z-3.2440
G01 X37.8024 Z-3.2829
G01 X37.8517 Z-3.3229
G01 X37.9023 Z-3.3642
G01 X37.9541 Z-3.4068
G01 X38.0073 Z-3.4507
G01 X38.0618 Z-3.4961
G01 X38.1179 Z-3.5429
G01 X38.1754 Z-3.5913
G01 X38.2345 Z-3.6413
G01 X38.2954 Z-3.6931
G01 X38.3579 Z-3.7466
G01 X38.4224 Z-3.8019
G01 X38.4887 Z-3.8592
G01 X38.5571 Z-3.9186
G01 X38.6276 Z-3.9802
G01 X38.7004 Z-4.0440
G01 X38.7756 Z-4.1102
G01 X38.8533 Z-4.1789
G01 X38.9336 Z-4.2503
G01 X39.0167 Z-4.3246
G01 X39.1028 Z-4.4018
G01 X39.1920 Z-4.4822
G01 X39.2846 Z-4.5659
G01 X39.3807 Z-4.6531
G01 X39.4805 Z-4.7441
G01 X39.5843 Z-4.8392
G01 X39.6924 Z-4.9385
G01 X39.8050 Z-5.0423
G01 X39.9225 Z-5.1510
G01 X40.0451 Z-5.2650
G01 X40.1733 Z-5.3845
G01 X40.3075 Z-5.5099
G01 X40.4481 Z-5.6418
G01 X40.5956 Z-5.7806
G01 X40.7505 Z-5.9269
G01 X40.9135 Z-6.0813
G01 X41.0853 Z-6.2444
G01 X41.2026 Y25.3405 Z-6.3500
G01 X41.2190 Y25.2876
G01 X41.2350 Y25.2345
G01 X41.2505 Y25.1813
G01 X41.2656 Y25.1280
G01 X41.2801 Y25.0745
G01 X41.2943 Y25.0209
G01 X41.3079 Y24.9672
G01 X41.3211 Y24.9134
G01 X41.3338 Y24.8594
G01 X41.3460 Y24.8054
G01 X41.3578 Y24.7512
G01 X41.3690 Y24.6970
G01 X41.3798 Y24.6426
G01 X41.3902 Y24.5882
G01 X41.4000 Y24.5337
G01 X41.4094 Y24.4791
G01 X41.4183 Y24.4244
G01 X41.4268 Y24.3696
G01 X41.4347 Y24.3148
G01 X41.4422 Y24.2598
G01 X41.4492 Y24.2049
G01 X41.4557 Y24.1498
G01 X41.4617 Y24.0948
G01 X41.4673 Y24.0396
G01 X41.4723 Y23.9844
G01 X41.4769 Y23.9292
G01 X41.4810 Y23.8740
G01 X41.4847 Y23.8187
G01 X41.4878 Y23.7633
G01 X41.4905 Y23.7080
G01 X41.4926 Y23.6526
G01 X41.4943 Y23.5972
G01 X41.4955 Y23.5418
G01 X41.4963 Y23.4864
G01 X41.4965 Y23.4310
G01 Y23.2811
G01 Y23.1812
G01 Y23.0813
G01 Y22.9813
G01 Y22.8814
G01 Y22.7815
G01 Y22.6816
G01 Y22.5816
G01 Y22.4817
G01 Y22.3818
G01 Y22.2819
G01 Y22.1819
G01 Y22.0820
G01 Y21.9821
G01 Y21.8821
G01 Y21.7822
G01 Y21.6823
G01 Y21.5824
G01 Y21.4824
G01 Y21.3825
G01 Y21.2826
G01 Y21.1827
G01 Y21.0827
G01 Y20.9828
G01 Y20.8829
G01 Y20.7830
G01 Y20.6830
G01 Y20.5831
G01 Y20.4832
G01 Y20.3833
G01 Y20.2833
G01 Y20.1834
G01 Y20.0835
G01 Y19.9835
G01 Y19.8836
G01 Y19.7837
G01 Y19.6838
G01 Y19.5838
G01 Y19.4839
G01 Y19.3840
G01 Y19.2841
G01 Y19.1841
G01 Y19.0842
G01 Y18.9843
G01 Y18.8844
G01 Y18.7844
G01 Y18.6845
G01 Y18.5846
G01 Y18.4847
G01 Y18.3847
G01 Y18.2848
G01 Y18.1849
G01 Y18.0849
G01 Y17.9850
G01 Y17.8851
G01 Y17.7852
G01 Y17.6852
G01 Y17.5853
G01 Y17.4854
G01 Y17.3855
G01 Y17.2855
G01 Y17.1856
G01 Y17.0857
G01 Y16.9858
G01 Y16.8858
G01 Y16.7859
G01 Y16.6860
G01 Y16.5861
G01 Y16.4861
G01 Y16.3862
G01 Y16.2863
G01 Y16.1863
G01 Y16.0864
G01 Y15.9865
G01 Y15.8866
G01 Y15.7866
G01 Y15.6867
G01 Y15.5868
G01 Y15.4869
G01 Y15.3869
G01 Y15.2870
G01 Y15.1871
G01 Y15.0872
G01 Y14.9872
G01 Y14.8873
G01 Y14.7874
G01 Y14.6875
G01 Y14.5875
G01 Y14.4876
G01 Y14.3877
G01 Y14.2877
G01 Y14.1878
G01 Y14.0879
G01 Y13.9880
G01 Y13.8880
G01 Y13.7881
G01 Y13.6882
G01 Y13.5883
G01 Y13.4883
G01 Y13.3884
G01 Y13.2885
G01 Y13.1886
G01 Y13.0886
G01 Y12.9887
G01 Y12.8888
G01 Y12.7889
G01 Y12.6889
G01 Y12.5890
G01 Y12.4891
G01 Y12.3891
G01 Y12.2892
G01 Y12.1893
G01 Y12.0894
G01 Y11.9894
G01 Y11.8895
G01 Y11.7896
G01 Y11.6897
G01 Y11.5897
G01 Y11.4898
G01 Y11.3899
G01 Y11.2900
G01 Y11.1900
G01 Y11.0901
G01 Y10.9902
G01 Y10.8903
G01 Y10.7903
G01 Y10.6904
G01 Y10.5905
G01 Y10.4905
G01 Y10.3906
G01 Y10.2907
G01 Y10.1908
G01 Y10.0908
G01 Y9.9909
G01 Y9.8910
G01 Y9.7911
G01 Y9.6911
G01 Y9.5912
G01 Y9.4913
G01 Y9.3914
G01 Y9.2914
G01 Y9.1915
G01 Y9.0916
G01 Y8.9917
G01 Y8.8917
G01 Y8.7918
G01 Y8.6919
G01 Y8.5919
G01 Y8.4920
G01 Y8.3921
G01 Y8.2922
G01 Y8.1922
G01 Y8.0923
G01 Y7.9924
G01 Y7.8925
G01 Y7.7925
G01 Y7.6926
G01 Y7.5927
G01 Y7.4928
G01 Y7.3928
G01 Y7.2929
G01 Y7.1930
G01 Y7.0931
G01 Y6.9931
G01 Y6.8932
G01 Y6.7933
G01 Y6.6933
G01 Y6.5934
G01 Y6.4935
G00 Z5.0000
G00 X41.2350 Y25.4867
G01 Z-3.1750
G01 X41.2505 Y25.5399
G01 X41.2656 Y25.5933
G01 X41.2801 Y25.6467
G01 X41.2943 Y25.7003
G01 X41.3079 Y25.7540
G01 X41.3211 Y25.8079
G01 X41.3338 Y25.8618
G01 X41.3460 Y25.9158
G01 X41.3578 Y25.9700
G01 X41.3690 Y26.0243
G01 X41.3798 Y26.0786
G01 X41.3902 Y26.1330
G01 X41.4000 Y26.1876
G01 X41.4094 Y26.2422
G01 X41.4183 Y26.2969
G01 X41.4268 Y26.3517
G01 X41.4347 Y26.4065
G01 X41.4422 Y26.4614
G01 X41.4492 Y26.5164
G01 X41.4557 Y26.5714
G01 X41.4617 Y26.6265
G01 X41.4673 Y26.6816
G01 X41.4723 Y26.7368
G01 X41.4769 Y26.7920
G01 X41.4810 Y26.8473
G01 X41.4847 Y26.9026
G01 X41.4878 Y26.9579
G01 X41.4905 Y27.0133
G01 X41.4926 Y27.0686
G01 X41.4943 Y27.1240
G01 Z-6.3500
G01 X41.4926 Y27.0686
G01 X41.4905 Y27.0133
G01 X41.4878 Y26.9579
G01 X41.4847 Y26.9026
G01 X41.4810 Y26.8473
G01 X41.4769 Y26.7920
G01 X41.4723 Y26.7368
G01 X41.4673 Y26.6816
G01 X41.4617 Y26.6265
G01 X41.4557 Y26.5714
G01 X41.4492 Y26.5164
G01 X41.4422 Y26.4614
G01 X41.4347 Y26.4065
G01 X41.4268 Y26.3517
G01 X41.4183 Y26.2969
G01 X41.4094 Y26.2422
G01 X41.4000 Y26.1876
G01 X41.3902 Y26.1330
G01 X41.3798 Y26.0786
G01 X41.3690 Y26.0243
G01 X41.3578 Y25.9700
G01 X41.3460 Y25.9158
G01 X41.3338 Y25.8618
G01 X41.3211 Y25.8079
G01 X41.3079 Y25.7540
G01 X41.2943 Y25.7003
G01 X41.2801 Y25.6467
G01 X41.2656 Y25.5933
G01 X41.2505 Y25.5399
G01 X41.2350 Y25.4867
G00 Z5.0000
G00 X41.4965 Y27.3402
G01 Z-3.1750
G01 Y27.4402
G01 Y27.5402
G01 Y27.6401
G01 Y27.7401
G01 Y27.8401
G01 Y27.9401
G01 Y28.0400
G01 Y28.1400
G01 Y28.2400
G01 Y28.3399
G01 Y28.4399
G01 Y28.5399
G01 Y28.6398
G01 Y28.7398
G01 Y28.8398
G01 Y28.9398
G01 Y29.0397
G01 Y29.1397
G01 Y29.2397
G01 Y29.3396
G01 Y29.4396
G01 Y29.5396
G01 Y29.6396
G01 Y29.7395
G01 Y29.8395
G01 Y29.9395
G01 Y30.0394
G01 Y30.1394
G01 Y30.2394
G01 Y30.3393
G01 Y30.4393
G01 Y30.5393
G01 Y30.6393
G01 Y30.7392
G01 Y30.8392
G01 Y30.9392
G01 Y31.0391
G01 Y31.1391
G01 Y31.2391
G01 Y31.3391
G01 Y31.4390
G01 Y31.5390
G01 Y31.6390
G01 Y31.7389
G01 Y31.8389
G01 Y31.9389
G01 Y32.0388
G01 Y32.1388
G01 Y32.2388
G01 Y32.3388
G01 Y32.4387
G01 Y32.5387
G01 Y32.6387
G01 Y32.7386
G01 Y32.8386
G01 Y32.9386
G01 Y33.0386
G01 Y33.1385
G01 Y33.2385
G01 Y33.3385
G01 Y33.4384
G01 Y33.5384
G01 Y33.6384
G01 Y33.7384
G01 Y33.8383
G01 Y33.9383
G01 Y34.0383
G01 Y34.1382
G01 Y34.2382
G01 Y34.3382
G01 Y34.4381
G01 Y34.5381
G01 Y34.6381
G01 Y34.7381
G01 Y34.8380
G01 Y34.9380
G01 Y35.0380
G01 Y35.1379
G01 Y35.2379
G01 Y35.3379
G01 Y35.4379
G01 Y35.5378
G01 Y35.6378
G01 Y35.7378
G01 Y35.8377
G01 Y35.9377
G01 Y36.0377
G01 Y36.1376
G01 Y36.2376
G01 Y36.3376
G01 Y36.4376
G01 Y36.5375
G01 Y36.6375
G01 Y36.7375
G01 Y36.8374
G01 Y36.9374
G01 Y37.0374
G01 Y37.1374
G01 Y37.2373
G01 Y37.3373
G01 Y37.4373
G01 Y37.5372
G01 Y37.6372
G01 Y37.7372
G01 Y37.8372
G01 Y37.9371
G01 Y38.0371
G01 Y38.1371
G01 Y38.2370
G01 Y38.3370
G01 Y38.4370
G01 Y38.5369
G01 Y38.6369
G01 Y38.7369
G01 Y38.8369
G01 Y38.9368
G01 Y39.0368
G01 Y39.1368
G01 Y39.2367
G01 Y39.3367
G01 Y39.4367
G01 Y39.5367
G01 Y39.6366
G01 Y39.7366
G01 Y39.8366
G01 Y39.9365
G01 Y40.0365
G01 Y40.1365
G01 Y40.2364
G01 Y40.3364
G01 Y40.4364
G01 Y40.5364
G01 Y40.6363
G01 Y40.7363
G01 Y40.8363
G01 Y40.9362
G01 Y41.0362
G01 Y41.1362
G01 Y41.2362
G01 Y41.3361
G01 Y41.4361
G01 Y41.5361
G01 Y41.6360
G01 Y41.7360
G01 Y41.8360
G01 Y41.9360
G01 Y42.0359
G01 Y42.1359
G01 Y42.2359
G01 Y42.3358
G01 Y42.4358
G01 Y42.5358
G01 Y42.6357
G01 Y42.7357
G01 Y42.8357
G01 Y42.9357
G01 Y43.0356
G01 Y43.1356
G01 Y43.2356
G01 Y43.3355
G01 Y43.4355
G01 Y43.5355
G01 Y43.6355
G01 Y43.7354
G01 Y43.8354
G01 Y43.9354
G01 Y44.0353
G01 Y44.1353
G01 Y44.2353
G01 Y44.3352
G01 Y44.4352
G01 Y44.5352
G01 Y44.6352
G01 Y44.7351
G01 Y44.8351
G01 Y44.9351
G01 Y45.0350
G01 Y45.1350
G01 Y45.2350
G01 Y45.3350
G01 Y45.4349
G01 Y45.5349
G01 Y45.6349
G01 Y45.7348
G01 Y45.8348
G01 Y45.9348
G01 Y46.0348
G01 Y46.1347
G01 Y46.2347
G01 Y46.3347
G01 Y46.4346
G01 Y46.5346
G01 Y46.6346
G01 Y46.7345
G01 Y46.8345
G01 Y46.9345
G01 Y47.0345
G01 Y47.1344
G01 Y47.2344
G01 Y47.3344
G01 Y47.4343
G01 Y47.5343
G01 Y47.6343
G01 Y47.7343
G01 Y47.8342
G01 Y47.9342
G01 Y48.0342
G01 Y48.1341
G01 Y48.2341
G01 Y48.3341
G01 Y48.4340
G01 Y48.5340
G01 Y48.6340
G01 Y48.7340
G01 Y48.8339
G01 Y48.9339
G01 Y49.0339
G01 Y49.1338
G01 Y49.2338
G01 Y49.3338
G01 Y49.4338
G01 Y49.5337
G01 Y49.6337
G01 Y49.7337
G01 Y49.8336
G01 Y49.9336
G01 Y50.0336
G01 Y50.1336
G01 Y50.2335
G01 Y50.3335
G01 Y50.4335
G01 Y50.5334
G01 Y50.6334
G01 Y50.7334
G01 Y50.8333
G01 Y50.9333
G01 Y51.0333
G01 Y51.1333
G01 Y51.2332
G01 Y51.3332
G01 Y51.4332
G01 Y51.5331
G01 Y51.6331
G01 Y51.7331
G01 Y51.8331
G01 Y51.9330
G01 Y52.0330
G01 Y52.1330
G01 Y52.2329
G01 Y52.3329
G01 Y52.4329
G01 Y52.5328
G01 Y52.6328
G01 Y52.7328
G01 Y52.8328
G01 Y52.9327
G01 Y53.0327
G01 Y53.1327
G01 Y53.2326
G01 Y53.3326
G01 Y53.4326
G01 Y53.5326
G01 Y53.6325
G01 Y53.7325
G01 Y53.8325
G01 Y53.9324
G01 Y54.0324
G01 Y54.1324
G01 Y54.2324
G01 Y54.3323
G01 Y54.4323
G01 Y54.5323
G01 Y54.6322
G01 Y54.7322
G01 Y54.8322
G01 Y54.9321
G01 Y55.0321
G01 Y55.1321
G01 Y55.2321
G01 Y55.3320
G01 Y55.4320
G01 Y55.5320
G01 Y55.6319
G01 Y55.7319
G01 Y55.8319
G01 Y55.9319
G01 Y56.0318
G01 Y56.1318
G01 Y56.2318
G01 Y56.3317
G01 Y56.4317
G01 Y56.5317
G01 Y56.6316
G01 Y56.7316
G01 Y56.8316
G01 Y56.9316
G01 Y57.0315
G01 Y57.1315
G01 Y57.2315
G01 Y57.3314
G01 Y57.4314
G01 Y57.5314
G01 Y57.6314
G01 Y57.7313
G01 Y57.8313
G01 Y57.9313
G01 Y58.0312
G01 Y58.1312
G01 Y58.2312
G01 Y58.3311
G01 Y58.4311
G01 Y58.5311
G01 Y58.6311
G01 Y58.7310
G01 Y58.8310
G01 Y58.9310
G01 Y59.0309
G01 Y59.1309
G01 Y59.2309
G01 Y59.3309
G01 Y59.4308
G01 Y59.5308
G01 Y59.6308
G01 Y59.7307
G01 Y59.8307
G01 Y59.9307
G01 Y60.0307
G01 Y60.1306
G01 Y60.2306
G01 Y60.3306
G01 Y60.4305
G01 Y60.5305
G01 Y60.6305
G01 Y60.7304
G01 Y60.8304
G01 Y60.9304
G01 Y61.0304
G01 Y61.1303
G01 Y61.2303
G01 Y61.3303
G01 Y61.4302
G01 Y61.5302
G01 Y61.6302
G01 Y61.7302
G01 Y61.8301
G01 Y61.9301
G01 Y62.0301
G01 Y62.1300
G01 Y62.2300
G01 Y62.3300
G01 Y62.4299
G01 Y62.5299
G01 Y62.6299
G01 Y62.7299
G01 Y62.8298
G01 Y62.9298
G01 Y63.0298
G01 Y63.1297
G01 Y63.2297
G01 Y63.3297
G01 Y63.4297
G01 Y63.5296
G01 Y63.6296
G01 Y63.7296
G01 Y63.8295
G01 Y63.9295
G01 Y64.0295
G01 Y64.1295
G01 Y64.2294
G01 Y64.3294
G01 Y64.4294
G01 Y64.5293
G01 Y64.6293
G01 Y64.7293
G01 Y64.8292
G01 Y64.9292
G01 Y65.0292
G01 Y65.1292
G01 Y65.2291
G01 Y65.3291
G01 Y65.4291
G01 Y65.5290
G01 Y65.6290
G01 Y65.7290
G01 Y65.8290
G01 Y65.9289
G01 Y66.0289
G01 Y66.1289
G01 Y66.2288
G01 Y66.3288
G01 Y66.4288
G01 Y66.5287
G01 Y66.6287
G01 Y66.7287
G01 Y66.8287
G01 Y66.9286
G01 Y67.0286
G01 Y67.1286
G01 Y67.2285
G01 Y67.3285
G01 Y67.4285
G01 Y67.5285
G01 Y67.6284
G01 Y67.7284
G01 Y67.8284
G01 Y67.9283
G01 Y68.0283
G01 Y68.1283
G01 Y68.2283
G01 Y68.3282
G01 Y68.4282
G01 Y68.5282
G01 Y68.6281
G01 Y68.7281
G01 Y68.8281
G01 Y68.9280
G01 Y69.0280
G01 Y69.1280
G01 Y69.2280
G01 Y69.3279
G01 Y69.4279
G01 Y69.5279
G01 Y69.6278
G01 Y69.7278
G01 Y69.8278
G01 Y69.9278
G01 Y70.0277
G01 Y70.1277
G01 Y70.2277
G01 Y70.3276
G01 Y70.4276
G01 Y70.5276
G01 Y70.6275
G01 Y70.7275
G01 Y70.8275
G01 Y70.9275
G01 Y71.0274
G01 Y71.1274
G01 Y71.2274
G01 Y71.3273
G01 Y71.4273
G01 Y71.5273
G01 Y71.6273
G01 Y71.7272
G01 Y71.8272
G01 Y71.9272
G01 Y72.0271
G01 Y72.1271
G01 Y72.2271
G01 Y72.3271
G01 Y72.4270
G01 Y72.5270
G01 Y72.6270
G01 Y72.7269
G01 Y72.8269
G01 Y72.9269
G01 Y73.0268
G01 Y73.1268
G01 Y73.2268
G01 Y73.3268
G01 Y73.4267
G01 Y73.5267
G01 Y73.6267
G01 Y73.7266
G01 Y73.8266
G01 X41.4963 Y73.9254
G01 X41.4957 Y73.9808
G01 X41.4945 Y74.0362
G01 X41.4929 Y74.0916
G01 X41.4908 Y74.1470
G01 X41.4882 Y74.2023
G01 X41.4851 Y74.2577
G01 X41.4815 Y74.3130
G01 X41.4775 Y74.3682
G01 X41.4729 Y74.4235
G01 X41.4679 Y74.4786
G01 X41.4624 Y74.5338
G01 X41.4564 Y74.5889
G01 X41.4500 Y74.6439
G01 X41.4430 Y74.6989
G01 X41.4356 Y74.7538
G01 X41.4277 Y74.8087
G01 X41.4194 Y74.8634
G01 X41.4105 Y74.9181
G01 X41.4012 Y74.9728
G01 X41.3914 Y75.0273
G01 X41.3811 Y75.0817
G01 X41.3703 Y75.1361
G01 X41.3591 Y75.1904
G01 X41.3474 Y75.2445
G01 X41.3352 Y75.2986
G01 X41.3226 Y75.3526
G01 X41.3095 Y75.4064
G01 X41.2959 Y75.4601
G01 X41.2818 Y75.5137
G01 X41.2673 Y75.5672
G01 X41.2523 Y75.6205
G01 X41.2369 Y75.6738
G01 X41.2210 Y75.7268
G01 X41.2046 Y75.7798
G01 X41.1878 Y75.8326
G01 X41.1705 Y75.8852
G01 X41.1527 Y75.9377
G01 X41.1345 Y75.9900
G01 X41.1158 Y76.0422
G01 X41.0967 Y76.0942
G01 X41.0771 Y76.1461
G01 X41.0571 Y76.1977
G01 X41.0366 Y76.2492
G01 X41.0157 Y76.3005
G01 X40.9943 Y76.3517
G01 X40.9725 Y76.4026
G01 X40.9502 Y76.4533
G01 X40.9275 Y76.5039
G01 X40.9044 Y76.5542
G01 X40.8808 Y76.6044
G01 X40.8567 Y76.6543
G01 X40.8323 Y76.7040
G01 X40.8074 Y76.7535
G01 X40.7821 Y76.8028
G01 X40.7563 Y76.8519
G01 X40.7302 Y76.9007
G01 X40.7035 Y76.9494
G01 X40.6765 Y76.9977
G01 X40.6491 Y77.0459
G01 X40.6212 Y77.0938
G01 X40.5929 Y77.1414
G01 X40.5642 Y77.1888
G01 X40.5351 Y77.2360
G01 X40.5056 Y77.2829
G01 X40.4757 Y77.3295
G01 X40.4453 Y77.3759
G01 X40.4146 Y77.4220
G01 Z-6.3500
G01 X40.4453 Y77.3759
G01 X40.4757 Y77.3295
G01 X40.5056 Y77.2829
G01 X40.5351 Y77.2360
G01 X40.5642 Y77.1888
G01 X40.5929 Y77.1414
G01 X40.6212 Y77.0938
G01 X40.6491 Y77.0459
G01 X40.6765 Y76.9977
G01 X40.7035 Y76.9494
G01 X40.7302 Y76.9007
G01 X40.7563 Y76.8519
G01 X40.7821 Y76.8028
G01 X40.8074 Y76.7535
G01 X40.8323 Y76.7040
G01 X40.8567 Y76.6543
G01 X40.8808 Y76.6044
G01 X40.9044 Y76.5542
G01 X40.9275 Y76.5039
G01 X40.9502 Y76.4533
G01 X40.9725 Y76.4026
G01 X40.9943 Y76.3517
G01 X41.0157 Y76.3005
G01 X41.0366 Y76.2492
G01 X41.0571 Y76.1977
G01 X41.0771 Y76.1461
G01 X41.0967 Y76.0942
G01 X41.1158 Y76.0422
G01 X41.1345 Y75.9900
G01 X41.1527 Y75.9377
G01 X41.1705 Y75.8852
G01 X41.1878 Y75.8326
G01 X41.2046 Y75.7798
G01 X41.2210 Y75.7268
G01 X41.2369 Y75.6738
G01 X41.2523 Y75.6205
G01 X41.2673 Y75.5672
G01 X41.2818 Y75.5137
G01 X41.2959 Y75.4601
G01 X41.3095 Y75.4064
G01 X41.3226 Y75.3526
G01 X41.3352 Y75.2986
G01 X41.3474 Y75.2445
G01 X41.3591 Y75.1904
G01 X41.3703 Y75.1361
G01 X41.3811 Y75.0817
G01 X41.3914 Y75.0273
G01 X41.4012 Y74.9728
G01 X41.4105 Y74.9181
G01 X41.4194 Y74.8634
G01 X41.4277 Y74.8087
G01 X41.4356 Y74.7538
G01 X41.4430 Y74.6989
G01 X41.4500 Y74.6439
G01 X41.4564 Y74.5889
G01 X41.4624 Y74.5338
G01 X41.4679 Y74.4786
G01 X41.4729 Y74.4235
G01 X41.4775 Y74.3682
G01 X41.4815 Y74.3130
G01 X41.4851 Y74.2577
G01 X41.4882 Y74.2023
G01 X41.4908 Y74.1470
G01 X41.4929 Y74.0916
G01 X41.4945 Y74.0362
G01 X41.4957 Y73.9808
G01 X41.4963 Y73.9254
G01 X41.4965 Y73.8266
G01 Y73.7266
G01 Y73.6267
G01 Y73.5267
G01 Y73.4267
G01 Y73.3268
G01 Y73.2268
G01 Y73.1268
G01 Y73.0268
G01 Y72.9269
G01 Y72.8269
G01 Y72.7269
G01 Y72.6270
G01 Y72.5270
G01 Y72.4270
G01 Y72.3271
G01 Y72.2271
G01 Y72.1271
G01 Y72.0271
G01 Y71.9272
G01 Y71.8272
G01 Y71.7272
G01 Y71.6273
G01 Y71.5273
G01 Y71.4273
G01 Y71.3273
G01 Y71.2274
G01 Y71.1274
G01 Y71.0274
G01 Y70.9275
G01 Y70.8275
G01 Y70.7275
G01 Y70.6275
G01 Y70.5276
G01 Y70.4276
G01 Y70.3276
G01 Y70.2277
G01 Y70.1277
G01 Y70.0277
G01 Y69.9278
G01 Y69.8278
G01 Y69.7278
G01 Y69.6278
G01 Y69.5279
G01 Y69.4279
G01 Y69.3279
G01 Y69.2280
G01 Y69.1280
G01 Y69.0280
G01 Y68.9280
G01 Y68.8281
G01 Y68.7281
G01 Y68.6281
G01 Y68.5282
G01 Y68.4282
G01 Y68.3282
G01 Y68.2283
G01 Y68.1283
G01 Y68.0283
G01 Y67.9283
G01 Y67.8284
G01 Y67.7284
G01 Y67.6284
G01 Y67.5285
G01 Y67.4285
G01 Y67.3285
G01 Y67.2285
G01 Y67.1286
G01 Y67.0286
G01 Y66.9286
G01 Y66.8287
G01 Y66.7287
G01 Y66.6287
G01 Y66.5287
G01 Y66.4288
G01 Y66.3288
G01 Y66.2288
G01 Y66.1289
G01 Y66.0289
G01 Y65.9289
G01 Y65.8290
G01 Y65.7290
G01 Y65.6290
G01 Y65.5290
G01 Y65.4291
G01 Y65.3291
G01 Y65.2291
G01 Y65.1292
G01 Y65.0292
G01 Y64.9292
G01 Y64.8292
G01 Y64.7293
G01 Y64.6293
G01 Y64.5293
G01 Y64.4294
G01 Y64.3294
G01 Y64.2294
G01 Y64.1295
G01 Y64.0295
G01 Y63.9295
G01 Y63.8295
G01 Y63.7296
G01 Y63.6296
G01 Y63.5296
G01 Y63.4297
G01 Y63.3297
G01 Y63.2297
G01 Y63.1297
G01 Y63.0298
G01 Y62.9298
G01 Y62.8298
G01 Y62.7299
G01 Y62.6299
G01 Y62.5299
G01 Y62.4299
G01 Y62.3300
G01 Y62.2300
G01 Y62.1300
G01 Y62.0301
G01 Y61.9301
G01 Y61.8301
G01 Y61.7302
G01 Y61.6302
G01 Y61.5302
G01 Y61.4302
G01 Y61.3303
G01 Y61.2303
G01 Y61.1303
G01 Y61.0304
G01 Y60.9304
G01 Y60.8304
G01 Y60.7304
G01 Y60.6305
G01 Y60.5305
G01 Y60.4305
G01 Y60.3306
G01 Y60.2306
G01 Y60.1306
G01 Y60.0307
G01 Y59.9307
G01 Y59.8307
G01 Y59.7307
G01 Y59.6308
G01 Y59.5308
G01 Y59.4308
G01 Y59.3309
G01 Y59.2309
G01 Y59.1309
G01 Y59.0309
G01 Y58.9310
G01 Y58.8310
G01 Y58.7310
G01 Y58.6311
G01 Y58.5311
G01 Y58.4311
G01 Y58.3311
G01 Y58.2312
G01 Y58.1312
G01 Y58.0312
G01 Y57.9313
G01 Y57.8313
G01 Y57.7313
G01 Y57.6314
G01 Y57.5314
G01 Y57.4314
G01 Y57.3314
G01 Y57.2315
G01 Y57.1315
G01 Y57.0315
G01 Y56.9316
G01 Y56.8316
G01 Y56.7316
G01 Y56.6316
G01 Y56.5317
G01 Y56.4317
G01 Y56.3317
G01 Y56.2318
G01 Y56.1318
G01 Y56.0318
G01 Y55.9319
G01 Y55.8319
G01 Y55.7319
G01 Y55.6319
G01 Y55.5320
G01 Y55.4320
G01 Y55.3320
G01 Y55.2321
G01 Y55.1321
G01 Y55.0321
G01 Y54.9321
G01 Y54.8322
G01 Y54.7322
G01 Y54.6322
G01 Y54.5323
G01 Y54.4323
G01 Y54.3323
G01 Y54.2324
G01 Y54.1324
G01 Y54.0324
G01 Y53.9324
G01 Y53.8325
G01 Y53.7325
G01 Y53.6325
G01 Y53.5326
G01 Y53.4326
G01 Y53.3326
G01 Y53.2326
G01 Y53.1327
G01 Y53.0327
G01 Y52.9327
G01 Y52.8328
G01 Y52.7328
G01 Y52.6328
G01 Y52.5328
G01 Y52.4329
G01 Y52.3329
G01 Y52.2329
G01 Y52.1330
G01 Y52.0330
G01 Y51.9330
G01 Y51.8331
G01 Y51.7331
G01 Y51.6331
G01 Y51.5331
G01 Y51.4332
G01 Y51.3332
G01 Y51.2332
G01 Y51.1333
G01 Y51.0333
G01 Y50.9333
G01 Y50.8333
G01 Y50.7334
G01 Y50.6334
G01 Y50.5334
G01 Y50.4335
G01 Y50.3335
G01 Y50.2335
G01 Y50.1336
G01 Y50.0336
G01 Y49.9336
G01 Y49.8336
G01 Y49.7337
G01 Y49.6337
G01 Y49.5337
G01 Y49.4338
G01 Y49.3338
G01 Y49.2338
G01 Y49.1338
G01 Y49.0339
G01 Y48.9339
G01 Y48.8339
G01 Y48.7340
G01 Y48.6340
G01 Y48.5340
G01 Y48.4340
G01 Y48.3341
G01 Y48.2341
G01 Y48.1341
G01 Y48.0342
G01 Y47.9342
G01 Y47.8342
G01 Y47.7343
G01 Y47.6343
G01 Y47.5343
G01 Y47.4343
G01 Y47.3344
G01 Y47.2344
G01 Y47.1344
G01 Y47.0345
G01 Y46.9345
G01 Y46.8345
G01 Y46.7345
G01 Y46.6346
G01 Y46.5346
G01 Y46.4346
G01 Y46.3347
G01 Y46.2347
G01 Y46.1347
G01 Y46.0348
G01 Y45.9348
G01 Y45.8348
G01 Y45.7348
G01 Y45.6349
G01 Y45.5349
G01 Y45.4349
G01 Y45.3350
G01 Y45.2350
G01 Y45.1350
G01 Y45.0350
G01 Y44.9351
G01 Y44.8351
G01 Y44.7351
G01 Y44.6352
G01 Y44.5352
G01 Y44.4352
G01 Y44.3352
G01 Y44.2353
G01 Y44.1353
G01 Y44.0353
G01 Y43.9354
G01 Y43.8354
G01 Y43.7354
G01 Y43.6355
G01 Y43.5355
G01 Y43.4355
G01 Y43.3355
G01 Y43.2356
G01 Y43.1356
G01 Y43.0356
G01 Y42.9357
G01 Y42.8357
G01 Y42.7357
G01 Y42.6357
G01 Y42.5358
G01 Y42.4358
G01 Y42.3358
G01 Y42.2359
G01 Y42.1359
G01 Y42.0359
G01 Y41.9360
G01 Y41.8360
G01 Y41.7360
G01 Y41.6360
G01 Y41.5361
G01 Y41.4361
G01 Y41.3361
G01 Y41.2362
G01 Y41.1362
G01 Y41.0362
G01 Y40.9362
G01 Y40.8363
G01 Y40.7363
G01 Y40.6363
G01 Y40.5364
G01 Y40.4364
G01 Y40.3364
G01 Y40.2364
G01 Y40.1365
G01 Y40.0365
G01 Y39.9365
G01 Y39.8366
G01 Y39.7366
G01 Y39.6366
G01 Y39.5367
G01 Y39.4367
G01 Y39.3367
G01 Y39.2367
G01 Y39.1368
G01 Y39.0368
G01 Y38.9368
G01 Y38.8369
G01 Y38.7369
G01 Y38.6369
G01 Y38.5369
G01 Y38.4370
G01 Y38.3370
G01 Y38.2370
G01 Y38.1371
G01 Y38.0371
G01 Y37.9371
G01 Y37.8372
G01 Y37.7372
G01 Y37.6372
G01 Y37.5372
G01 Y37.4373
G01 Y37.3373
G01 Y37.2373
G01 Y37.1374
G01 Y37.0374
G01 Y36.9374
G01 Y36.8374
G01 Y36.7375
G01 Y36.6375
G01 Y36.5375
G01 Y36.4376
G01 Y36.3376
G01 Y36.2376
G01 Y36.1376
G01 Y36.0377
G01 Y35.9377
G01 Y35.8377
G01 Y35.7378
G01 Y35.6378
G01 Y35.5378
G01 Y35.4379
G01 Y35.3379
G01 Y35.2379
G01 Y35.1379
G01 Y35.0380
G01 Y34.9380
G01 Y34.8380
G01 Y34.7381
G01 Y34.6381
G01 Y34.5381
G01 Y34.4381
G01 Y34.3382
G01 Y34.2382
G01 Y34.1382
G01 Y34.0383
G01 Y33.9383
G01 Y33.8383
G01 Y33.7384
G01 Y33.6384
G01 Y33.5384
G01 Y33.4384
G01 Y33.3385
G01 Y33.2385
G01 Y33.1385
G01 Y33.0386
G01 Y32.9386
G01 Y32.8386
G01 Y32.7386
G01 Y32.6387
G01 Y32.5387
G01 Y32.4387
G01 Y32.3388
G01 Y32.2388
G01 Y32.1388
G01 Y32.0388
G01 Y31.9389
G01 Y31.8389
G01 Y31.7389
G01 Y31.6390
G01 Y31.5390
G01 Y31.4390
G01 Y31.3391
G01 Y31.2391
G01 Y31.1391
G01 Y31.0391
G01 Y30.9392
G01 Y30.8392
G01 Y30.7392
G01 Y30.6393
G01 Y30.5393
G01 Y30.4393
G01 Y30.3393
G01 Y30.2394
G01 Y30.1394
G01 Y30.0394
G01 Y29.9395
G01 Y29.8395
G01 Y29.7395
G01 Y29.6396
G01 Y29.5396
G01 Y29.4396
G01 Y29.3396
G01 Y29.2397
G01 Y29.1397
G01 Y29.0397
G01 Y28.9398
G01 Y28.8398
G01 Y28.7398
G01 Y28.6398
G01 Y28.5399
G01 Y28.4399
G01 Y28.3399
G01 Y28.2400
G01 Y28.1400
G01 Y28.0400
G01 Y27.9401
G01 Y27.8401
G01 Y27.7401
G01 Y27.6401
G01 Y27.5402
G01 Y27.4402
G01 Y27.3402
G00 Z5.0000
G00 X63.4894 Y37.4396
G01 Z-0.0250
G01 X63.3894 Y37.3396 Z-0.0750
G01 X63.2894 Y37.2397 Z-0.1250
G01 X63.1895 Y37.1397 Z-0.1750
G01 X62.9895 Y36.9397 Z-0.2750
G01 X62.7895 Y36.7398 Z-0.3749
G01 X62.5896 Y36.5398 Z-0.4749
G01 X62.3896 Y36.3398 Z-0.5749
G01 X62.1896 Y36.1399 Z-0.6749
G01 X61.9897 Y35.9399 Z-0.7749
G01 X61.7897 Y35.7399 Z-0.8749
G01 X61.7476 Y35.6399 Z-0.8959
G01 Y35.5400
G01 Y35.4400
G01 Y35.3400
G01 Y35.2400
G01 Y35.1400
G01 Y35.0400
G01 Y34.9401
G01 Y34.8401
G01 Y34.7401
G01 Y34.6401
G01 Y34.5401
G01 Y34.4401
G01 Y34.3402
G01 Y34.2402
G01 Y34.1402
G01 Y34.0402
G01 Y33.9402
G01 Y33.8402
G01 Y33.7403
G01 Y33.6403
G01 Y33.5403
G01 Y33.4403
G01 Y33.3403
G01 Y33.2404
G01 Y33.1404
G01 Y33.0404
G01 Y32.9404
G01 Y32.8404
G01 Y32.7404
G01 Y32.6405
G01 Y32.5405
G01 Y32.4405
G01 Y32.3405
G01 Y32.2405
G01 Y32.1405
G01 Y32.0406
G01 Y31.9406
G01 Y31.8406
G01 Y31.7406
G01 Y31.6406
G01 Y31.5406
G01 Y31.4407
G01 Y31.3407
G01 Y31.2407
G01 Y31.1407
G01 Y31.0407
G01 Y30.9407
G01 Y30.8408
G01 Y30.7408
G01 Y30.6408
G01 Y30.5408
G01 Y30.4408
G01 Y30.3408
G01 Y30.2409
G01 Y30.1409
G01 Y30.0409
G01 Y29.9409
G01 Y29.8409
G01 Y29.7410
G01 Y29.6410
G01 Y29.5410
G01 Y29.4410
G01 Y29.3410
G01 Y29.2410
G01 Y29.1411
G01 Y29.0411
G01 Y28.9411
G01 Y28.8411
G01 Y28.7411
G01 Y28.6411
G01 Y28.5412
G01 Y28.4412
G01 Y28.3412
G01 Y28.2412
G01 Y28.1412
G01 Y28.0412
G01 Y27.9413
G01 Y27.8413
G01 Y27.7413
G01 Y27.6413
G01 Y27.5413
G01 Y27.4413
G01 Y27.3414
G01 X61.7473 Y27.2414 Z-0.8961
G01 X61.7445 Y27.1414 Z-0.8974
G01 X61.7390 Y27.0414 Z-0.9002
G01 X61.7306 Y26.9414 Z-0.9044
G01 X61.7195 Y26.8414 Z-0.9099
G01 X61.7056 Y26.7415 Z-0.9169
G01 X61.6889 Y26.6415 Z-0.9253
G01 X61.6694 Y26.5415 Z-0.9350
G01 X61.6471 Y26.4415 Z-0.9461
G01 X61.6220 Y26.3415 Z-0.9587
G01 X61.5942 Y26.2416 Z-0.9726
G01 X61.5635 Y26.1416 Z-0.9879
G01 X61.5301 Y26.0416 Z-1.0047
G01 X61.4938 Y25.9416 Z-1.0228
G01 X61.4548 Y25.8416 Z-1.0423
G01 X61.4130 Y25.7416 Z-1.0632
G01 X61.3684 Y25.6417 Z-1.0855
G01 X61.3210 Y25.5417 Z-1.1092
G01 X61.2708 Y25.4417 Z-1.1343
G01 X61.2382 Y25.3417 Z-1.1506
G01 X61.2901 Y25.2417 Z-1.1246
G01 X61.3393 Y25.1417 Z-1.1001
G01 X61.3856 Y25.0418 Z-1.0769
G01 X61.4292 Y24.9418 Z-1.0551
G01 X61.4699 Y24.8418 Z-1.0347
G01 X61.5079 Y24.7418 Z-1.0158
G01 X61.5431 Y24.6418 Z-0.9982
G01 X61.5754 Y24.5418 Z-0.9820
G01 X61.6050 Y24.4419 Z-0.9672
G01 X61.6318 Y24.3419 Z-0.9538
G01 X61.6559 Y24.2419 Z-0.9418
G01 X61.6771 Y24.1419 Z-0.9311
G01 X61.6955 Y24.0419 Z-0.9219
G01 X61.7112 Y23.9419 Z-0.9141
G01 X61.7240 Y23.8420 Z-0.9077
G01 X61.7341 Y23.7420 Z-0.9026
G01 X61.7414 Y23.6420 Z-0.8990
G01 X61.7459 Y23.5420 Z-0.8968
G01 X61.7476 Y23.4420 Z-0.8959
G01 Y23.3420
G01 Y23.2421
G01 Y23.1421
G01 Y23.0421
G01 Y22.9421
G01 Y22.8421
G01 Y22.7421
G01 Y22.6422
G01 Y22.5422
G01 Y22.4422
G01 Y22.3422
G01 Y22.2422
G01 Y22.1423
G01 Y22.0423
G01 Y21.9423
G01 Y21.8423
G01 Y21.7423
G01 Y21.6423
G01 Y21.5424
G01 Y21.4424
G01 Y21.3424
G01 Y21.2424
G01 Y21.1424
G01 Y21.0424
G01 Y20.9425
G01 Y20.8425
G01 Y20.7425
G01 Y20.6425
G01 Y20.5425
G01 Y20.4425
G01 Y20.3426
G01 Y20.2426
G01 Y20.1426
G01 Y20.0426
G01 Y19.9426
G01 Y19.8426
G01 Y19.7427
G01 Y19.6427
G01 Y19.5427
G01 Y19.4427
G01 Y19.3427
G01 Y19.2427
G01 Y19.1428
G01 Y19.0428
G01 Y18.9428
G01 Y18.8428
G01 Y18.7428
G01 Y18.6429
G01 Y18.5429
G01 Y18.4429
G01 Y18.3429
G01 Y18.2429
G01 Y18.1429
G01 Y18.0430
G01 Y17.9430
G01 Y17.8430
G01 Y17.7430
G01 Y17.6430
G01 Y17.5430
G01 Y17.4431
G01 Y17.3431
G01 Y17.2431
G01 Y17.1431
G01 Y17.0431
G01 Y16.9431
G01 Y16.8432
G01 Y16.7432
G01 Y16.6432
G01 Y16.5432
G01 Y16.4432
G01 Y16.3432
G01 Y16.2433
G01 Y16.1433
G01 Y16.0433
G01 Y15.9433
G01 Y15.8433
G01 Y15.7433
G01 Y15.6434
G01 Y15.5434
G01 Y15.4434
G01 Y15.3434
G01 Y15.2434
G01 Y15.1435
G01 Y15.0435
G01 Y14.9435
G01 X61.7897 Y14.8435 Z-0.8749
G01 X61.8897 Y14.7435 Z-0.8249
G01 X61.9897 Y14.6435 Z-0.7749
G01 X62.0896 Y14.5436 Z-0.7249
G01 X62.1896 Y14.4436 Z-0.6749
G01 X62.2896 Y14.3436 Z-0.6249
G01 X62.3896 Y14.2436 Z-0.5749
G01 X62.4896 Y14.1436 Z-0.5249
G01 X62.5896 Y14.0436 Z-0.4749
G01 X62.6895 Y13.9437 Z-0.4249
G01 X62.7895 Y13.8437 Z-0.3749
G01 X62.8895 Y13.7437 Z-0.3249
G01 X62.9895 Y13.6437 Z-0.2750
G01 X63.0895 Y13.5437 Z-0.2250
G01 X63.1895 Y13.4437 Z-0.1750
G01 X63.2894 Y13.3438 Z-0.1250
G01 X63.3894 Y13.2438 Z-0.0750
G01 X63.4894 Y13.1438 Z-0.0250
G01 X63.5394 Y13.0938 Z0.0000
G01 X63.4896 Y13.1436 Z-0.0249
G01 X63.3901 Y13.2431 Z-0.0747
G01 X63.2905 Y13.3427 Z-0.1244
G01 X63.1910 Y13.4422 Z-0.1742
G01 X62.9919 Y13.6413 Z-0.2737
G01 X62.7928 Y13.8404 Z-0.3733
G01 X62.5937 Y14.0395 Z-0.4728
G01 X62.3946 Y14.2386 Z-0.5724
G01 X62.1956 Y14.4376 Z-0.6719
G01 X61.9965 Y14.6367 Z-0.7715
G01 X61.7974 Y14.8358 Z-0.8710
G01 X61.6978
G01 X61.5983 Y14.7363 Z-0.8212
G01 X61.4987 Y14.6367 Z-0.7715
G01 X61.3992 Y14.5372 Z-0.7217
G01 X61.2997 Y14.4376 Z-0.6719
G01 X61.2001 Y14.3381 Z-0.6221
G01 X61.1006 Y14.2386 Z-0.5724
