(Project KidWallRuler6)
(Created by Estlcam version 11 build 11.029)
(Machining time about 00:00:40 hours)

(Required tools:)
(1/2" Chamfer)
G21
G90
G94
M03 S24000
G00 Z5.0000


(No. 1: Carve 3)
G00 X10.1205 Y19.3332
G01 Z-3.1750 F1270 S24000
G01 X10.1124 Y19.4309
G01 X10.1042 Y19.5286
G01 X10.0961 Y19.6263
G01 X10.0879 Y19.7240
G01 X10.0798 Y19.8216
G01 X10.0716 Y19.9193
G01 X10.0635 Y20.0170
G01 X10.0553 Y20.1147
G01 X10.0472 Y20.2124
G01 X10.0335 Y20.3891
G01 X10.0262 Y20.4915
G01 X10.0189 Y20.5938
G01 X10.0116 Y20.6962
G01 X10.0043 Y20.7985
G01 X9.9970 Y20.9009
G01 X9.9897 Y21.0032
G01 X9.9825 Y21.1056
G01 X9.9752 Y21.2079
G01 X9.9679 Y21.3103
G01 X9.9606 Y21.4127
G01 X9.9533 Y21.5150
G01 X9.9460 Y21.6174
G01 X9.9387 Y21.7197
G01 X9.9274 Y21.8910
G01 X9.9214 Y21.9909
G01 X9.9154 Y22.0908
G01 X9.9094 Y22.1907
G01 X9.9034 Y22.2906
G01 X9.8974 Y22.3905
G01 X9.8914 Y22.4904
G01 X9.8854 Y22.5903
G01 X9.8794 Y22.6902
G01 X9.8734 Y22.7901
G01 X9.8674 Y22.8899
G01 X9.8614 Y22.9898
G01 X9.8553 Y23.0897
G01 X9.8493 Y23.1896
G01 X9.8433 Y23.2895
G01 X9.8343 Y23.4528
G01 X9.8295 Y23.5505
G01 X9.8246 Y23.6483
G01 X9.8197 Y23.7460
G01 X9.8148 Y23.8437
G01 X9.8099 Y23.9415
G01 X9.8051 Y24.0392
G01 X9.8002 Y24.1369
G01 X9.7953 Y24.2347
G01 X9.7904 Y24.3324
G01 X9.7855 Y24.4301
G01 X9.7807 Y24.5279
G01 X9.7758 Y24.6256
G01 X9.7709 Y24.7233
G01 X9.7660 Y24.8211
G01 X9.7611 Y24.9188
G01 X9.7539 Y25.0780
G01 X9.7498 Y25.1798
G01 X9.7457 Y25.2816
G01 X9.7416 Y25.3834
G01 X9.7374 Y25.4852
G01 X9.7333 Y25.5871
G01 X9.7292 Y25.6889
G01 X9.7250 Y25.7907
G01 X9.7209 Y25.8925
G01 X9.7168 Y25.9944
G01 X9.7126 Y26.0962
G01 X9.7085 Y26.1980
G01 X9.7044 Y26.2998
G01 X9.7003 Y26.4017
G01 X9.6961 Y26.5035
G01 X9.6920 Y26.6053
G01 X9.6864 Y26.7609
G01 X9.6832 Y26.8606
G01 X9.6800 Y26.9603
G01 X9.6768 Y27.0599
G01 X9.6736 Y27.1596
G01 X9.6705 Y27.2593
G01 X9.6673 Y27.3590
G01 X9.6641 Y27.4587
G01 X9.6609 Y27.5583
G01 X9.6577 Y27.6580
G01 X9.6546 Y27.7577
G01 X9.6514 Y27.8574
G01 X9.6482 Y27.9571
G01 X9.6450 Y28.0567
G01 X9.6418 Y28.1564
G01 X9.6387 Y28.2561
G01 X9.6355 Y28.3558
G01 X9.6313 Y28.5053
G01 X9.6290 Y28.6031
G01 X9.6266 Y28.7009
G01 X9.6243 Y28.7987
G01 X9.6220 Y28.8964
G01 X9.6196 Y28.9942
G01 X9.6173 Y29.0920
G01 X9.6149 Y29.1898
G01 X9.6126 Y29.2875
G01 X9.6103 Y29.3853
G01 X9.6079 Y29.4831
G01 X9.6056 Y29.5809
G01 X9.6033 Y29.6787
G01 X9.6009 Y29.7764
G01 X9.5986 Y29.8742
G01 X9.5963 Y29.9720
G01 X9.5939 Y30.0698
G01 X9.5916 Y30.1675
G01 X9.5886 Y30.3143
G01 X9.5870 Y30.4157
G01 X9.5853 Y30.5171
G01 X9.5836 Y30.6186
G01 X9.5820 Y30.7200
G01 X9.5803 Y30.8214
G01 X9.5786 Y30.9228
G01 X9.5770 Y31.0242
G01 X9.5753 Y31.1256
G01 X9.5736 Y31.2270
G01 X9.5719 Y31.3284
G01 X9.5703 Y31.4298
G01 X9.5686 Y31.5313
G01 X9.5669 Y31.6327
G01 X9.5653 Y31.7341
G01 X9.5636 Y31.8355
G01 X9.5619 Y31.9369
G01 X9.5603 Y32.0383
G01 X9.5584 Y32.1827
G01 X9.5574 Y32.2822
G01 X9.5565 Y32.3817
G01 X9.5555 Y32.4813
G01 X9.5546 Y32.5808
G01 X9.5536 Y32.6803
G01 X9.5527 Y32.7798
G01 X9.5517 Y32.8793
G01 X9.5508 Y32.9788
G01 X9.5499 Y33.0784
G01 X9.5489 Y33.1779
G01 X9.5480 Y33.2774
G01 X9.5470 Y33.3769
G01 X9.5461 Y33.4764
G01 X9.5451 Y33.5759
G01 X9.5442 Y33.6754
G01 X9.5432 Y33.7750
G01 X9.5423 Y33.8745
G01 X9.5413 Y33.9740
G01 X9.5404 Y34.1137
G01 X9.5401 Y34.2115
G01 X9.5398 Y34.3093
G01 X9.5395 Y34.4071
G01 X9.5392 Y34.5049
G01 X9.5389 Y34.6027
G01 X9.5386 Y34.7005
G01 X9.5383 Y34.7983
G01 X9.5380 Y34.8962
G01 X9.5377 Y34.9940
G01 X9.5374 Y35.0918
G01 X9.5371 Y35.1896
G01 X9.5368 Y35.2874
G01 X9.5365 Y35.3852
G01 X9.5362 Y35.4830
G01 X9.5359 Y35.5808
G01 X9.5356 Y35.6786
G01 X9.5353 Y35.7764
G01 X9.5350 Y35.8743
G01 X9.5347 Y35.9721
G01 X9.5345 Y36.0825
G01 Y36.1664
G01 Y36.2504
G01 Y36.3546
G01 Y36.4789
G01 Y36.6024
G01 Y36.7250
G01 Y36.8468
G01 Y36.9678
G01 Y37.0879
G01 Y37.2072
G01 Y37.3136
G01 Y37.4070
G01 Y37.5005
G01 Y37.5939
G01 Y37.6873
G01 Y37.7912
G01 Y37.9055
G01 Y38.0190
G01 Y38.1316
G01 Y38.2370
G01 Y38.3351
G01 Y38.4333
G01 Y38.5314
G01 Y38.6296
G01 Y38.7278
G01 Y38.8259
G01 Y38.9241
G01 Y39.0222
G01 Y39.1204
G01 Y39.2185
G01 Y39.3167
G01 Y39.4148
G01 Y39.5130
G01 Y39.6112
G01 Y39.7093
G01 Y39.8075
G01 Y39.9056
G01 Y40.0038
G01 Y40.1019
G01 Y40.2001
G01 Y40.2982
G01 Y40.3964
G01 X9.5522 Y40.9210
G01 X9.5589 Y41.0203
G01 X9.5660 Y41.1260
G01 X9.5727 Y41.2236
G01 X9.5799 Y41.3279
G01 Z-6.3500
G01 X9.5727 Y41.2236
G01 X9.5660 Y41.1260
G01 X9.5589 Y41.0203
G01 X9.5522 Y40.9210
G01 X9.5345 Y40.3964
G01 Y40.2982
G01 Y40.2001
G01 Y40.1019
G01 Y40.0038
G01 Y39.9056
G01 Y39.8075
G01 Y39.7093
G01 Y39.6112
G01 Y39.5130
G01 Y39.4148
G01 Y39.3167
G01 Y39.2185
G01 Y39.1204
G01 Y39.0222
G01 Y38.9241
G01 Y38.8259
G01 Y38.7278
G01 Y38.6296
G01 Y38.5314
G01 Y38.4333
G01 Y38.3351
G01 Y38.2370
G01 Y38.1316
G01 Y38.0190
G01 Y37.9055
G01 Y37.7912
G01 Y37.6873
G01 Y37.5939
G01 Y37.5005
G01 Y37.4070
G01 Y37.3136
G01 Y37.2072
G01 Y37.0879
G01 Y36.9678
G01 Y36.8468
G01 Y36.7250
G01 Y36.6024
G01 Y36.4789
G01 Y36.3546
G01 Y36.2504
G01 Y36.1664
G01 Y36.0825
G01 X9.5347 Y35.9721
G01 X9.5350 Y35.8743
G01 X9.5353 Y35.7764
G01 X9.5356 Y35.6786
G01 X9.5359 Y35.5808
G01 X9.5362 Y35.4830
G01 X9.5365 Y35.3852
G01 X9.5368 Y35.2874
G01 X9.5371 Y35.1896
G01 X9.5374 Y35.0918
G01 X9.5377 Y34.9940
G01 X9.5380 Y34.8962
G01 X9.5383 Y34.7983
G01 X9.5386 Y34.7005
G01 X9.5389 Y34.6027
G01 X9.5392 Y34.5049
G01 X9.5395 Y34.4071
G01 X9.5398 Y34.3093
G01 X9.5401 Y34.2115
G01 X9.5404 Y34.1137
G01 X9.5413 Y33.9740
G01 X9.5423 Y33.8745
G01 X9.5432 Y33.7750
G01 X9.5442 Y33.6754
G01 X9.5451 Y33.5759
G01 X9.5461 Y33.4764
G01 X9.5470 Y33.3769
G01 X9.5480 Y33.2774
G01 X9.5489 Y33.1779
G01 X9.5499 Y33.0784
G01 X9.5508 Y32.9788
G01 X9.5517 Y32.8793
G01 X9.5527 Y32.7798
G01 X9.5536 Y32.6803
G01 X9.5546 Y32.5808
G01 X9.5555 Y32.4813
G01 X9.5565 Y32.3817
G01 X9.5574 Y32.2822
G01 X9.5584 Y32.1827
G01 X9.5603 Y32.0383
G01 X9.5619 Y31.9369
G01 X9.5636 Y31.8355
G01 X9.5653 Y31.7341
G01 X9.5669 Y31.6327
G01 X9.5686 Y31.5313
G01 X9.5703 Y31.4298
G01 X9.5719 Y31.3284
G01 X9.5736 Y31.2270
G01 X9.5753 Y31.1256
G01 X9.5770 Y31.0242
G01 X9.5786 Y30.9228
G01 X9.5803 Y30.8214
G01 X9.5820 Y30.7200
G01 X9.5836 Y30.6186
G01 X9.5853 Y30.5171
G01 X9.5870 Y30.4157
G01 X9.5886 Y30.3143
G01 X9.5916 Y30.1675
G01 X9.5939 Y30.0698
G01 X9.5963 Y29.9720
G01 X9.5986 Y29.8742
G01 X9.6009 Y29.7764
G01 X9.6033 Y29.6787
G01 X9.6056 Y29.5809
G01 X9.6079 Y29.4831
G01 X9.6103 Y29.3853
G01 X9.6126 Y29.2875
G01 X9.6149 Y29.1898
G01 X9.6173 Y29.0920
G01 X9.6196 Y28.9942
G01 X9.6220 Y28.8964
G01 X9.6243 Y28.7987
G01 X9.6266 Y28.7009
G01 X9.6290 Y28.6031
G01 X9.6313 Y28.5053
G01 X9.6355 Y28.3558
G01 X9.6387 Y28.2561
G01 X9.6418 Y28.1564
G01 X9.6450 Y28.0567
G01 X9.6482 Y27.9571
G01 X9.6514 Y27.8574
G01 X9.6546 Y27.7577
G01 X9.6577 Y27.6580
G01 X9.6609 Y27.5583
G01 X9.6641 Y27.4587
G01 X9.6673 Y27.3590
G01 X9.6705 Y27.2593
G01 X9.6736 Y27.1596
G01 X9.6768 Y27.0599
G01 X9.6800 Y26.9603
G01 X9.6832 Y26.8606
G01 X9.6864 Y26.7609
G01 X9.6920 Y26.6053
G01 X9.6961 Y26.5035
G01 X9.7003 Y26.4017
G01 X9.7044 Y26.2998
G01 X9.7085 Y26.1980
G01 X9.7126 Y26.0962
G01 X9.7168 Y25.9944
G01 X9.7209 Y25.8925
G01 X9.7250 Y25.7907
G01 X9.7292 Y25.6889
G01 X9.7333 Y25.5871
G01 X9.7374 Y25.4852
G01 X9.7416 Y25.3834
G01 X9.7457 Y25.2816
G01 X9.7498 Y25.1798
G01 X9.7539 Y25.0780
G01 X9.7611 Y24.9188
G01 X9.7660 Y24.8211
G01 X9.7709 Y24.7233
G01 X9.7758 Y24.6256
G01 X9.7807 Y24.5279
G01 X9.7855 Y24.4301
G01 X9.7904 Y24.3324
G01 X9.7953 Y24.2347
G01 X9.8002 Y24.1369
G01 X9.8051 Y24.0392
G01 X9.8099 Y23.9415
G01 X9.8148 Y23.8437
G01 X9.8197 Y23.7460
G01 X9.8246 Y23.6483
G01 X9.8295 Y23.5505
G01 X9.8343 Y23.4528
G01 X9.8433 Y23.2895
G01 X9.8493 Y23.1896
G01 X9.8553 Y23.0897
G01 X9.8614 Y22.9898
G01 X9.8674 Y22.8899
G01 X9.8734 Y22.7901
G01 X9.8794 Y22.6902
G01 X9.8854 Y22.5903
G01 X9.8914 Y22.4904
G01 X9.8974 Y22.3905
G01 X9.9034 Y22.2906
G01 X9.9094 Y22.1907
G01 X9.9154 Y22.0908
G01 X9.9214 Y21.9909
G01 X9.9274 Y21.8910
G01 X9.9387 Y21.7197
G01 X9.9460 Y21.6174
G01 X9.9533 Y21.5150
G01 X9.9606 Y21.4127
G01 X9.9679 Y21.3103
G01 X9.9752 Y21.2079
G01 X9.9825 Y21.1056
G01 X9.9897 Y21.0032
G01 X9.9970 Y20.9009
G01 X10.0043 Y20.7985
G01 X10.0116 Y20.6962
G01 X10.0189 Y20.5938
G01 X10.0262 Y20.4915
G01 X10.0335 Y20.3891
G01 X10.0472 Y20.2124
G01 X10.0553 Y20.1147
G01 X10.0635 Y20.0170
G01 X10.0716 Y19.9193
G01 X10.0798 Y19.8216
G01 X10.0879 Y19.7240
G01 X10.0961 Y19.6263
G01 X10.1042 Y19.5286
G01 X10.1124 Y19.4309
G01 X10.1205 Y19.3332
G00 Z5.0000
G00 X9.5938 Y41.5267
G01 Z-3.1750
G01 X9.6005 Y41.6210
G01 X9.6077 Y41.7224
G01 X9.6144 Y41.8150
G01 X9.6217 Y41.9151
G01 X9.6283 Y42.0061
G01 X9.6356 Y42.1048
G01 X9.6423 Y42.1941
G01 X9.6497 Y42.2915
G01 X9.6563 Y42.3791
G01 X9.6637 Y42.4752
G01 X9.6704 Y42.5611
G01 X9.6778 Y42.6559
G01 X9.6845 Y42.7401
G01 X9.6920 Y42.8336
G01 X9.6987 Y42.9162
G01 X9.7062 Y43.0085
G01 X9.7129 Y43.0894
G01 X9.7205 Y43.1804
G01 X9.7271 Y43.2597
G01 X9.7348 Y43.3495
G01 X9.7414 Y43.4270
G01 X9.7492 Y43.5157
G01 X9.7558 Y43.5916
G01 X9.7669 Y43.7162
G01 X9.7815 Y43.8760
G01 X9.7961 Y44.0331
G01 X9.8108 Y44.1874
G01 X9.8256 Y44.3392
G01 X9.8323 Y44.4067
G01 X9.8379 Y44.4619
G01 X9.8441 Y44.5169
G01 X9.8508 Y44.5719
G01 X9.8579 Y44.6269
G01 X9.8655 Y44.6818
G01 X9.8736 Y44.7366
G01 X9.8821 Y44.7914
G01 X9.8912 Y44.8460
G01 X9.9007 Y44.9006
G01 X9.9107 Y44.9551
G01 X9.9212 Y45.0095
G01 X9.9321 Y45.0639
G01 X9.9435 Y45.1181
G01 X9.9554 Y45.1722
G01 X9.9678 Y45.2262
G01 X9.9806 Y45.2801
G01 X9.9939 Y45.3339
G01 X10.0077 Y45.3876
G01 X10.0219 Y45.4412
G01 X10.0366 Y45.4946
G01 X10.0518 Y45.5479
G01 X10.0674 Y45.6010
G01 X10.0835 Y45.6541
G01 X10.1001 Y45.7070
G01 X10.1171 Y45.7597
G01 X10.1346 Y45.8123
G01 X10.1526 Y45.8647
G01 X10.1710 Y45.9170
G01 X10.1898 Y45.9691
G01 X10.2091 Y46.0210
G01 X10.2289 Y46.0728
G01 X10.2491 Y46.1244
G01 X10.2697 Y46.1758
G01 X10.2909 Y46.2270
G01 X10.3124 Y46.2781
G01 X10.3344 Y46.3290
G01 X10.3569 Y46.3796
G01 X10.3797 Y46.4301
G01 X10.4031 Y46.4804
G01 X10.4268 Y46.5304
G01 X10.4510 Y46.5803
G01 X10.4756 Y46.6299
G01 X10.5007 Y46.6793
G01 X10.5262 Y46.7285
G01 X10.5521 Y46.7775
G01 X10.5785 Y46.8263
G01 X10.6052 Y46.8748
G01 Z-6.3500
G01 X10.5785 Y46.8263
G01 X10.5521 Y46.7775
G01 X10.5262 Y46.7285
G01 X10.5007 Y46.6793
G01 X10.4756 Y46.6299
G01 X10.4510 Y46.5803
G01 X10.4268 Y46.5304
G01 X10.4031 Y46.4804
G01 X10.3797 Y46.4301
G01 X10.3569 Y46.3796
G01 X10.3344 Y46.3290
G01 X10.3124 Y46.2781
G01 X10.2909 Y46.2270
G01 X10.2697 Y46.1758
G01 X10.2491 Y46.1244
G01 X10.2289 Y46.0728
G01 X10.2091 Y46.0210
G01 X10.1898 Y45.9691
G01 X10.1710 Y45.9170
G01 X10.1526 Y45.8647
G01 X10.1346 Y45.8123
G01 X10.1171 Y45.7597
G01 X10.1001 Y45.7070
G01 X10.0835 Y45.6541
G01 X10.0674 Y45.6010
G01 X10.0518 Y45.5479
G01 X10.0366 Y45.4946
G01 X10.0219 Y45.4412
G01 X10.0077 Y45.3876
G01 X9.9939 Y45.3339
G01 X9.9806 Y45.2801
G01 X9.9678 Y45.2262
G01 X9.9554 Y45.1722
G01 X9.9435 Y45.1181
G01 X9.9321 Y45.0639
G01 X9.9212 Y45.0095
G01 X9.9107 Y44.9551
G01 X9.9007 Y44.9006
G01 X9.8912 Y44.8460
G01 X9.8821 Y44.7914
G01 X9.8736 Y44.7366
G01 X9.8655 Y44.6818
G01 X9.8579 Y44.6269
G01 X9.8508 Y44.5719
G01 X9.8441 Y44.5169
G01 X9.8379 Y44.4619
G01 X9.8323 Y44.4067
G01 X9.8256 Y44.3392
G01 X9.8108 Y44.1874
G01 X9.7961 Y44.0331
G01 X9.7815 Y43.8760
G01 X9.7669 Y43.7162
G01 X9.7558 Y43.5916
G01 X9.7492 Y43.5157
G01 X9.7414 Y43.4270
G01 X9.7348 Y43.3495
G01 X9.7271 Y43.2597
G01 X9.7205 Y43.1804
G01 X9.7129 Y43.0894
G01 X9.7062 Y43.0085
G01 X9.6987 Y42.9162
G01 X9.6920 Y42.8336
G01 X9.6845 Y42.7401
G01 X9.6778 Y42.6559
G01 X9.6704 Y42.5611
G01 X9.6637 Y42.4752
G01 X9.6563 Y42.3791
G01 X9.6497 Y42.2915
G01 X9.6423 Y42.1941
G01 X9.6356 Y42.1048
G01 X9.6283 Y42.0061
G01 X9.6217 Y41.9151
G01 X9.6144 Y41.8150
G01 X9.6077 Y41.7224
G01 X9.6005 Y41.6210
G01 X9.5938 Y41.5267
G00 Z5.0000
G00 X27.4644 Y78.0932
G01 Z-1.5432
G01 X27.5455 Y78.1532 Z-1.5400
G01 X27.6274 Y78.2122 Z-1.5361
G01 X27.7096 Y78.2708 Z-1.5320
G01 X27.7918 Y78.3295 Z-1.5280
G01 X27.8740 Y78.3882 Z-1.5239
G01 X27.9562 Y78.4469 Z-1.5198
G01 X28.0384 Y78.5056 Z-1.5157
G01 X28.1206 Y78.5642 Z-1.5117
G01 X28.2028 Y78.6229 Z-1.5076
G01 X28.2850 Y78.6816 Z-1.5035
G01 X28.3672 Y78.7403 Z-1.4994
G01 X28.4494 Y78.7990 Z-1.4953
G01 X28.5316 Y78.8577 Z-1.4913
G01 X28.6138 Y78.9163 Z-1.4872
G01 X28.8012 Y79.0472 Z-1.4792
G01 X28.8853 Y79.1045 Z-1.4761
G01 X28.9694 Y79.1619 Z-1.4731
G01 X29.0535 Y79.2193 Z-1.4701
G01 X29.1376 Y79.2766 Z-1.4671
G01 X29.2228 Y79.3327 Z-1.4632
G01 X29.3080 Y79.3886 Z-1.4592
G01 X29.3932 Y79.4445 Z-1.4553
G01 X29.4784 Y79.5005 Z-1.4514
G01 X29.5636 Y79.5564 Z-1.4474
G01 X29.6488 Y79.6123 Z-1.4435
G01 X29.7340 Y79.6683 Z-1.4396
G01 X29.8192 Y79.7242 Z-1.4357
G01 X29.9045 Y79.7801 Z-1.4317
G01 X29.9897 Y79.8361 Z-1.4278
G01 X30.1765 Y79.9560 Z-1.4204
G01 X30.2638 Y80.0106 Z-1.4175
G01 X30.3510 Y80.0653 Z-1.4146
G01 X30.4382 Y80.1200 Z-1.4117
G01 X30.5254 Y80.1746 Z-1.4088
G01 X30.6126 Y80.2293 Z-1.4059
G01 X30.6998 Y80.2840 Z-1.4030
G01 X30.7875 Y80.3381 Z-1.3998
G01 X30.8758 Y80.3913 Z-1.3959
G01 X30.9641 Y80.4444 Z-1.3921
G01 X31.0524 Y80.4976 Z-1.3883
G01 X31.1407 Y80.5507 Z-1.3845
G01 X31.2290 Y80.6039 Z-1.3806
G01 X31.3172 Y80.6570 Z-1.3768
G01 X31.4055 Y80.7102 Z-1.3730
G01 X31.5888 Y80.8180 Z-1.3661
G01 X31.6736 Y80.8667 Z-1.3635
G01 X31.7583 Y80.9154 Z-1.3609
G01 X31.8431 Y80.9640 Z-1.3583
G01 X31.9278 Y81.0127 Z-1.3556
G01 X32.0126 Y81.0614 Z-1.3530
G01 X32.0973 Y81.1101 Z-1.3504
G01 X32.1821 Y81.1588 Z-1.3477
G01 X32.2668 Y81.2075 Z-1.3451
G01 X32.3516 Y81.2561 Z-1.3425
G01 X32.4368 Y81.3041 Z-1.3394
G01 X32.5225 Y81.3513 Z-1.3359
G01 X32.6082 Y81.3985 Z-1.3323
G01 X32.6939 Y81.4457 Z-1.3288
G01 X32.7797 Y81.4928 Z-1.3253
G01 X32.8654 Y81.5400 Z-1.3218
G01 X33.0448 Y81.6364 Z-1.3154
G01 X33.1326 Y81.6825 Z-1.3128
G01 X33.2203 Y81.7285 Z-1.3102
G01 X33.3081 Y81.7746 Z-1.3076
G01 X33.3959 Y81.8207 Z-1.3051
G01 X33.4837 Y81.8667 Z-1.3025
G01 X33.5715 Y81.9128 Z-1.2999
G01 X33.6592 Y81.9588 Z-1.2973
G01 X33.7470 Y82.0049 Z-1.2947
G01 X33.8348 Y82.0509 Z-1.2921
G01 X33.9226 Y82.0970 Z-1.2895
G01 X34.0104 Y82.1431 Z-1.2869
G01 X34.0985 Y82.1886 Z-1.2840
G01 X34.1872 Y82.2330 Z-1.2805
G01 X34.2759 Y82.2775 Z-1.2770
G01 X34.3647 Y82.3220 Z-1.2735
G01 X34.5428 Y82.4091 Z-1.2674
G01 X34.6336 Y82.4525 Z-1.2648
G01 X34.7245 Y82.4959 Z-1.2622
G01 X34.8154 Y82.5392 Z-1.2596
G01 X34.9062 Y82.5826 Z-1.2570
G01 X34.9971 Y82.6260 Z-1.2544
G01 X35.0880 Y82.6694 Z-1.2519
G01 X35.1788 Y82.7127 Z-1.2493
G01 X35.2697 Y82.7561 Z-1.2467
G01 X35.3605 Y82.7995 Z-1.2441
G01 X35.4514 Y82.8428 Z-1.2415
G01 X35.5423 Y82.8862 Z-1.2389
G01 X35.6331 Y82.9296 Z-1.2363
G01 X35.7240 Y82.9730 Z-1.2337
G01 X35.8153 Y83.0154 Z-1.2306
G01 X35.9071 Y83.0571 Z-1.2271
G01 X36.0838 Y83.1355 Z-1.2212
G01 X36.1778 Y83.1761 Z-1.2186
G01 X36.2718 Y83.2167 Z-1.2159
G01 X36.3658 Y83.2573 Z-1.2133
G01 X36.4598 Y83.2980 Z-1.2107
G01 X36.5538 Y83.3386 Z-1.2080
G01 X36.6477 Y83.3792 Z-1.2054
G01 X36.7417 Y83.4198 Z-1.2027
G01 X36.8357 Y83.4604 Z-1.2001
G01 X36.9297 Y83.5010 Z-1.1975
G01 X37.0237 Y83.5417 Z-1.1948
G01 X37.1177 Y83.5823 Z-1.1922
G01 X37.2116 Y83.6229 Z-1.1896
G01 X37.3056 Y83.6635 Z-1.1869
G01 X37.3996 Y83.7041 Z-1.1843
G01 X37.4936 Y83.7447 Z-1.1816
G01 X37.6660 Y83.8136 Z-1.1759
G01 X37.7574 Y83.8492 Z-1.1734
G01 X37.8488 Y83.8847 Z-1.1708
G01 X37.9402 Y83.9203 Z-1.1683
G01 X38.0317 Y83.9559 Z-1.1657
G01 X38.1231 Y83.9914 Z-1.1631
G01 X38.2145 Y84.0270 Z-1.1606
G01 X38.3059 Y84.0626 Z-1.1580
G01 X38.3974 Y84.0981 Z-1.1554
G01 X38.4888 Y84.1337 Z-1.1529
G01 X38.5802 Y84.1693 Z-1.1503
G01 X38.6716 Y84.2049 Z-1.1478
G01 X38.7630 Y84.2404 Z-1.1452
G01 X38.8545 Y84.2760 Z-1.1426
G01 X38.9459 Y84.3116 Z-1.1401
G01 X39.0373 Y84.3471 Z-1.1375
G01 X39.1287 Y84.3827 Z-1.1350
G01 X39.2956 Y84.4448 Z-1.1305
G01 X39.3900 Y84.4776 Z-1.1279
G01 X39.4844 Y84.5105 Z-1.1252
G01 X39.5788 Y84.5433 Z-1.1225
G01 X39.6732 Y84.5762 Z-1.1198
G01 X39.7676 Y84.6090 Z-1.1171
G01 X39.8620 Y84.6418 Z-1.1144
G01 X39.9564 Y84.6747 Z-1.1118
G01 X40.0509 Y84.7075 Z-1.1091
G01 X40.1453 Y84.7404 Z-1.1064
G01 X40.2397 Y84.7732 Z-1.1037
G01 X40.3341 Y84.8060 Z-1.1010
G01 X40.4285 Y84.8389 Z-1.0983
G01 X40.5229 Y84.8717 Z-1.0957
G01 X40.6173 Y84.9046 Z-1.0930
G01 X40.7117 Y84.9374 Z-1.0903
G01 X40.8061 Y84.9702 Z-1.0876
G01 X40.9707 Y85.0260 Z-1.0837
G01 X41.0678 Y85.0569 Z-1.0813
G01 X41.1652 Y85.0869 Z-1.0785
G01 X41.2627 Y85.1170 Z-1.0756
G01 X41.3601 Y85.1470 Z-1.0728
G01 X41.4575 Y85.1771 Z-1.0699
G01 X41.5549 Y85.2071 Z-1.0671
G01 X41.6523 Y85.2371 Z-1.0643
G01 X41.7497 Y85.2672 Z-1.0614
G01 X41.8472 Y85.2972 Z-1.0586
G01 X41.9446 Y85.3272 Z-1.0557
G01 X42.0420 Y85.3573 Z-1.0529
G01 X42.1394 Y85.3873 Z-1.0500
G01 X42.2368 Y85.4174 Z-1.0472
G01 X42.3343 Y85.4474 Z-1.0443
G01 X42.4317 Y85.4774 Z-1.0415
G01 X42.5291 Y85.5075 Z-1.0387
G01 X42.6890 Y85.5554 Z-1.0347
G01 X42.7833 Y85.5828 Z-1.0327
G01 X42.8779 Y85.6092 Z-1.0302
G01 X42.9727 Y85.6349 Z-1.0274
G01 X43.0676 Y85.6605 Z-1.0245
G01 X43.1624 Y85.6862 Z-1.0216
G01 X43.2573 Y85.7118 Z-1.0187
G01 X43.3521 Y85.7375 Z-1.0158
G01 X43.4470 Y85.7631 Z-1.0130
G01 X43.5419 Y85.7888 Z-1.0101
G01 X43.6367 Y85.8144 Z-1.0072
G01 X43.7316 Y85.8401 Z-1.0043
G01 X43.8264 Y85.8657 Z-1.0015
G01 X43.9213 Y85.8914 Z-0.9986
G01 X44.0161 Y85.9170 Z-0.9957
G01 X44.1110 Y85.9427 Z-0.9928
G01 X44.2058 Y85.9683 Z-0.9900
G01 X44.3007 Y85.9940 Z-0.9871
G01 X44.4557 Y86.0346 Z-0.9830
G01 X44.5529 Y86.0593 Z-0.9809
G01 X44.6500 Y86.0840 Z-0.9787
G01 X44.7477 Y86.1069 Z-0.9756
G01 X44.8454 Y86.1298 Z-0.9725
G01 X44.9431 Y86.1526 Z-0.9694
G01 X45.0409 Y86.1755 Z-0.9663
G01 X45.1386 Y86.1984 Z-0.9632
G01 X45.2363 Y86.2212 Z-0.9601
G01 X45.3340 Y86.2441 Z-0.9570
G01 X45.4317 Y86.2670 Z-0.9539
G01 X45.5294 Y86.2898 Z-0.9508
G01 X45.6271 Y86.3127 Z-0.9477
G01 X45.7248 Y86.3356 Z-0.9446
G01 X45.8225 Y86.3584 Z-0.9415
G01 X45.9202 Y86.3813 Z-0.9384
G01 X46.0179 Y86.4042 Z-0.9353
G01 X46.1156 Y86.4271 Z-0.9322
G01 X46.2684 Y86.4616 Z-0.9279
G01 X46.3685 Y86.4835 Z-0.9255
G01 X46.4685 Y86.5053 Z-0.9231
G01 X46.5689 Y86.5261 Z-0.9202
G01 X46.6694 Y86.5461 Z-0.9168
G01 X46.7700 Y86.5661 Z-0.9134
G01 X46.8705 Y86.5861 Z-0.9101
G01 X46.9711 Y86.6062 Z-0.9067
G01 X47.0717 Y86.6262 Z-0.9033
G01 X47.1722 Y86.6462 Z-0.9000
G01 X47.2728 Y86.6662 Z-0.8966
G01 X47.3733 Y86.6862 Z-0.8932
G01 X47.4739 Y86.7062 Z-0.8899
G01 X47.5745 Y86.7263 Z-0.8865
G01 X47.6750 Y86.7463 Z-0.8832
G01 X47.7756 Y86.7663 Z-0.8798
G01 X47.8761 Y86.7863 Z-0.8764
G01 X47.9767 Y86.8063 Z-0.8731
G01 X48.1244 Y86.8346 Z-0.8687
G01 X48.2219 Y86.8526 Z-0.8661
G01 X48.3195 Y86.8706 Z-0.8636
G01 X48.4171 Y86.8882 Z-0.8608
G01 X48.5151 Y86.9043 Z-0.8573
G01 X48.6130 Y86.9205 Z-0.8539
G01 X48.7110 Y86.9367 Z-0.8504
G01 X48.8089 Y86.9529 Z-0.8469
G01 X48.9069 Y86.9691 Z-0.8435
G01 X49.0049 Y86.9853 Z-0.8400
G01 X49.1028 Y87.0015 Z-0.8365
G01 X49.2008 Y87.0177 Z-0.8331
G01 X49.2987 Y87.0339 Z-0.8296
G01 X49.3967 Y87.0501 Z-0.8262
G01 X49.4946 Y87.0663 Z-0.8227
G01 X49.5926 Y87.0825 Z-0.8192
G01 X49.6906 Y87.0987 Z-0.8158
G01 X49.7885 Y87.1149 Z-0.8123
G01 X49.8865 Y87.1311 Z-0.8088
G01 X50.0290 Y87.1537 Z-0.8043
G01 X50.1293 Y87.1688 Z-0.8014
G01 X50.2295 Y87.1840 Z-0.7986
G01 X50.3299 Y87.1988 Z-0.7955
G01 X50.4305 Y87.2122 Z-0.7917
G01 X50.5312 Y87.2255 Z-0.7880
G01 X50.6339 Y87.2289 Z-0.7791
G01 X50.8832 Y87.0264 Z-0.6544
G01 X51.1325 Y86.8239 Z-0.5298
G01 X51.3818 Y86.6214 Z-0.4051
G01 X51.6311 Y86.4189 Z-0.2805
G01 X51.8804 Y86.2164 Z-0.1558
G01 X52.0051 Y86.1152 Z-0.0935
G01 X52.1297 Y86.0140 Z-0.0312
G01 X52.1921 Y85.9633 Z0.0000
G01 X52.1297 Y86.0140 Z-0.0312
G01 X52.0051 Y86.1152 Z-0.0935
G01 X51.8804 Y86.2165 Z-0.1558
G01 X51.7557 Y86.3178 Z-0.2182
G01 X51.6310 Y86.4190 Z-0.2805
G01 X51.5063 Y86.5203 Z-0.3429
G01 X51.3817 Y86.6215 Z-0.4052
G01 X51.2570 Y86.7228 Z-0.4675
G01 X51.1323 Y86.8241 Z-0.5299
G01 X51.0076 Y86.9253 Z-0.5922
G01 X50.8830 Y87.0266 Z-0.6546
G01 X50.7583 Y87.1279 Z-0.7169
G01 X50.6336 Y87.2291 Z-0.7792
G01 X50.7105 Y87.3304 Z-0.7408
G01 X50.9017 Y87.5329 Z-0.6452
G01 X51.0928 Y87.7355 Z-0.5496
G01 X51.2840 Y87.9380 Z-0.4540
G01 X51.4752 Y88.1405 Z-0.3585
G01 X51.6663 Y88.3430 Z-0.2629
G01 X51.8575 Y88.5456 Z-0.1673
G01 X51.9531 Y88.6468 Z-0.1195
G01 X52.0487 Y88.7481 Z-0.0717
G01 X52.1443 Y88.8494 Z-0.0239
G01 X52.1921 Y88.9000 Z0.0000
G01 X52.1443 Y88.8494 Z-0.0478
G01 X52.0487 Y88.7481 Z-0.1434
G01 X51.9531 Y88.6468 Z-0.2390
G01 X51.8575 Y88.5456 Z-0.3346
G01 X51.6663 Y88.3430 Z-0.5257
G01 X51.4752 Y88.1405 Z-0.7169
G01 X51.2840 Y87.9380 Z-0.9081
G01 X51.0928 Y87.7355 Z-1.0992
G01 X50.9017 Y87.5329 Z-1.2904
G01 X50.7105 Y87.3304 Z-1.4816
G01 X50.6336 Y87.2291 Z-1.5585
G01 X50.7583 Y87.1279 Z-1.4338
G01 X50.8830 Y87.0266 Z-1.3091
G01 X51.0076 Y86.9253 Z-1.1844
G01 X51.1323 Y86.8241 Z-1.0598
G01 X51.2570 Y86.7228 Z-0.9351
G01 X51.3817 Y86.6215 Z-0.8104
G01 X51.5063 Y86.5203 Z-0.6857
G01 X51.6310 Y86.4190 Z-0.5610
G01 X51.7557 Y86.3178 Z-0.4364
G01 X51.8804 Y86.2165 Z-0.3117
G01 X52.0051 Y86.1152 Z-0.1870
G01 X52.1297 Y86.0140 Z-0.0623
G01 X52.1921 Y85.9633 Z0.0000
G01 X52.1297 Y86.0140 Z-0.0623
G01 X52.0051 Y86.1152 Z-0.1870
G01 X51.8804 Y86.2164 Z-0.3116
G01 X51.6311 Y86.4189 Z-0.5609
G01 X51.3818 Y86.6214 Z-0.8102
G01 X51.1325 Y86.8239 Z-1.0596
G01 X50.8832 Y87.0264 Z-1.3089
G01 X50.6339 Y87.2289 Z-1.5582
G01 X50.5312 Y87.2255 Z-1.5759
G01 X50.4305 Y87.2122 Z-1.5835
G01 X50.3299 Y87.1988 Z-1.5910
G01 X50.2295 Y87.1840 Z-1.5972
G01 X50.1293 Y87.1688 Z-1.6029
G01 X50.0290 Y87.1537 Z-1.6086
G01 X49.8865 Y87.1311 Z-1.6177
G01 X49.7885 Y87.1149 Z-1.6246
G01 X49.6906 Y87.0987 Z-1.6315
G01 X49.5926 Y87.0825 Z-1.6384
G01 X49.4946 Y87.0663 Z-1.6454
G01 X49.3967 Y87.0501 Z-1.6523
G01 X49.2987 Y87.0339 Z-1.6592
G01 X49.2008 Y87.0177 Z-1.6662
G01 X49.1028 Y87.0015 Z-1.6731
G01 X49.0049 Y86.9853 Z-1.6800
G01 X48.9069 Y86.9691 Z-1.6870
G01 X48.8089 Y86.9529 Z-1.6939
G01 X48.7110 Y86.9367 Z-1.7008
G01 X48.6130 Y86.9205 Z-1.7077
G01 X48.5151 Y86.9043 Z-1.7147
G01 X48.4171 Y86.8882 Z-1.7216
G01 X48.3195 Y86.8706 Z-1.7271
G01 X48.2219 Y86.8526 Z-1.7322
G01 X48.1244 Y86.8346 Z-1.7373
G01 X47.9767 Y86.8063 Z-1.7461
G01 X47.8761 Y86.7863 Z-1.7529
G01 X47.7756 Y86.7663 Z-1.7596
G01 X47.6750 Y86.7463 Z-1.7663
G01 X47.5745 Y86.7263 Z-1.7730
G01 X47.4739 Y86.7062 Z-1.7798
G01 X47.3733 Y86.6862 Z-1.7865
G01 X47.2728 Y86.6662 Z-1.7932
G01 X47.1722 Y86.6462 Z-1.7999
G01 X47.0717 Y86.6262 Z-1.8067
G01 X46.9711 Y86.6062 Z-1.8134
G01 X46.8705 Y86.5861 Z-1.8201
G01 X46.7700 Y86.5661 Z-1.8268
G01 X46.6694 Y86.5461 Z-1.8336
G01 X46.5689 Y86.5261 Z-1.8403
G01 X46.4685 Y86.5053 Z-1.8462
G01 X46.3685 Y86.4835 Z-1.8511
G01 X46.2684 Y86.4616 Z-1.8559
G01 X46.1156 Y86.4271 Z-1.8644
G01 X46.0179 Y86.4042 Z-1.8706
G01 X45.9202 Y86.3813 Z-1.8768
G01 X45.8225 Y86.3584 Z-1.8830
G01 X45.7248 Y86.3356 Z-1.8892
G01 X45.6271 Y86.3127 Z-1.8954
G01 X45.5294 Y86.2898 Z-1.9016
G01 X45.4317 Y86.2670 Z-1.9078
G01 X45.3340 Y86.2441 Z-1.9140
G01 X45.2363 Y86.2212 Z-1.9202
G01 X45.1386 Y86.1984 Z-1.9264
G01 X45.0409 Y86.1755 Z-1.9326
G01 X44.9431 Y86.1526 Z-1.9388
G01 X44.8454 Y86.1298 Z-1.9450
G01 X44.7477 Y86.1069 Z-1.9512
G01 X44.6500 Y86.0840 Z-1.9574
G01 X44.5529 Y86.0593 Z-1.9617
G01 X44.4557 Y86.0346 Z-1.9660
G01 X44.3007 Y85.9940 Z-1.9742
G01 X44.2058 Y85.9683 Z-1.9799
G01 X44.1110 Y85.9427 Z-1.9857
G01 X44.0161 Y85.9170 Z-1.9914
G01 X43.9213 Y85.8914 Z-1.9972
G01 X43.8264 Y85.8657 Z-2.0029
G01 X43.7316 Y85.8401 Z-2.0087
G01 X43.6367 Y85.8144 Z-2.0144
G01 X43.5419 Y85.7888 Z-2.0202
G01 X43.4470 Y85.7631 Z-2.0259
G01 X43.3521 Y85.7375 Z-2.0317
G01 X43.2573 Y85.7118 Z-2.0374
G01 X43.1624 Y85.6862 Z-2.0432
G01 X43.0676 Y85.6605 Z-2.0490
G01 X42.9727 Y85.6349 Z-2.0547
G01 X42.8779 Y85.6092 Z-2.0605
G01 X42.7833 Y85.5828 Z-2.0654
G01 X42.6890 Y85.5554 Z-2.0693
G01 X42.5291 Y85.5075 Z-2.0773
G01 X42.4317 Y85.4774 Z-2.0830
G01 X42.3343 Y85.4474 Z-2.0887
G01 X42.2368 Y85.4174 Z-2.0944
G01 X42.1394 Y85.3873 Z-2.1001
G01 X42.0420 Y85.3573 Z-2.1058
G01 X41.9446 Y85.3272 Z-2.1114
G01 X41.8472 Y85.2972 Z-2.1171
G01 X41.7497 Y85.2672 Z-2.1228
G01 X41.6523 Y85.2371 Z-2.1285
G01 X41.5549 Y85.2071 Z-2.1342
G01 X41.4575 Y85.1771 Z-2.1399
G01 X41.3601 Y85.1470 Z-2.1456
G01 X41.2627 Y85.1170 Z-2.1513
G01 X41.1652 Y85.0869 Z-2.1570
G01 X41.0678 Y85.0569 Z-2.1627
G01 X40.9707 Y85.0260 Z-2.1674
G01 X40.8061 Y84.9702 Z-2.1752
G01 X40.7117 Y84.9374 Z-2.1806
G01 X40.6173 Y84.9046 Z-2.1860
G01 X40.5229 Y84.8717 Z-2.1913
G01 X40.4285 Y84.8389 Z-2.1967
G01 X40.3341 Y84.8060 Z-2.2021
G01 X40.2397 Y84.7732 Z-2.2074
G01 X40.1453 Y84.7404 Z-2.2128
G01 X40.0509 Y84.7075 Z-2.2182
G01 X39.9564 Y84.6747 Z-2.2235
G01 X39.8620 Y84.6418 Z-2.2289
G01 X39.7676 Y84.6090 Z-2.2343
G01 X39.6732 Y84.5762 Z-2.2396
G01 X39.5788 Y84.5433 Z-2.2450
G01 X39.4844 Y84.5105 Z-2.2504
G01 X39.3900 Y84.4776 Z-2.2557
G01 X39.2956 Y84.4448 Z-2.2611
G01 X39.1287 Y84.3827 Z-2.2699
G01 X39.0373 Y84.3471 Z-2.2750
G01 X38.9459 Y84.3116 Z-2.2801
G01 X38.8545 Y84.2760 Z-2.2853
G01 X38.7630 Y84.2404 Z-2.2904
G01 X38.6716 Y84.2049 Z-2.2955
G01 X38.5802 Y84.1693 Z-2.3006
G01 X38.4888 Y84.1337 Z-2.3058
G01 X38.3974 Y84.0981 Z-2.3109
G01 X38.3059 Y84.0626 Z-2.3160
G01 X38.2145 Y84.0270 Z-2.3211
G01 X38.1231 Y83.9914 Z-2.3263
G01 X38.0317 Y83.9559 Z-2.3314
G01 X37.9402 Y83.9203 Z-2.3365
G01 X37.8488 Y83.8847 Z-2.3416
G01 X37.7574 Y83.8492 Z-2.3468
G01 X37.6660 Y83.8136 Z-2.3519
G01 X37.4936 Y83.7447 Z-2.3633
G01 X37.3996 Y83.7041 Z-2.3686
G01 X37.3056 Y83.6635 Z-2.3739
G01 X37.2116 Y83.6229 Z-2.3791
G01 X37.1177 Y83.5823 Z-2.3844
G01 X37.0237 Y83.5417 Z-2.3897
G01 X36.9297 Y83.5010 Z-2.3950
G01 X36.8357 Y83.4604 Z-2.4002
G01 X36.7417 Y83.4198 Z-2.4055
G01 X36.6477 Y83.3792 Z-2.4108
G01 X36.5538 Y83.3386 Z-2.4160
G01 X36.4598 Y83.2980 Z-2.4213
G01 X36.3658 Y83.2573 Z-2.4266
G01 X36.2718 Y83.2167 Z-2.4319
G01 X36.1778 Y83.1761 Z-2.4371
G01 X36.0838 Y83.1355 Z-2.4424
G01 X35.9071 Y83.0571 Z-2.4542
G01 X35.8153 Y83.0154 Z-2.4612
G01 X35.7240 Y82.9730 Z-2.4674
G01 X35.6331 Y82.9296 Z-2.4726
G01 X35.5423 Y82.8862 Z-2.4778
G01 X35.4514 Y82.8428 Z-2.4830
G01 X35.3605 Y82.7995 Z-2.4882
G01 X35.2697 Y82.7561 Z-2.4933
G01 X35.1788 Y82.7127 Z-2.4985
G01 X35.0880 Y82.6694 Z-2.5037
G01 X34.9971 Y82.6260 Z-2.5089
G01 X34.9062 Y82.5826 Z-2.5141
G01 X34.8154 Y82.5392 Z-2.5193
G01 X34.7245 Y82.4959 Z-2.5245
G01 X34.6336 Y82.4525 Z-2.5296
G01 X34.5428 Y82.4091 Z-2.5348
G01 X34.3647 Y82.3220 Z-2.5469
G01 X34.2759 Y82.2775 Z-2.5540
G01 X34.1872 Y82.2330 Z-2.5610
G01 X34.0985 Y82.1886 Z-2.5680
G01 X34.0104 Y82.1431 Z-2.5738
G01 X33.9226 Y82.0970 Z-2.5790
G01 X33.8348 Y82.0509 Z-2.5842
G01 X33.7470 Y82.0049 Z-2.5894
G01 X33.6592 Y81.9588 Z-2.5946
G01 X33.5715 Y81.9128 Z-2.5997
G01 X33.4837 Y81.8667 Z-2.6049
G01 X33.3959 Y81.8207 Z-2.6101
G01 X33.3081 Y81.7746 Z-2.6153
G01 X33.2203 Y81.7285 Z-2.6205
G01 X33.1326 Y81.6825 Z-2.6257
G01 X33.0448 Y81.6364 Z-2.6308
G01 X32.8654 Y81.5400 Z-2.6435
G01 X32.7797 Y81.4928 Z-2.6506
G01 X32.6939 Y81.4457 Z-2.6576
G01 X32.6082 Y81.3985 Z-2.6647
G01 X32.5225 Y81.3513 Z-2.6717
G01 X32.4368 Y81.3041 Z-2.6788
G01 X32.3516 Y81.2561 Z-2.6849
G01 X32.2668 Y81.2075 Z-2.6902
G01 X32.1821 Y81.1588 Z-2.6954
G01 X32.0973 Y81.1101 Z-2.7007
G01 X32.0126 Y81.0614 Z-2.7060
G01 X31.9278 Y81.0127 Z-2.7112
G01 X31.8431 Y80.9640 Z-2.7165
G01 X31.7583 Y80.9154 Z-2.7218
G01 X31.6736 Y80.8667 Z-2.7270
G01 X31.5888 Y80.8180 Z-2.7323
G01 X31.4055 Y80.7102 Z-2.7459
G01 X31.3172 Y80.6570 Z-2.7536
G01 X31.2290 Y80.6039 Z-2.7613
G01 X31.1407 Y80.5507 Z-2.7689
G01 X31.0524 Y80.4976 Z-2.7766
G01 X30.9641 Y80.4444 Z-2.7842
G01 X30.8758 Y80.3913 Z-2.7919
G01 X30.7875 Y80.3381 Z-2.7995
G01 X30.6998 Y80.2840 Z-2.8060
G01 X30.6126 Y80.2293 Z-2.8118
G01 X30.5254 Y80.1746 Z-2.8176
G01 X30.4382 Y80.1200 Z-2.8234
G01 X30.3510 Y80.0653 Z-2.8292
G01 X30.2638 Y80.0106 Z-2.8350
G01 X30.1765 Y79.9560 Z-2.8408
G01 X29.9897 Y79.8361 Z-2.8556
G01 X29.9045 Y79.7801 Z-2.8634
G01 X29.8192 Y79.7242 Z-2.8713
G01 X29.7340 Y79.6683 Z-2.8792
G01 X29.6488 Y79.6123 Z-2.8870
G01 X29.5636 Y79.5564 Z-2.8949
G01 X29.4784 Y79.5005 Z-2.9028
G01 X29.3932 Y79.4445 Z-2.9106
G01 X29.3080 Y79.3886 Z-2.9185
G01 X29.2228 Y79.3327 Z-2.9264
G01 X29.1376 Y79.2766 Z-2.9341
G01 X29.0535 Y79.2193 Z-2.9402
G01 X28.9694 Y79.1619 Z-2.9462
G01 X28.8853 Y79.1045 Z-2.9523
G01 X28.8012 Y79.0472 Z-2.9583
G01 X28.6138 Y78.9163 Z-2.9744
G01 X28.5316 Y78.8577 Z-2.9825
G01 X28.4494 Y78.7990 Z-2.9907
G01 X28.3672 Y78.7403 Z-2.9988
G01 X28.2850 Y78.6816 Z-3.0070
G01 X28.2028 Y78.6229 Z-3.0151
G01 X28.1206 Y78.5642 Z-3.0233
G01 X28.0384 Y78.5056 Z-3.0315
G01 X27.9562 Y78.4469 Z-3.0396
G01 X27.8740 Y78.3882 Z-3.0478
G01 X27.7918 Y78.3295 Z-3.0559
G01 X27.7096 Y78.2708 Z-3.0641
G01 X27.6274 Y78.2122 Z-3.0723
G01 X27.5455 Y78.1532 Z-3.0800
G01 X27.4644 Y78.0932 Z-3.0864
G00 Z5.0000
G00 X29.1075 Y79.3413
G01 Z-1.4316
G01 X29.0595 Y79.2234 Z-1.4699
G01 X28.9754 Y79.1660 Z-1.4729
G01 X28.8912 Y79.1086 Z-1.4759
G01 X28.8071 Y79.0512 Z-1.4790
G01 X28.7230 Y78.9936 Z-1.4821
G01 X28.6397 Y78.9348 Z-1.4859
G01 X28.5566 Y78.8756 Z-1.4900
G01 X28.4736 Y78.8163 Z-1.4941
G01 X28.3906 Y78.7570 Z-1.4983
G01 X28.3075 Y78.6977 Z-1.5024
G01 X28.2245 Y78.6384 Z-1.5065
G01 X28.1415 Y78.5791 Z-1.5106
G01 X28.0584 Y78.5199 Z-1.5147
G01 X27.9754 Y78.4606 Z-1.5189
G01 X27.8924 Y78.4013 Z-1.5230
G01 X27.8093 Y78.3420 Z-1.5271
G01 X27.7263 Y78.2827 Z-1.5312
G01 X27.6433 Y78.2235 Z-1.5353
G01 X27.4875 Y78.1103 Z-1.5423
G01 X27.4088 Y78.0519 Z-1.5454
G01 X27.3306 Y77.9927 Z-1.5491
G01 X27.2529 Y77.9325 Z-1.5532
G01 X27.1753 Y77.8724 Z-1.5574
G01 X27.0977 Y77.8123 Z-1.5616
G01 X27.0201 Y77.7521 Z-1.5658
G01 X26.9425 Y77.6920 Z-1.5700
G01 X26.8649 Y77.6318 Z-1.5741
G01 X26.7872 Y77.5717 Z-1.5783
G01 X26.7096 Y77.5115 Z-1.5825
G01 X26.6320 Y77.4514 Z-1.5867
G01 X26.5544 Y77.3913 Z-1.5909
G01 X26.4768 Y77.3311 Z-1.5950
G01 X26.3992 Y77.2710 Z-1.5992
G01 X26.3215 Y77.2108 Z-1.6034
G01 X26.2439 Y77.1507 Z-1.6076
G01 X26.1663 Y77.0906 Z-1.6117
G01 X26.0888 Y77.0303 Z-1.6160
G01 X25.9453 Y76.9128 Z-1.6248
G01 X25.8692 Y76.8489 Z-1.6293
G01 X25.7931 Y76.7850 Z-1.6338
G01 X25.7171 Y76.7211 Z-1.6382
G01 X25.6410 Y76.6573 Z-1.6427
G01 X25.5649 Y76.5934 Z-1.6472
G01 X25.4888 Y76.5295 Z-1.6517
G01 X25.4127 Y76.4657 Z-1.6561
G01 X25.3366 Y76.4018 Z-1.6606
G01 X25.2605 Y76.3379 Z-1.6651
G01 X25.1844 Y76.2740 Z-1.6696
G01 X25.1083 Y76.2102 Z-1.6741
G01 X25.0323 Y76.1463 Z-1.6785
G01 X24.9562 Y76.0824 Z-1.6830
G01 X24.8801 Y76.0186 Z-1.6875
G01 X24.8043 Y75.9542 Z-1.6922
G01 X24.7293 Y75.8888 Z-1.6977
G01 X24.6545 Y75.8231 Z-1.7033
G01 X24.5797 Y75.7574 Z-1.7088
G01 X24.4414 Y75.6339 Z-1.7185
G01 X24.3669 Y75.5662 Z-1.7233
G01 X24.2924 Y75.4986 Z-1.7281
G01 X24.2179 Y75.4310 Z-1.7329
G01 X24.1434 Y75.3633 Z-1.7377
G01 X24.0689 Y75.2957 Z-1.7426
G01 X23.9944 Y75.2280 Z-1.7474
G01 X23.9200 Y75.1604 Z-1.7522
G01 X23.8455 Y75.0927 Z-1.7570
G01 X23.7710 Y75.0251 Z-1.7618
G01 X23.6965 Y74.9575 Z-1.7666
G01 X23.6221 Y74.8898 Z-1.7715
G01 X23.5483 Y74.8212 Z-1.7769
G01 X23.4751 Y74.7517 Z-1.7828
G01 X23.4020 Y74.6823 Z-1.7888
G01 X23.3289 Y74.6128 Z-1.7947
G01 X23.2558 Y74.5433 Z-1.8007
G01 X23.1826 Y74.4739 Z-1.8066
G01 X23.1095 Y74.4044 Z-1.8126
G01 X22.9761 Y74.2756 Z-1.8228
G01 X22.9033 Y74.2041 Z-1.8280
G01 X22.8305 Y74.1327 Z-1.8332
G01 X22.7576 Y74.0613 Z-1.8384
G01 X22.6848 Y73.9898 Z-1.8436
G01 X22.6120 Y73.9184 Z-1.8487
G01 X22.5392 Y73.8469 Z-1.8539
G01 X22.4664 Y73.7755 Z-1.8591
G01 X22.3939 Y73.7036 Z-1.8646
G01 X22.3223 Y73.6306 Z-1.8708
G01 X22.2510 Y73.5574 Z-1.8771
G01 X22.1796 Y73.4841 Z-1.8835
G01 X22.1082 Y73.4109 Z-1.8898
G01 X22.0368 Y73.3377 Z-1.8962
G01 X21.9655 Y73.2644 Z-1.9025
G01 X21.8941 Y73.1912 Z-1.9089
G01 X21.8227 Y73.1179 Z-1.9152
G01 X21.7514 Y73.0447 Z-1.9216
G01 X21.6800 Y72.9714 Z-1.9279
G01 X21.5564 Y72.8426 Z-1.9383
G01 X21.4886 Y72.7707 Z-1.9437
G01 X21.4207 Y72.6989 Z-1.9490
G01 X21.3529 Y72.6270 Z-1.9544
G01 X21.2851 Y72.5551 Z-1.9598
G01 X21.2179 Y72.4825 Z-1.9656
G01 X21.1515 Y72.4091 Z-1.9721
G01 X21.0852 Y72.3354 Z-1.9786
G01 X21.0189 Y72.2618 Z-1.9851
G01 X20.9525 Y72.1881 Z-1.9917
G01 X20.8862 Y72.1145 Z-1.9982
G01 X20.8199 Y72.0408 Z-2.0048
G01 X20.7536 Y71.9672 Z-2.0113
G01 X20.6873 Y71.8935 Z-2.0178
G01 X20.6210 Y71.8199 Z-2.0244
G01 X20.5547 Y71.7462 Z-2.0309
G01 X20.4889 Y71.6720 Z-2.0378
G01 X20.4237 Y71.5971 Z-2.0452
G01 X20.3584 Y71.5223 Z-2.0525
G01 X20.2931 Y71.4475 Z-2.0598
G01 X20.1813 Y71.3172 Z-2.0718
G01 X20.1163 Y71.2404 Z-2.0785
G01 X20.0514 Y71.1636 Z-2.0851
G01 X19.9865 Y71.0868 Z-2.0918
G01 X19.9215 Y71.0100 Z-2.0984
G01 X19.8566 Y70.9332 Z-2.1051
G01 X19.7922 Y70.8558 Z-2.1121
G01 X19.7283 Y70.7779 Z-2.1196
G01 X19.6644 Y70.7000 Z-2.1270
G01 X19.6005 Y70.6220 Z-2.1344
G01 X19.5366 Y70.5441 Z-2.1418
G01 X19.4726 Y70.4662 Z-2.1492
G01 X19.4087 Y70.3883 Z-2.1566
G01 X19.3448 Y70.3103 Z-2.1640
G01 X19.2809 Y70.2324 Z-2.1715
G01 X19.2170 Y70.1545 Z-2.1789
G01 X19.1531 Y70.0765 Z-2.1863
G01 X19.0899 Y69.9978 Z-2.1943
G01 X19.0270 Y69.9188 Z-2.2024
G01 X18.9641 Y69.8397 Z-2.2106
G01 X18.8691 Y69.7185 Z-2.2224
G01 X18.8087 Y69.6401 Z-2.2296
G01 X18.7483 Y69.5617 Z-2.2368
G01 X18.6879 Y69.4832 Z-2.2440
G01 X18.6275 Y69.4048 Z-2.2512
G01 X18.5671 Y69.3264 Z-2.2583
G01 X18.5067 Y69.2479 Z-2.2655
G01 X18.4466 Y69.1693 Z-2.2729
G01 X18.3871 Y69.0899 Z-2.2807
G01 X18.3276 Y69.0105 Z-2.2886
G01 X18.2682 Y68.9311 Z-2.2965
G01 X18.2088 Y68.8516 Z-2.3044
G01 X18.1493 Y68.7722 Z-2.3123
G01 X18.0899 Y68.6928 Z-2.3201
G01 X18.0304 Y68.6134 Z-2.3280
G01 X17.9710 Y68.5340 Z-2.3359
G01 X17.9116 Y68.4545 Z-2.3438
G01 X17.8521 Y68.3751 Z-2.3517
G01 X17.7928 Y68.2956 Z-2.3596
G01 X17.7340 Y68.2155 Z-2.3680
G01 X17.6620 Y68.1146 Z-2.3780
G01 X17.6033 Y68.0309 Z-2.3859
G01 X17.5447 Y67.9471 Z-2.3937
G01 X17.4861 Y67.8633 Z-2.4016
G01 X17.4274 Y67.7796 Z-2.4094
G01 X17.3688 Y67.6958 Z-2.4173
G01 X17.3101 Y67.6120 Z-2.4251
G01 X17.2515 Y67.5283 Z-2.4330
G01 X17.1929 Y67.4445 Z-2.4408
G01 X17.1343 Y67.3607 Z-2.4487
G01 X17.0763 Y67.2763 Z-2.4570
G01 X17.0186 Y67.1917 Z-2.4655
G01 X16.9609 Y67.1070 Z-2.4740
G01 X16.9032 Y67.0223 Z-2.4825
G01 X16.8455 Y66.9376 Z-2.4910
G01 X16.7878 Y66.8530 Z-2.4995
G01 X16.7301 Y66.7683 Z-2.5080
G01 X16.6724 Y66.6836 Z-2.5165
G01 X16.6147 Y66.5990 Z-2.5250
G01 X16.5542 Y66.5084 Z-2.5336
G01 X16.4991 Y66.4241 Z-2.5410
G01 X16.4442 Y66.3396 Z-2.5486
G01 X16.3900 Y66.2545 Z-2.5566
G01 X16.3358 Y66.1694 Z-2.5646
G01 X16.2816 Y66.0843 Z-2.5726
G01 X16.2274 Y65.9992 Z-2.5806
G01 X16.1732 Y65.9141 Z-2.5886
G01 X16.1190 Y65.8290 Z-2.5967
G01 X16.0648 Y65.7439 Z-2.6047
G01 X16.0106 Y65.6587 Z-2.6127
G01 X15.9564 Y65.5736 Z-2.6207
G01 X15.9022 Y65.4885 Z-2.6287
G01 X15.8480 Y65.4034 Z-2.6368
G01 X15.7942 Y65.3180 Z-2.6450
G01 X15.7409 Y65.2321 Z-2.6536
G01 X15.6876 Y65.1462 Z-2.6622
G01 X15.6342 Y65.0603 Z-2.6708
G01 X15.5809 Y64.9745 Z-2.6795
G01 X15.5356 Y64.8999 Z-2.6865
G01 X15.4848 Y64.8143 Z-2.6940
G01 X15.4340 Y64.7288 Z-2.7015
G01 X15.3832 Y64.6433 Z-2.7090
G01 X15.3324 Y64.5577 Z-2.7165
G01 X15.2816 Y64.4722 Z-2.7240
G01 X15.2308 Y64.3866 Z-2.7315
G01 X15.1802 Y64.3010 Z-2.7391
G01 X15.1301 Y64.2148 Z-2.7471
G01 X15.0802 Y64.1286 Z-2.7552
G01 X15.0302 Y64.0424 Z-2.7632
G01 X14.9803 Y63.9561 Z-2.7713
G01 X14.9304 Y63.8699 Z-2.7794
G01 X14.8804 Y63.7837 Z-2.7874
G01 X14.8305 Y63.6974 Z-2.7955
G01 X14.7805 Y63.6112 Z-2.8036
G01 X14.7306 Y63.5249 Z-2.8116
G01 X14.6806 Y63.4387 Z-2.8197
G01 X14.6307 Y63.3525 Z-2.8277
G01 X14.5945 Y63.2883 Z-2.8333
G01 X14.5449 Y63.1978 Z-2.8408
G01 X14.4959 Y63.1069 Z-2.8487
G01 X14.4469 Y63.0160 Z-2.8565
G01 X14.3979 Y62.9251 Z-2.8644
G01 X14.3488 Y62.8342 Z-2.8722
G01 X14.2998 Y62.7432 Z-2.8801
G01 X14.2508 Y62.6523 Z-2.8880
G01 X14.2018 Y62.5614 Z-2.8958
G01 X14.1528 Y62.4705 Z-2.9037
G01 X14.1038 Y62.3795 Z-2.9116
G01 X14.0548 Y62.2886 Z-2.9194
G01 X14.0058 Y62.1977 Z-2.9273
G01 X13.9569 Y62.1067 Z-2.9352
G01 X13.9087 Y62.0152 Z-2.9436
G01 X13.8605 Y61.9236 Z-2.9520
G01 X13.8123 Y61.8321 Z-2.9603
G01 X13.7642 Y61.7405 Z-2.9687
G01 X13.7362 Y61.6861 Z-2.9734
G01 X13.6906 Y61.5948 Z-2.9806
G01 X13.6449 Y61.5035 Z-2.9879
G01 X13.5992 Y61.4121 Z-2.9951
G01 X13.5535 Y61.3208 Z-3.0024
G01 X13.5079 Y61.2295 Z-3.0096
G01 X13.4622 Y61.1381 Z-3.0168
G01 X13.4165 Y61.0468 Z-3.0241
G01 X13.3710 Y60.9554 Z-3.0314
G01 X13.3260 Y60.8636 Z-3.0391
G01 X13.2811 Y60.7717 Z-3.0468
G01 X13.2363 Y60.6798 Z-3.0546
G01 X13.1914 Y60.5879 Z-3.0623
G01 X13.1465 Y60.4960 Z-3.0700
G01 X13.1017 Y60.4041 Z-3.0778
G01 X13.0568 Y60.3122 Z-3.0855
G01 X13.0120 Y60.2203 Z-3.0932
G01 X12.9671 Y60.1284 Z-3.1010
G01 X12.9063 Y59.9982 Z-3.1106
G01 X12.8639 Y59.9064 Z-3.1172
G01 X12.8214 Y59.8146 Z-3.1238
G01 X12.7794 Y59.7226 Z-3.1306
G01 X12.7377 Y59.6303 Z-3.1377
G01 X12.6961 Y59.5380 Z-3.1448
G01 X12.6544 Y59.4458 Z-3.1519
G01 X12.6127 Y59.3535 Z-3.1589
G01 X12.5711 Y59.2612 Z-3.1660
G01 X12.5294 Y59.1689 Z-3.1731
G01 X12.4791 Y59.0822 Z-3.1750
G01 X12.4255 Y58.9975
G01 X12.3718 Y58.9127
G01 X12.3182 Y58.8280
G01 X12.2646 Y58.7433
G01 X12.2110 Y58.6586
G01 X12.1574 Y58.5739
G01 X12.0923 Y58.4619
G01 X12.0426 Y58.3756
G01 X11.9930 Y58.2892
G01 X11.9433 Y58.2029
G01 X11.8937 Y58.1165
G01 X11.8441 Y58.0302
G01 X11.7944 Y57.9438
G01 X11.7448 Y57.8575
G01 X11.6952 Y57.7711
G01 X11.6455 Y57.6848
G01 X11.5959 Y57.5984
G01 X11.5462 Y57.5121
G01 X11.4966 Y57.4257
G01 X11.4470 Y57.3394
G01 X11.3973 Y57.2530
G01 X11.3477 Y57.1667
G01 X11.2980 Y57.0804
G01 X11.2403 Y56.9703
G01 X11.1946 Y56.8823
G01 X11.1489 Y56.7943
G01 X11.1033 Y56.7063
G01 X11.0576 Y56.6183
G01 X11.0119 Y56.5303
G01 X10.9663 Y56.4424
G01 X10.9206 Y56.3544
G01 X10.8749 Y56.2664
G01 X10.8292 Y56.1784
G01 X10.7836 Y56.0904
G01 X10.7379 Y56.0024
G01 X10.6922 Y55.9145
G01 X10.6466 Y55.8265
G01 X10.6009 Y55.7385
G01 X10.5552 Y55.6505
G01 X10.5096 Y55.5625
G01 X10.4582 Y55.4532
G01 X10.4165 Y55.3636
G01 X10.3748 Y55.2740
G01 X10.3331 Y55.1843
G01 X10.2914 Y55.0947
G01 X10.2497 Y55.0051
G01 X10.2080 Y54.9155
G01 X10.1663 Y54.8259
G01 X10.1246 Y54.7362
G01 X10.0829 Y54.6466
G01 X10.0412 Y54.5570
G01 X9.9995 Y54.4674
G01 X9.9578 Y54.3778
G01 X9.9161 Y54.2882
G01 X9.8744 Y54.1985
G01 X9.8327 Y54.1089
G01 X9.7910 Y54.0193
G01 X9.7451 Y53.9094
G01 X9.7074 Y53.8182
G01 X9.6696 Y53.7269
G01 X9.6319 Y53.6357
G01 X9.5942 Y53.5444
G01 X9.5565 Y53.4532
G01 X9.5187 Y53.3619
G01 X9.4810 Y53.2707
G01 X9.4433 Y53.1794
G01 X9.4056 Y53.0882
G01 X9.3678 Y52.9969
G01 X9.3301 Y52.9056
G01 X9.2924 Y52.8144
G01 X9.2547 Y52.7231
G01 X9.2169 Y52.6319
G01 X9.1792 Y52.5406
G01 X9.1415 Y52.4494
G01 X9.1004 Y52.3376
G01 X9.0666 Y52.2447
G01 X9.0329 Y52.1518
G01 X8.9991 Y52.0589
G01 X8.9654 Y51.9660
G01 X8.9316 Y51.8731
G01 X8.8979 Y51.7803
G01 X8.8641 Y51.6874
G01 X8.8304 Y51.5945
G01 X8.7966 Y51.5016
G01 X8.7628 Y51.4087
G01 X8.7291 Y51.3158
G01 X8.6953 Y51.2229
G01 X8.6616 Y51.1300
G01 X8.6278 Y51.0371
G01 X8.5941 Y50.9443
G01 X8.5603 Y50.8514
G01 X8.5235 Y50.7362
G01 X8.4937 Y50.6416
G01 X8.4640 Y50.5471
G01 X8.4342 Y50.4526
G01 X8.4044 Y50.3581
G01 X8.3746 Y50.2635
G01 X8.3448 Y50.1690
G01 X8.3150 Y50.0745
G01 X8.2853 Y49.9800
G01 X8.2555 Y49.8855
G01 X8.2257 Y49.7909
G01 X8.1959 Y49.6964
G01 X8.1661 Y49.6019
G01 X8.1363 Y49.5074
G01 X8.1066 Y49.4128
G01 X8.0768 Y49.3183
G01 X8.0470 Y49.2238
G01 X8.0142 Y49.1037
G01 X7.9884 Y49.0075
G01 X7.9626 Y48.9114
G01 X7.9368 Y48.8152
G01 X7.9110 Y48.7190
G01 X7.8851 Y48.6229
G01 X7.8593 Y48.5267
G01 X7.8335 Y48.4306
G01 X7.8077 Y48.3344
G01 X7.7819 Y48.2382
G01 X7.7561 Y48.1421
G01 X7.7303 Y48.0459
G01 X7.7045 Y47.9498
G01 X7.6786 Y47.8536
G01 X7.6528 Y47.7575
G01 X7.6270 Y47.6613
G01 X7.6012 Y47.5651
G01 X7.5723 Y47.4386
G01 X7.5505 Y47.3408
G01 X7.5286 Y47.2430
G01 X7.5068 Y47.1452
G01 X7.4850 Y47.0474
G01 X7.4631 Y46.9496
G01 X7.4413 Y46.8518
G01 X7.4194 Y46.7540
G01 X7.3976 Y46.6562
G01 X7.3758 Y46.5585
G01 X7.3539 Y46.4607
G01 X7.3321 Y46.3629
G01 X7.3102 Y46.2651
G01 X7.2884 Y46.1673
G01 X7.2665 Y46.0695
G01 X7.2447 Y45.9717
G01 X7.2229 Y45.8739
G01 X7.1980 Y45.7395
G01 X7.1801 Y45.6400
G01 X7.1622 Y45.5406
G01 X7.1444 Y45.4412
G01 X7.1265 Y45.3418
G01 X7.1086 Y45.2423
G01 X7.0907 Y45.1429
G01 X7.0729 Y45.0435
G01 X7.0550 Y44.9440
G01 X7.0371 Y44.8446
G01 X7.0193 Y44.7452
G01 X7.0014 Y44.6458
G01 X6.9835 Y44.5463
G01 X6.9657 Y44.4469
G01 X6.9478 Y44.3475
G01 X6.9299 Y44.2480
G01 X6.9120 Y44.1486
G01 X6.8914 Y44.0049
G01 X6.8775 Y43.9039
G01 X6.8636 Y43.8028
G01 X6.8497 Y43.7017
G01 X6.8358 Y43.6007
G01 X6.8219 Y43.4996
G01 X6.8080 Y43.3986
G01 X6.7941 Y43.2975
G01 X6.7802 Y43.1964
G01 X6.7663 Y43.0954
G01 X6.7524 Y42.9943
G01 X6.7385 Y42.8932
G01 X6.7246 Y42.7922
G01 X6.7107 Y42.6911
G01 X6.6968 Y42.5900
G01 X6.6829 Y42.4890
G01 X6.6690 Y42.3879
G01 X6.6543 Y42.2460
G01 X6.6448 Y42.1481
G01 X6.6354 Y42.0503
G01 X6.6259 Y41.9525
G01 X6.6165 Y41.8547
G01 X6.6070 Y41.7569
G01 X6.5976 Y41.6591
G01 X6.5881 Y41.5613
G01 X6.5787 Y41.4635
G01 X6.5692 Y41.3657
G01 X6.5597 Y41.2679
G01 X6.5503 Y41.1701
G01 X6.5408 Y41.0722
G01 X6.5314 Y40.9744
G01 X6.5219 Y40.8766
G01 X6.5125 Y40.7788
G01 X6.5030 Y40.6810
G01 X6.4936 Y40.5832
G01 X6.4843 Y40.4371
G01 X6.4787 Y40.3378
G01 X6.4730 Y40.2384
G01 X6.4673 Y40.1390
G01 X6.4616 Y40.0397
G01 X6.4560 Y39.9403
G01 X6.4503 Y39.8409
G01 X6.4446 Y39.7416
G01 X6.4390 Y39.6422
G01 X6.4333 Y39.5428
G01 X6.4276 Y39.4435
G01 X6.4219 Y39.3441
G01 X6.4163 Y39.2447
G01 X6.4106 Y39.1454
G01 X6.4049 Y39.0460
G01 X6.3992 Y38.9466
G01 X6.3936 Y38.8473
G01 X6.3879 Y38.7479
G01 X6.3858 Y38.6905
G01 X6.3839 Y38.5895
G01 X6.3820 Y38.4886
G01 X6.3801 Y38.3877
G01 X6.3782 Y38.2868
G01 X6.3763 Y38.1859
G01 X6.3744 Y38.0849
G01 X6.3725 Y37.9840
G01 X6.3706 Y37.8831
G01 X6.3687 Y37.7822
G01 X6.3669 Y37.6812
G01 X6.3650 Y37.5803
G01 X6.3631 Y37.4794
G01 X6.3612 Y37.3785
G01 X6.3593 Y37.2775
G01 X6.3574 Y37.1766
G01 X6.3555 Y37.0757
G01 X6.3536 Y36.9748
G01 X6.3517 Y36.8739
G01 X6.3514 Y36.7732
G01 X6.3527 Y36.6731
G01 X6.3540 Y36.5729
G01 X6.3553 Y36.4727
G01 X6.3566 Y36.3725
G01 X6.3579 Y36.2723
G01 X6.3592 Y36.1721
G01 X6.3605 Y36.0719
G01 X6.3618 Y35.9717
G01 X6.3631 Y35.8715
G01 X6.3644 Y35.7713
G01 X6.3657 Y35.6711
G01 X6.3670 Y35.5709
G01 X6.3683 Y35.4708
G01 X6.3696 Y35.3706
G01 X6.3729 Y35.2428
G01 X6.3768 Y35.1449
G01 X6.3806 Y35.0469
G01 X6.3845 Y34.9489
G01 X6.3884 Y34.8509
G01 X6.3923 Y34.7529
G01 X6.3962 Y34.6549
G01 X6.4001 Y34.5569
G01 X6.4040 Y34.4589
G01 X6.4078 Y34.3609
G01 X6.4117 Y34.2629
G01 X6.4156 Y34.1649
G01 X6.4195 Y34.0669
G01 X6.4234 Y33.9689
G01 X6.4273 Y33.8710
G01 X6.4340 Y33.7481
G01 X6.4408 Y33.6463
G01 X6.4477 Y33.5445
G01 X6.4546 Y33.4427
G01 X6.4615 Y33.3409
G01 X6.4684 Y33.2391
G01 X6.4753 Y33.1374
G01 X6.4821 Y33.0356
G01 X6.4890 Y32.9338
G01 X6.4959 Y32.8320
G01 X6.5028 Y32.7302
G01 X6.5097 Y32.6285
G01 X6.5165 Y32.5267
G01 X6.5234 Y32.4249
G01 X6.5331 Y32.3070
G01 X6.5427 Y32.2076
G01 X6.5523 Y32.1082
G01 X6.5620 Y32.0087
G01 X6.5716 Y31.9093
G01 X6.5813 Y31.8098
G01 X6.5909 Y31.7104
G01 X6.6005 Y31.6109
G01 X6.6102 Y31.5115
G01 X6.6198 Y31.4120
G01 X6.6294 Y31.3126
G01 X6.6391 Y31.2131
G01 X6.6487 Y31.1137
G01 X6.6583 Y31.0143
G01 X6.6699 Y30.9106
G01 X6.6823 Y30.8135
G01 X6.6947 Y30.7164
G01 X6.7071 Y30.6193
G01 X6.7195 Y30.5222
G01 X6.7319 Y30.4251
G01 X6.7443 Y30.3280
G01 X6.7566 Y30.2308
G01 X6.7690 Y30.1337
G01 X6.7814 Y30.0366
G01 X6.7938 Y29.9395
G01 X6.8062 Y29.8424
G01 X6.8186 Y29.7453
G01 X6.8310 Y29.6482
G01 X6.8453 Y29.5491
G01 X6.8615 Y29.4480
G01 X6.8776 Y29.3469
G01 X6.8938 Y29.2458
G01 X6.9099 Y29.1448
G01 X6.9261 Y29.0437
G01 X6.9422 Y28.9426
G01 X6.9584 Y28.8415
G01 X6.9745 Y28.7404
G01 X6.9907 Y28.6393
G01 X7.0068 Y28.5382
G01 X7.0230 Y28.4371
G01 X7.0391 Y28.3360
G01 X7.0558 Y28.2415
G01 X7.0749 Y28.1429
G01 X7.0940 Y28.0443
G01 X7.1130 Y27.9457
G01 X7.1321 Y27.8471
G01 X7.1512 Y27.7485
G01 X7.1703 Y27.6499
G01 X7.1894 Y27.5513
G01 X7.2085 Y27.4527
G01 X7.2276 Y27.3541
G01 X7.2467 Y27.2555
G01 X7.2657 Y27.1569
G01 X7.2848 Y27.0583
G01 X7.3018 Y26.9778
G01 X7.3238 Y26.8817
G01 X7.3459 Y26.7856
G01 X7.3679 Y26.6895
G01 X7.3899 Y26.5934
G01 X7.4119 Y26.4973
G01 X7.4340 Y26.4012
G01 X7.4560 Y26.3051
G01 X7.4780 Y26.2090
G01 X7.5000 Y26.1128
G01 X7.5221 Y26.0167
G01 X7.5441 Y25.9206
G01 X7.5661 Y25.8245
G01 X7.5827 Y25.7575
G01 X7.6076 Y25.6639
G01 X7.6326 Y25.5702
G01 X7.6576 Y25.4766
G01 X7.6825 Y25.3830
G01 X7.7075 Y25.2894
G01 X7.7324 Y25.1958
G01 X7.7574 Y25.1022
G01 X7.7824 Y25.0085
G01 X7.8073 Y24.9149
G01 X7.8323 Y24.8213
G01 X7.8572 Y24.7277
G01 X7.8822 Y24.6341
G01 X7.9007 Y24.5701
G01 X7.9306 Y24.4725
G01 X7.9604 Y24.3749
G01 X7.9903 Y24.2772
G01 X8.0202 Y24.1796
G01 X8.0501 Y24.0820
G01 X8.0800 Y23.9843
G01 X8.1099 Y23.8867
G01 X8.1398 Y23.7891
G01 X8.1697 Y23.6914
G01 X8.1996 Y23.5938
G01 X8.2295 Y23.4962
G01 X8.2495 Y23.4348
G01 X8.2825 Y23.3398
G01 X8.3155 Y23.2449
G01 X8.3486 Y23.1499
G01 X8.3816 Y23.0550
G01 X8.4147 Y22.9600
G01 X8.4477 Y22.8650
G01 X8.4807 Y22.7701
G01 X8.5138 Y22.6751
G01 X8.5468 Y22.5801
G01 X8.5798 Y22.4852
G01 X8.6129 Y22.3902
G01 X8.6312 Y22.3406
G01 X8.6674 Y22.2483
G01 X8.7035 Y22.1560
G01 X8.7397 Y22.0637
G01 X8.7759 Y21.9714
G01 X8.8121 Y21.8791
G01 X8.8483 Y21.7868
G01 X8.8845 Y21.6945
G01 X8.9206 Y21.6022
G01 X8.9568 Y21.5099
G01 X8.9930 Y21.4177
G01 X9.0292 Y21.3254
G01 X9.0847 Y21.1968
G01 X9.1240 Y21.1072
G01 X9.1633 Y21.0176
G01 X9.2026 Y20.9279
G01 X9.2420 Y20.8383
G01 X9.2813 Y20.7487
G01 X9.3206 Y20.6591
G01 X9.3600 Y20.5694
G01 X9.3993 Y20.4798
G01 X9.4386 Y20.3902
G01 X9.4780 Y20.3006
G01 X9.5340 Y20.1842
G01 X9.5765 Y20.0972
G01 X9.6190 Y20.0103
G01 X9.6615 Y19.9233
G01 X9.7039 Y19.8364
G01 X9.7464 Y19.7494
G01 X9.7889 Y19.6625
G01 X9.8314 Y19.5755
G01 X9.8738 Y19.4885
G01 X9.9163 Y19.4016
G01 X9.9588 Y19.3146
G01 X10.0241 Y19.1929
G01 X10.0732 Y19.1021
G01 X10.1223 Y19.0114
G01 X10.1639 Y18.9165 Z-3.1707
G01 X10.1943 Y18.8156 Z-3.1600
G01 X10.2250 Y18.7149 Z-3.1496
G01 X10.2558 Y18.6142 Z-3.1391
G01 X10.2865 Y18.5134 Z-3.1287
G01 X10.3173 Y18.4127 Z-3.1182
G01 X10.3481 Y18.3120 Z-3.1078
G01 X10.3946 Y18.1689 Z-3.0915
G01 X10.4273 Y18.0692 Z-3.0800
G01 X10.4601 Y17.9695 Z-3.0685
G01 X10.4929 Y17.8698 Z-3.0570
G01 X10.5257 Y17.7702 Z-3.0455
G01 X10.5584 Y17.6705 Z-3.0340
G01 X10.5912 Y17.5708 Z-3.0225
G01 X10.6241 Y17.4712 Z-3.0111
G01 X10.6576 Y17.3719 Z-3.0000
G01 X10.6910 Y17.2726 Z-2.9889
G01 X10.7430 Y17.1269 Z-2.9711
G01 X10.7786 Y17.0285 Z-2.9589
G01 X10.8141 Y16.9300 Z-2.9467
G01 X10.8496 Y16.8316 Z-2.9346
G01 X10.8852 Y16.7332 Z-2.9224
G01 X10.9207 Y16.6348 Z-2.9102
G01 X10.9562 Y16.5364 Z-2.8980
G01 X10.9918 Y16.4380 Z-2.8858
G01 X11.0273 Y16.3395 Z-2.8736
G01 X11.0628 Y16.2411 Z-2.8614
G01 X11.1214 Y16.0903 Z-2.8416
G01 X11.1598 Y15.9931 Z-2.8287
G01 X11.1983 Y15.8958 Z-2.8159
G01 X11.2367 Y15.7986 Z-2.8030
G01 X11.2751 Y15.7014 Z-2.7901
G01 X11.3135 Y15.6042 Z-2.7772
G01 X11.3519 Y15.5070 Z-2.7644
G01 X11.3904 Y15.4098 Z-2.7515
G01 X11.4288 Y15.3126 Z-2.7386
G01 X11.4672 Y15.2153 Z-2.7257
G01 X11.5332 Y15.0566 Z-2.7031
G01 X11.5741 Y14.9600 Z-2.6892
G01 X11.6155 Y14.8639 Z-2.6756
G01 X11.6570 Y14.7679 Z-2.6621
G01 X11.6984 Y14.6718 Z-2.6486
G01 X11.7399 Y14.5758 Z-2.6350
G01 X11.7813 Y14.4797 Z-2.6215
G01 X11.8228 Y14.3836 Z-2.6079
G01 X11.8642 Y14.2876 Z-2.5944
G01 X11.9057 Y14.1915 Z-2.5809
G01 X11.9379 Y14.1190 Z-2.5702
G01 X11.9817 Y14.0233 Z-2.5554
G01 X12.0255 Y13.9276 Z-2.5407
G01 X12.0694 Y13.8320 Z-2.5260
G01 X12.1139 Y13.7370 Z-2.5118
G01 X12.1585 Y13.6420 Z-2.4976
G01 X12.2031 Y13.5471 Z-2.4834
G01 X12.2478 Y13.4521 Z-2.4692
G01 X12.2924 Y13.3572 Z-2.4551
G01 X12.3370 Y13.2623 Z-2.4409
G01 X12.3817 Y13.1673 Z-2.4267
G01 X12.4645 Y12.9940 Z-2.4002
G01 X12.5100 Y12.9001 Z-2.3855
G01 X12.5555 Y12.8063 Z-2.3708
G01 X12.6013 Y12.7126 Z-2.3563
G01 X12.6477 Y12.6196 Z-2.3422
G01 X12.6941 Y12.5266 Z-2.3281
G01 X12.7405 Y12.4335 Z-2.3140
G01 X12.7870 Y12.3405 Z-2.2999
G01 X12.8334 Y12.2475 Z-2.2858
G01 X12.8798 Y12.1545 Z-2.2718
G01 X12.9263 Y12.0615 Z-2.2577
G01 X12.9941 Y11.9284 Z-2.2368
G01 X13.0414 Y11.8376 Z-2.2221
G01 X13.0887 Y11.7468 Z-2.2074
G01 X13.1365 Y11.6566 Z-2.1931
G01 X13.1848 Y11.5668 Z-2.1791
G01 X13.2330 Y11.4769 Z-2.1651
G01 X13.2813 Y11.3871 Z-2.1511
G01 X13.3296 Y11.2973 Z-2.1371
G01 X13.3778 Y11.2074 Z-2.1231
G01 X13.4261 Y11.1176 Z-2.1090
G01 X13.4743 Y11.0278 Z-2.0950
G01 X13.5521 Y10.8863 Z-2.0721
G01 X13.6054 Y10.7913 Z-2.0562
G01 X13.6592 Y10.6969 Z-2.0408
G01 X13.7136 Y10.6032 Z-2.0257
G01 X13.7680 Y10.5094 Z-2.0106
G01 X13.8224 Y10.4156 Z-1.9956
G01 X13.8768 Y10.3218 Z-1.9805
G01 X13.9312 Y10.2280 Z-1.9655
G01 X13.9856 Y10.1343 Z-1.9504
G01 X14.0400 Y10.0405 Z-1.9353
G01 X14.1290 Y9.8903 Z-1.9103
G01 X14.1851 Y9.7996 Z-1.8951
G01 X14.2417 Y9.7095 Z-1.8802
G01 X14.2983 Y9.6193 Z-1.8654
G01 X14.3550 Y9.5292 Z-1.8505
G01 X14.4116 Y9.4391 Z-1.8356
G01 X14.4683 Y9.3489 Z-1.8208
G01 X14.5249 Y9.2588 Z-1.8059
G01 X14.5815 Y9.1687 Z-1.7910
G01 X14.6382 Y9.0785 Z-1.7762
G01 X14.7347 Y8.9321 Z-1.7519
G01 X14.7937 Y8.8457 Z-1.7373
G01 X14.8527 Y8.7594 Z-1.7227
G01 X14.9118 Y8.6731 Z-1.7081
G01 X14.9708 Y8.5868 Z-1.6935
G01 X15.0298 Y8.5005 Z-1.6790
G01 X15.0889 Y8.4142 Z-1.6644
G01 X15.1479 Y8.3278 Z-1.6498
G01 X15.2073 Y8.2420 Z-1.6355
G01 X15.2678 Y8.1574 Z-1.6221
G01 X15.3730 Y8.0148 Z-1.5987
G01 X15.4348 Y7.9328 Z-1.5847
G01 X15.4966 Y7.8508 Z-1.5707
G01 X15.5584 Y7.7688 Z-1.5567
G01 X15.6202 Y7.6868 Z-1.5427
G01 X15.6820 Y7.6048 Z-1.5287
G01 X15.7440 Y7.5231 Z-1.5149
G01 X15.8071 Y7.4427 Z-1.5019
G01 X15.8708 Y7.3633 Z-1.4895
G01 X15.9347 Y7.2840 Z-1.4772
G01 X16.0487 Y7.1450 Z-1.4545
G01 X16.1135 Y7.0677 Z-1.4412
G01 X16.1783 Y6.9904 Z-1.4280
G01 X16.2431 Y6.9131 Z-1.4148
G01 X16.3080 Y6.8359 Z-1.4016
G01 X16.3738 Y6.7601 Z-1.3893
G01 X16.4404 Y6.6854 Z-1.3777
G01 X16.5071 Y6.6109 Z-1.3661
G01 X16.5739 Y6.5365 Z-1.3546
G01 X16.6406 Y6.4620 Z-1.3431
G01 X16.7641 Y6.3269 Z-1.3210
G01 X16.8318 Y6.2544 Z-1.3086
G01 X16.8997 Y6.1821 Z-1.2962
G01 X16.9683 Y6.1111 Z-1.2846
G01 X17.0378 Y6.0414 Z-1.2738
G01 X17.1074 Y5.9719 Z-1.2631
G01 X17.1770 Y5.9024 Z-1.2524
G01 X17.2466 Y5.8328 Z-1.2417
G01 X17.3161 Y5.7633 Z-1.2310
G01 X17.3857 Y5.6938 Z-1.2203
G01 X17.4385 Y5.6047 Z-1.1968
G01 X17.5290 Y5.5545 Z-1.1976
G01 X17.6073 Y5.4831 Z-1.1862
G01 X17.6863 Y5.4127 Z-1.1754
G01 X17.7652 Y5.3424 Z-1.1646
G01 X17.8441 Y5.2720 Z-1.1538
G01 X17.9231 Y5.2017 Z-1.1430
G01 X18.0020 Y5.1313 Z-1.1322
G01 X18.0809 Y5.0610 Z-1.1214
G01 X18.1601 Y4.9910 Z-1.1109
G01 X18.2405 Y4.9232 Z-1.1015
G01 X18.3267 Y4.8548 Z-1.0911
G01 X18.4086 Y4.7900 Z-1.0811
G01 X18.4904 Y4.7252 Z-1.0712
G01 X18.5723 Y4.6604 Z-1.0612
G01 X18.6541 Y4.5956 Z-1.0513
G01 X18.7359 Y4.5308 Z-1.0414
G01 X18.8181 Y4.4668 Z-1.0318
G01 X18.9015 Y4.4049 Z-1.0235
G01 X18.9851 Y4.3435 Z-1.0155
G01 X19.0687 Y4.2822 Z-1.0075
G01 X19.1627 Y4.2162 Z-0.9975
G01 X19.2473 Y4.1570 Z-0.9884
G01 X19.3319 Y4.0978 Z-0.9792
G01 X19.4165 Y4.0386 Z-0.9701
G01 X19.5018 Y3.9809 Z-0.9618
G01 X19.5880 Y3.9250 Z-0.9545
G01 X19.6742 Y3.8693 Z-0.9473
G01 X19.7604 Y3.8136 Z-0.9401
G01 X19.8466 Y3.7579 Z-0.9329
G01 X19.9328 Y3.7021 Z-0.9258
G01 X20.0345 Y3.6395 Z-0.9161
G01 X20.1218 Y3.5861 Z-0.9079
G01 X20.2101 Y3.5350 Z-0.9009
G01 X20.2987 Y3.4849 Z-0.8945
G01 X20.3874 Y3.4348 Z-0.8880
G01 X20.4760 Y3.3847 Z-0.8816
G01 X20.5647 Y3.3345 Z-0.8751
G01 X20.6533 Y3.2844 Z-0.8687
G01 X20.7420 Y3.2343 Z-0.8622
G01 X20.8309 Y3.1848 Z-0.8561
G01 X20.9413 Y3.1299 Z-0.8490
G01 X21.0322 Y3.0853 Z-0.8432
G01 X21.1231 Y3.0408 Z-0.8374
G01 X21.2141 Y2.9962 Z-0.8316
G01 X21.3050 Y2.9516 Z-0.8258
G01 X21.3959 Y2.9070 Z-0.8200
G01 X21.4869 Y2.8625 Z-0.8143
G01 X21.5784 Y2.8196 Z-0.8094
G01 X21.6705 Y2.7784 Z-0.8054
G01 X21.7626 Y2.7371 Z-0.8014
G01 X21.8798 Y2.6875 Z-0.7950
G01 X21.9729 Y2.6484 Z-0.7898
G01 X22.0659 Y2.6093 Z-0.7846
G01 X22.1590 Y2.5702 Z-0.7794
G01 X22.2522 Y2.5315 Z-0.7744
G01 X22.3461 Y2.4952 Z-0.7707
G01 X22.4402 Y2.4594 Z-0.7672
G01 X22.5342 Y2.4235 Z-0.7637
G01 X22.6283 Y2.3876 Z-0.7602
G01 X22.7223 Y2.3517 Z-0.7567
G01 X22.8457 Y2.3075 Z-0.7508
G01 X22.9408 Y2.2737 Z-0.7461
G01 X23.0362 Y2.2415 Z-0.7422
G01 X23.1320 Y2.2108 Z-0.7392
G01 X23.2279 Y2.1802 Z-0.7361
G01 X23.3237 Y2.1496 Z-0.7330
G01 X23.4196 Y2.1189 Z-0.7300
G01 X23.5154 Y2.0883 Z-0.7269
G01 X23.6113 Y2.0576 Z-0.7238
G01 X23.7071 Y2.0270 Z-0.7208
G01 X23.8369 Y1.9912 Z-0.7167
G01 X23.9345 Y1.9657 Z-0.7139
G01 X24.0320 Y1.9401 Z-0.7112
G01 X24.1295 Y1.9146 Z-0.7085
G01 X24.2271 Y1.8891 Z-0.7058
G01 X24.3246 Y1.8635 Z-0.7031
G01 X24.4221 Y1.8380 Z-0.7003
G01 X24.5197 Y1.8126 Z-0.6977
G01 X24.6177 Y1.7894 Z-0.6961
G01 X24.7158 Y1.7666 Z-0.6948
G01 X24.8510 Y1.7382 Z-0.6917
G01 X24.9502 Y1.7176 Z-0.6893
G01 X25.0493 Y1.6970 Z-0.6868
G01 X25.1485 Y1.6765 Z-0.6844
G01 X25.2476 Y1.6559 Z-0.6819
G01 X25.3468 Y1.6357 Z-0.6796
G01 X25.4463 Y1.6176 Z-0.6784
G01 X25.5459 Y1.5997 Z-0.6773
G01 X25.6454 Y1.5819 Z-0.6762
G01 X25.7450 Y1.5640 Z-0.6751
G01 X25.8851 Y1.5416 Z-0.6722
G01 X25.9858 Y1.5259 Z-0.6699
G01 X26.0865 Y1.5102 Z-0.6677
G01 X26.1872 Y1.4949 Z-0.6656
G01 X26.2882 Y1.4816 Z-0.6646
G01 X26.3891 Y1.4684 Z-0.6636
G01 X26.4901 Y1.4552 Z-0.6626
G01 X26.5910 Y1.4420 Z-0.6616
G01 X26.6920 Y1.4288 Z-0.6606
G01 X26.7929 Y1.4156 Z-0.6596
G01 X26.9379 Y1.3995 Z-0.6568
G01 X27.0401 Y1.3888 Z-0.6548
G01 X27.1424 Y1.3801 Z-0.6538
G01 X27.2447 Y1.3714 Z-0.6529
G01 X27.3470 Y1.3628 Z-0.6519
G01 X27.4494 Y1.3541 Z-0.6510
G01 X27.5517 Y1.3455 Z-0.6500
G01 X27.6540 Y1.3369 Z-0.6491
G01 X27.7563 Y1.3282 Z-0.6481
G01 X27.8587 Y1.3196 Z-0.6471
G01 X28.0085 Y1.3118 Z-0.6454
G01 X28.1122 Y1.3076 Z-0.6444
G01 X28.2159 Y1.3034 Z-0.6434
G01 X28.3195 Y1.2992 Z-0.6424
G01 X28.4232 Y1.2950 Z-0.6415
G01 X28.5269 Y1.2908 Z-0.6405
G01 X28.6306 Y1.2866 Z-0.6395
G01 X28.7343 Y1.2823 Z-0.6385
G01 X28.8379 Y1.2784 Z-0.6377
G01 X28.9417 Y1.2763
G01 X29.0873 Y1.2757 Z-0.6366
G01 X29.1835 Y1.2756 Z-0.6357
G01 X29.2797 Y1.2755 Z-0.6349
G01 X29.3759 Z-0.6340
G01 X29.4721 Y1.2754 Z-0.6331
G01 X29.5683 Z-0.6322
G01 X29.6645 Y1.2753 Z-0.6313
G01 X29.7607 Z-0.6304
G01 X29.8569 Y1.2771 Z-0.6305
G01 X29.9530 Y1.2791 Z-0.6306
G01 X30.0492 Y1.2811 Z-0.6307
G01 X30.1031 Y1.2828 Z-0.6306
G01 X30.2067 Y1.2869 Z-0.6298
G01 X30.3104 Y1.2909 Z-0.6290
G01 X30.4140 Y1.2950 Z-0.6282
G01 X30.5177 Y1.2991 Z-0.6274
G01 X30.6213 Y1.3046
G01 X30.7248 Y1.3113 Z-0.6279
G01 X30.8283 Y1.3180 Z-0.6284
G01 X30.9318 Y1.3247 Z-0.6290
G01 X31.0353 Y1.3314 Z-0.6295
G01 X31.1388 Y1.3381 Z-0.6300
G01 X31.1949 Y1.3422
G01 X31.2972 Y1.3508 Z-0.6296
G01 X31.3993 Y1.3610 Z-0.6300
G01 X31.5014 Y1.3723 Z-0.6310
G01 X31.6035 Y1.3836 Z-0.6319
G01 X31.7055 Y1.3949 Z-0.6329
G01 X31.8076 Y1.4062 Z-0.6338
G01 X31.9097 Y1.4175 Z-0.6348
G01 X32.0117 Y1.4288 Z-0.6357
G01 X32.1137 Y1.4408 Z-0.6370
G01 X32.2155 Y1.4550 Z-0.6394
G01 X32.2685 Y1.4629 Z-0.6404
G01 X32.3690 Y1.4789 Z-0.6419
G01 X32.4696 Y1.4949 Z-0.6433
G01 X32.5701 Y1.5110 Z-0.6448
G01 X32.6706 Y1.5270 Z-0.6462
G01 X32.7711 Y1.5430 Z-0.6476
G01 X32.8715 Y1.5604 Z-0.6498
G01 X32.9716 Y1.5795 Z-0.6528
G01 X33.0717 Y1.5986 Z-0.6558
G01 X33.1719 Y1.6177 Z-0.6587
G01 X33.2720 Y1.6368 Z-0.6617
G01 X33.3212 Y1.6467 Z-0.6630
G01 X33.4201 Y1.6676 Z-0.6650
G01 X33.5190 Y1.6885 Z-0.6670
G01 X33.6175 Y1.7116 Z-0.6701
G01 X33.7159 Y1.7356 Z-0.6737
G01 X33.8142 Y1.7597 Z-0.6774
G01 X33.9126 Y1.7837 Z-0.6810
G01 X34.0109 Y1.8078 Z-0.6846
G01 X34.1093 Y1.8319 Z-0.6882
G01 X34.2077 Y1.8559 Z-0.6918
G01 X34.3057 Y1.8818 Z-0.6964
G01 X34.3501 Y1.8947 Z-0.6986
G01 X34.4465 Y1.9238 Z-0.7029
G01 X34.5430 Y1.9529 Z-0.7072
G01 X34.6395 Y1.9820 Z-0.7115
G01 X34.7359 Y2.0111 Z-0.7158
G01 X34.8324 Y2.0402 Z-0.7201
G01 X34.9288 Y2.0695 Z-0.7245
G01 X35.0247 Y2.1013 Z-0.7301
G01 X35.1204 Y2.1339 Z-0.7362
G01 X35.2162 Y2.1664 Z-0.7422
G01 X35.3119 Y2.1990 Z-0.7483
G01 X35.4451 Y2.2468 Z-0.7556
G01 X35.5395 Y2.2810 Z-0.7606
G01 X35.6338 Y2.3158 Z-0.7660
G01 X35.7274 Y2.3532 Z-0.7726
G01 X35.8210 Y2.3909 Z-0.7795
G01 X35.9145 Y2.4286 Z-0.7863
G01 X36.0081 Y2.4663 Z-0.7931
G01 X36.1016 Y2.5040 Z-0.8000
G01 X36.1952 Y2.5417 Z-0.8068
G01 X36.2886 Y2.5798 Z-0.8138
G01 X36.4121 Y2.6365 Z-0.8239
G01 X36.5033 Y2.6794 Z-0.8316
G01 X36.5946 Y2.7223 Z-0.8392
G01 X36.6858 Y2.7652 Z-0.8469
G01 X36.7770 Y2.8080 Z-0.8545
G01 X36.8683 Y2.8509 Z-0.8621
G01 X36.9593 Y2.8943 Z-0.8700
G01 X37.0497 Y2.9401 Z-0.8792
G01 X37.1399 Y2.9865 Z-0.8887
G01 X37.2301 Y3.0330 Z-0.8982
G01 X37.3435 Y3.0941 Z-0.9092
G01 X37.4323 Y3.1421 Z-0.9177
G01 X37.5211 Y3.1901 Z-0.9261
G01 X37.6098 Y3.2385 Z-0.9348
G01 X37.6976 Y3.2892 Z-0.9447
G01 X37.7852 Y3.3407 Z-0.9550
G01 X37.8728 Y3.3923 Z-0.9654
G01 X37.9604 Y3.4439 Z-0.9757
G01 X38.0480 Y3.4954 Z-0.9861
G01 X38.1355 Y3.5470 Z-0.9964
G01 X38.2387 Y3.6105 Z-1.0077
G01 X38.3242 Y3.6654 Z-1.0180
G01 X38.4091 Y3.7220 Z-1.0291
G01 X38.4940 Y3.7786 Z-1.0403
G01 X38.5789 Y3.8351 Z-1.0515
G01 X38.6637 Y3.8917 Z-1.0626
G01 X38.7486 Y3.9483 Z-1.0738
G01 X38.8335 Y4.0049 Z-1.0850
G01 X38.9182 Y4.0620 Z-1.0964
G01 X39.0020 Y4.1212 Z-1.1090
G01 X39.0930 Y4.1892 Z-1.1223
G01 X39.1751 Y4.2507 Z-1.1343
G01 X39.2572 Y4.3122 Z-1.1462
G01 X39.3393 Y4.3736 Z-1.1582
G01 X39.4214 Y4.4351 Z-1.1702
G01 X39.5034 Y4.4966 Z-1.1821
G01 X39.5850 Y4.5592 Z-1.1947
G01 X39.6658 Y4.6236 Z-1.2083
G01 X39.7465 Y4.6883 Z-1.2220
G01 X39.8272 Y4.7531 Z-1.2358
G01 X39.9075 Y4.8203 Z-1.2487
G01 X39.9867 Y4.8865 Z-1.2615
G01 X40.0660 Y4.9528 Z-1.2742
G01 X40.1452 Y5.0190 Z-1.2869
G01 X40.2238 Y5.0864 Z-1.3003
G01 X40.3017 Y5.1555 Z-1.3146
G01 X40.3794 Y5.2248 Z-1.3291
G01 X40.4571 Y5.2942 Z-1.3436
G01 X40.5348 Y5.3636 Z-1.3581
G01 X40.6826 Y5.4982 Z-1.3849
G01 X40.7589 Y5.5690 Z-1.3984
G01 X40.8348 Y5.6406 Z-1.4122
G01 X40.9098 Y5.7138 Z-1.4271
G01 X40.9845 Y5.7876 Z-1.4422
G01 X41.0593 Y5.8614 Z-1.4574
G01 X41.1340 Y5.9352 Z-1.4725
G01 X41.2087 Y6.0090 Z-1.4877
G01 X41.2834 Y6.0828 Z-1.5028
G01 X41.4185 Y6.2191 Z-1.5297
G01 X41.4911 Y6.2958 Z-1.5446
G01 X41.5628 Y6.3738 Z-1.5604
G01 X41.6346 Y6.4519 Z-1.5761
G01 X41.7063 Y6.5300 Z-1.5919
G01 X41.7780 Y6.6080 Z-1.6077
G01 X41.8497 Y6.6861 Z-1.6235
G01 X41.9214 Y6.7642 Z-1.6392
G01 X41.9932 Y6.8423 Z-1.6550
G01 X42.1153 Y6.9810 Z-1.6827
G01 X42.1841 Y7.0632 Z-1.6990
G01 X42.2528 Y7.1454 Z-1.7154
G01 X42.3215 Y7.2276 Z-1.7317
G01 X42.3903 Y7.3098 Z-1.7481
G01 X42.4590 Y7.3920 Z-1.7645
G01 X42.5277 Y7.4742 Z-1.7808
G01 X42.5964 Y7.5564 Z-1.7972
G01 X42.6648 Y7.6391 Z-1.8139
G01 X42.7749 Y7.7795 Z-1.8421
G01 X42.8407 Y7.8657 Z-1.8590
G01 X42.9064 Y7.9519 Z-1.8759
G01 X42.9722 Y8.0380 Z-1.8928
G01 X43.0379 Y8.1242 Z-1.9097
G01 X43.1037 Y8.2103 Z-1.9266
G01 X43.1694 Y8.2965 Z-1.9435
G01 X43.2350 Y8.3829 Z-1.9606
G01 X43.2998 Y8.4704 Z-1.9783
G01 X43.3999 Y8.6105 Z-2.0062
G01 X43.4629 Y8.7003 Z-2.0234
G01 X43.5258 Y8.7901 Z-2.0407
G01 X43.5888 Y8.8799 Z-2.0580
G01 X43.6517 Y8.9697 Z-2.0753
G01 X43.7147 Y9.0595 Z-2.0925
G01 X43.7776 Y9.1493 Z-2.1098
G01 X43.8401 Y9.2398 Z-2.1275
G01 X43.9021 Y9.3308 Z-2.1455
G01 X43.9869 Y9.4575 Z-2.1699
G01 X44.0426 Y9.5424 Z-2.1857
G01 X44.0982 Y9.6274 Z-2.2014
G01 X44.1539 Y9.7123 Z-2.2172
G01 X44.2096 Y9.7973 Z-2.2329
G01 X44.2652 Y9.8822 Z-2.2487
G01 X44.3209 Y9.9672 Z-2.2645
G01 X44.3760 Y10.0529 Z-2.2807
G01 X44.4308 Y10.1388 Z-2.2971
G01 X44.4857 Y10.2248 Z-2.3135
G01 X44.5567 Y10.3384 Z-2.3345
G01 X44.6104 Y10.4259 Z-2.3502
G01 X44.6641 Y10.5135 Z-2.3658
G01 X44.7178 Y10.6010 Z-2.3815
G01 X44.7715 Y10.6886 Z-2.3972
G01 X44.8252 Y10.7761 Z-2.4128
G01 X44.8786 Y10.8640 Z-2.4287
G01 X44.9315 Y10.9524 Z-2.4450
G01 X44.9844 Y11.0409 Z-2.4613
G01 X45.0373 Y11.1294 Z-2.4775
G01 X45.1034 Y11.2421 Z-2.4976
G01 X45.1552 Y11.3322 Z-2.5132
G01 X45.2070 Y11.4223 Z-2.5288
G01 X45.2588 Y11.5124 Z-2.5443
G01 X45.3106 Y11.6026 Z-2.5599
G01 X45.3624 Y11.6927 Z-2.5755
G01 X45.4137 Y11.7834 Z-2.5914
G01 X45.4648 Y11.8744 Z-2.6076
G01 X45.5158 Y11.9654 Z-2.6237
G01 X45.5668 Y12.0563 Z-2.6398
G01 X45.6454 Y12.1985 Z-2.6645
G01 X45.6938 Y12.2875 Z-2.6795
G01 X45.7422 Y12.3766 Z-2.6946
G01 X45.7907 Y12.4656 Z-2.7096
G01 X45.8391 Y12.5547 Z-2.7247
G01 X45.8874 Y12.6438 Z-2.7398
G01 X45.9353 Y12.7335 Z-2.7553
G01 X45.9830 Y12.8233 Z-2.7709
G01 X46.0307 Y12.9131 Z-2.7864
G01 X46.0784 Y13.0029 Z-2.8020
G01 X46.1236 Y13.0901 Z-2.8165
G01 X46.1727 Y13.1869 Z-2.8322
G01 X46.2219 Y13.2837 Z-2.8479
G01 X46.2711 Y13.3806 Z-2.8636
G01 X46.3203 Y13.4774 Z-2.8792
G01 X46.3694 Y13.5742 Z-2.8949
G01 X46.4182 Y13.6715 Z-2.9109
G01 X46.4666 Y13.7690 Z-2.9271
G01 X46.5150 Y13.8666 Z-2.9433
G01 X46.5540 Y13.9468 Z-2.9561
G01 X46.5996 Y14.0433 Z-2.9710
G01 X46.6453 Y14.1398 Z-2.9859
G01 X46.6909 Y14.2363 Z-3.0008
G01 X46.7366 Y14.3328 Z-3.0157
G01 X46.7822 Y14.4293 Z-3.0306
G01 X46.8279 Y14.5258 Z-3.0455
G01 X46.8734 Y14.6224 Z-3.0604
G01 X46.9184 Y14.7194 Z-3.0758
G01 X46.9462 Y14.7809 Z-3.0851
G01 X46.9884 Y14.8771 Z-3.0992
G01 X47.0307 Y14.9733 Z-3.1133
G01 X47.0729 Y15.0694 Z-3.1274
G01 X47.1152 Y15.1656 Z-3.1415
G01 X47.1574 Y15.2618 Z-3.1556
G01 X47.1997 Y15.3580 Z-3.1697
G01 X47.2556 Y15.4430 Z-3.1750
G01 X47.3196 Y15.5213
G01 X47.4092 Y15.6386
G01 X47.4694 Y15.7185
G01 X47.5296 Y15.7984
G01 X47.5898 Y15.8783
G01 X47.6500 Y15.9583
G01 X47.7102 Y16.0382
G01 X47.7704 Y16.1181
G01 X47.8306 Y16.1980
G01 X47.9096 Y16.3109
G01 X47.9659 Y16.3924
G01 X48.0222 Y16.4739
G01 X48.0785 Y16.5554
G01 X48.1348 Y16.6369
G01 X48.1911 Y16.7183
G01 X48.2474 Y16.7998
G01 X48.3037 Y16.8813
G01 X48.3734 Y16.9905
G01 X48.4258 Y17.0735
G01 X48.4783 Y17.1566
G01 X48.5307 Y17.2397
G01 X48.5831 Y17.3227
G01 X48.6355 Y17.4058
G01 X48.6880 Y17.4888
G01 X48.7404 Y17.5719
G01 X48.8019 Y17.6780
G01 X48.8504 Y17.7626
G01 X48.8989 Y17.8473
G01 X48.9475 Y17.9319
G01 X48.9960 Y18.0166
G01 X49.0446 Y18.1012
G01 X49.0931 Y18.1858
G01 X49.1416 Y18.2705
G01 X49.1960 Y18.3745
G01 X49.2407 Y18.4607
G01 X49.2853 Y18.5469
G01 X49.3300 Y18.6331
G01 X49.3746 Y18.7193
G01 X49.4193 Y18.8056
G01 X49.4639 Y18.8918
G01 X49.5086 Y18.9780
G01 X49.5568 Y19.0810
G01 X49.5976 Y19.1688
G01 X49.6384 Y19.2566
G01 X49.6792 Y19.3444
G01 X49.7199 Y19.4322
G01 X49.7607 Y19.5200
G01 X49.8015 Y19.6078
G01 X49.8423 Y19.6956
G01 X49.8852 Y19.7988
G01 X49.9221 Y19.8882
G01 X49.9590 Y19.9776
G01 X49.9959 Y20.0669
G01 X50.0328 Y20.1563
G01 X50.0697 Y20.2457
G01 X50.1066 Y20.3351
G01 X50.1435 Y20.4244
G01 X50.1819 Y20.5293
G01 X50.2149 Y20.6203
G01 X50.2479 Y20.7112
G01 X50.2809 Y20.8022
G01 X50.3139 Y20.8931
G01 X50.3469 Y20.9841
G01 X50.3799 Y21.0750
G01 X50.4129 Y21.1660
G01 X50.4473 Y21.2740
G01 X50.4764 Y21.3665
G01 X50.5055 Y21.4590
G01 X50.5346 Y21.5516
G01 X50.5638 Y21.6441
G01 X50.5929 Y21.7366
G01 X50.6220 Y21.8292
G01 X50.6511 Y21.9217
G01 X50.6817 Y22.0343
G01 X50.7070 Y22.1284
G01 X50.7322 Y22.2225
G01 X50.7575 Y22.3166
G01 X50.7827 Y22.4107
G01 X50.8080 Y22.5048
G01 X50.8332 Y22.5989
G01 X50.8584 Y22.6930
G01 X50.8854 Y22.8117
G01 X50.9068 Y22.9074
G01 X50.9281 Y23.0031
G01 X50.9495 Y23.0987
G01 X50.9708 Y23.1944
G01 X50.9922 Y23.2901
G01 X51.0136 Y23.3858
G01 X51.0349 Y23.4815
G01 X51.0582 Y23.6077
G01 X51.0757 Y23.7050
G01 X51.0932 Y23.8022
G01 X51.1106 Y23.8995
G01 X51.1281 Y23.9967
G01 X51.1456 Y24.0940
G01 X51.1630 Y24.1913
G01 X51.1805 Y24.2885
G01 X51.1998 Y24.4237
G01 X51.2134 Y24.5225
G01 X51.2270 Y24.6213
G01 X51.2406 Y24.7202
G01 X51.2542 Y24.8190
G01 X51.2678 Y24.9179
G01 X51.2814 Y25.0167
G01 X51.2950 Y25.1155
G01 X51.3099 Y25.2608
G01 X51.3196 Y25.3613
G01 X51.3293 Y25.4617
G01 X51.3390 Y25.5621
G01 X51.3487 Y25.6625
G01 X51.3584 Y25.7629
G01 X51.3681 Y25.8633
G01 X51.3779 Y25.9637
G01 X51.3820 Y26.0184
G01 X51.3878 Y26.1204
G01 X51.3937 Y26.2223
G01 X51.3995 Y26.3243
G01 X51.4053 Y26.4263
G01 X51.4111 Y26.5283
G01 X51.4170 Y26.6303
G01 X51.4228 Y26.7323
G01 X51.4286 Y26.8343
G01 X51.4311 Y26.8996
G01 X51.4330 Y27.0032
G01 X51.4349 Y27.1068
G01 X51.4369 Y27.2103
G01 X51.4388 Y27.3139
G01 X51.4408 Y27.4175
G01 X51.4427 Y27.5210
G01 X51.4446 Y27.6246
G01 X51.4466 Y27.7282
G01 X51.4467 Y27.8196
G01 X51.4451 Y27.9232
G01 X51.4434 Y28.0269
G01 X51.4418 Y28.1305
G01 X51.4402 Y28.2341
G01 X51.4385 Y28.3378
G01 X51.4369 Y28.4414
G01 X51.4352 Y28.5450
G01 X51.4336 Y28.6487
G01 X51.4303 Y28.7527
G01 X51.4254 Y28.8548
G01 X51.4205 Y28.9570
G01 X51.4156 Y29.0592
G01 X51.4107 Y29.1614
G01 X51.4057 Y29.2635
G01 X51.4008 Y29.3657
G01 X51.3959 Y29.4679
G01 X51.3910 Y29.5701
G01 X51.3849 Y29.6648
G01 X51.3767 Y29.7655
G01 X51.3685 Y29.8662
G01 X51.3603 Y29.9669
G01 X51.3521 Y30.0677
G01 X51.3440 Y30.1684
G01 X51.3358 Y30.2691
G01 X51.3276 Y30.3698
G01 X51.3194 Y30.4705
G01 X51.3110 Y30.5565
G01 X51.2995 Y30.6558
G01 X51.2880 Y30.7550
G01 X51.2765 Y30.8543
G01 X51.2651 Y30.9535
G01 X51.2536 Y31.0528
G01 X51.2421 Y31.1521
G01 X51.2307 Y31.2513
G01 X51.2192 Y31.3506
G01 X51.2089 Y31.4284
G01 X51.1941 Y31.5262
G01 X51.1794 Y31.6240
G01 X51.1646 Y31.7218
G01 X51.1499 Y31.8196
G01 X51.1352 Y31.9175
G01 X51.1204 Y32.0153
G01 X51.1057 Y32.1131
G01 X51.0909 Y32.2109
G01 X51.0791 Y32.2813
G01 X51.0611 Y32.3776
G01 X51.0430 Y32.4740
G01 X51.0250 Y32.5703
G01 X51.0070 Y32.6667
G01 X50.9890 Y32.7630
G01 X50.9709 Y32.8594
G01 X50.9529 Y32.9557
G01 X50.9349 Y33.0521
G01 X50.9218 Y33.1158
G01 X50.9005 Y33.2107
G01 X50.8792 Y33.3056
G01 X50.8579 Y33.4005
G01 X50.8366 Y33.4954
G01 X50.8153 Y33.5903
G01 X50.7940 Y33.6852
G01 X50.7727 Y33.7801
G01 X50.7514 Y33.8750
G01 X50.7373 Y33.9329
G01 X50.7128 Y34.0264
G01 X50.6882 Y34.1198
G01 X50.6636 Y34.2132
G01 X50.6391 Y34.3067
G01 X50.6145 Y34.4001
G01 X50.5899 Y34.4936
G01 X50.5653 Y34.5870
G01 X50.5408 Y34.6804
G01 X50.5258 Y34.7335
G01 X50.4979 Y34.8255
G01 X50.4701 Y34.9175
G01 X50.4422 Y35.0095
G01 X50.4144 Y35.1015
G01 X50.3865 Y35.1934
G01 X50.3587 Y35.2854
G01 X50.3308 Y35.3774
G01 X50.3030 Y35.4694
G01 X50.2871 Y35.5185
G01 X50.2560 Y35.6091
G01 X50.2248 Y35.6996
G01 X50.1937 Y35.7901
G01 X50.1626 Y35.8806
G01 X50.1315 Y35.9712
G01 X50.1003 Y36.0617
G01 X50.0692 Y36.1522
G01 X50.0381 Y36.2428
G01 X49.9868 Y36.3780
G01 X49.9524 Y36.4671
G01 X49.9180 Y36.5562
G01 X49.8836 Y36.6452
G01 X49.8492 Y36.7343
G01 X49.8148 Y36.8234
G01 X49.7804 Y36.9124
G01 X49.7460 Y37.0015
G01 X49.7223 Y37.0589
G01 X49.6809 Y37.1553
G01 X49.6394 Y37.2516
G01 X49.5980 Y37.3480
G01 X49.5565 Y37.4444
G01 X49.5151 Y37.5408
G01 X49.4736 Y37.6371
G01 X49.4322 Y37.7335
G01 X49.4009 Y37.8028
G01 X49.3558 Y37.8975
G01 X49.3108 Y37.9923
G01 X49.2657 Y38.0871
G01 X49.2207 Y38.1819
G01 X49.1756 Y38.2766
G01 X49.1306 Y38.3714
G01 X49.0855 Y38.4662
G01 X49.0579 Y38.5222
G01 X49.0136 Y38.6069
G01 X48.9694 Y38.6916
G01 X48.9252 Y38.7763
G01 X48.8809 Y38.8610
G01 X48.8367 Y38.9457
G01 X48.7925 Y39.0304
G01 X48.7483 Y39.1151
G01 X48.7040 Y39.1998
G01 X48.6326 Y39.3269
G01 X48.5851 Y39.4101
G01 X48.5375 Y39.4934
G01 X48.4900 Y39.5766
G01 X48.4425 Y39.6599
G01 X48.3950 Y39.7431
G01 X48.3475 Y39.8263
G01 X48.3000 Y39.9096
G01 X48.2730 Y39.9549
G01 X48.2222 Y40.0367
G01 X48.1714 Y40.1185
G01 X48.1206 Y40.2003
G01 X48.0698 Y40.2821
G01 X48.0191 Y40.3639
G01 X47.9683 Y40.4457
G01 X47.9175 Y40.5275
G01 X47.8667 Y40.6093
G01 X47.8359 Y40.6568
G01 X47.7819 Y40.7372
G01 X47.7278 Y40.8175
G01 X47.6738 Y40.8978
G01 X47.6197 Y40.9781
G01 X47.5656 Y41.0585
G01 X47.5116 Y41.1388
G01 X47.4575 Y41.2191
G01 X47.4175 Y41.3089 Z-3.1665
G01 X47.3547 Y41.4606 Z-3.1479
G01 X47.3161 Y41.5531 Z-3.1363
G01 X47.2775 Y41.6456 Z-3.1247
G01 X47.2389 Y41.7381 Z-3.1132
G01 X47.2003 Y41.8306 Z-3.1016
G01 X47.1617 Y41.9230 Z-3.0900
G01 X47.1230 Y42.0155 Z-3.0785
G01 X47.0838 Y42.1075 Z-3.0673
G01 X47.0526 Y42.1783 Z-3.0584
G01 X47.0110 Y42.2706 Z-3.0463
G01 X46.9694 Y42.3629 Z-3.0343
G01 X46.9277 Y42.4551 Z-3.0222
G01 X46.8861 Y42.5474 Z-3.0102
G01 X46.8445 Y42.6397 Z-2.9981
G01 X46.8029 Y42.7320 Z-2.9860
G01 X46.7612 Y42.8243 Z-2.9740
G01 X46.7192 Y42.9162 Z-2.9622
G01 X46.6798 Y42.9991 Z-2.9514
G01 X46.6351 Y43.0912 Z-2.9388
G01 X46.5904 Y43.1833 Z-2.9263
G01 X46.5457 Y43.2753 Z-2.9138
G01 X46.5010 Y43.3674 Z-2.9013
G01 X46.4562 Y43.4595 Z-2.8887
G01 X46.4115 Y43.5516 Z-2.8762
G01 X46.3668 Y43.6437 Z-2.8637
G01 X46.3215 Y43.7353 Z-2.8516
G01 X46.2524 Y43.8714 Z-2.8333
G01 X46.2068 Y43.9598 Z-2.8210
G01 X46.1612 Y44.0481 Z-2.8088
G01 X46.1155 Y44.1365 Z-2.7966
G01 X46.0699 Y44.2249 Z-2.7844
G01 X46.0243 Y44.3133 Z-2.7721
G01 X45.9787 Y44.4017 Z-2.7599
G01 X45.9327 Y44.4897 Z-2.7479
G01 X45.8862 Y44.5773 Z-2.7363
G01 X45.8423 Y44.6578 Z-2.7251
G01 X45.7899 Y44.7519 Z-2.7115
G01 X45.7375 Y44.8461 Z-2.6978
G01 X45.6850 Y44.9403 Z-2.6842
G01 X45.6326 Y45.0345 Z-2.6706
G01 X45.5802 Y45.1286 Z-2.6569
G01 X45.5275 Y45.2226 Z-2.6435
G01 X45.4742 Y45.3159 Z-2.6305
G01 X45.4220 Y45.4048 Z-2.6176
G01 X45.3672 Y45.4959 Z-2.6038
G01 X45.3125 Y45.5871 Z-2.5900
G01 X45.2578 Y45.6782 Z-2.5762
G01 X45.2030 Y45.7693 Z-2.5623
G01 X45.1483 Y45.8605 Z-2.5485
G01 X45.0933 Y45.9513 Z-2.5349
G01 X45.0376 Y46.0415 Z-2.5218
G01 X44.9834 Y46.1271 Z-2.5088
G01 X44.9262 Y46.2152 Z-2.4948
G01 X44.8691 Y46.3033 Z-2.4808
G01 X44.8120 Y46.3914 Z-2.4668
G01 X44.7548 Y46.4796 Z-2.4528
G01 X44.6977 Y46.5677 Z-2.4388
G01 X44.6402 Y46.6554 Z-2.4250
G01 X44.5821 Y46.7425 Z-2.4118
G01 X44.5250 Y46.8259 Z-2.3985
G01 X44.4654 Y46.9110 Z-2.3843
G01 X44.4058 Y46.9961 Z-2.3701
G01 X44.3462 Y47.0813 Z-2.3559
G01 X44.2866 Y47.1664 Z-2.3417
G01 X44.2270 Y47.2515 Z-2.3275
G01 X44.1670 Y47.3360 Z-2.3137
G01 X44.1064 Y47.4199 Z-2.3003
G01 X44.0453 Y47.5025 Z-2.2865
G01 X43.9831 Y47.5846 Z-2.2721
G01 X43.9210 Y47.6667 Z-2.2577
G01 X43.8589 Y47.7488 Z-2.2433
G01 X43.7967 Y47.8310 Z-2.2289
G01 X43.7345 Y47.9130 Z-2.2146
G01 X43.6717 Y47.9942 Z-2.2008
G01 X43.6085 Y48.0750 Z-2.1872
G01 X43.5423 Y48.1578 Z-2.1727
G01 X43.4775 Y48.2369 Z-2.1581
G01 X43.4127 Y48.3160 Z-2.1435
G01 X43.3479 Y48.3951 Z-2.1289
G01 X43.2832 Y48.4742 Z-2.1144
G01 X43.2182 Y48.5529 Z-2.1000
G01 X43.1524 Y48.6306 Z-2.0863
G01 X43.0860 Y48.7073 Z-2.0731
G01 X43.0119 Y48.7893 Z-2.0588
G01 X42.9432 Y48.8634 Z-2.0452
G01 X42.8745 Y48.9374 Z-2.0316
G01 X42.8058 Y49.0115 Z-2.0180
G01 X42.7371 Y49.0856 Z-2.0044
G01 X42.6684 Y49.1596 Z-1.9908
G01 X42.5996 Y49.2336 Z-1.9773
G01 X42.5303 Y49.3066 Z-1.9643
G01 X42.4482 Y49.3895 Z-1.9492
G01 X42.3766 Y49.4600 Z-1.9356
G01 X42.3049 Y49.5305 Z-1.9221
G01 X42.2333 Y49.6011 Z-1.9085
G01 X42.1617 Y49.6716 Z-1.8950
G01 X42.0900 Y49.7421 Z-1.8814
G01 X42.0182 Y49.8123 Z-1.8681
G01 X41.9458 Y49.8814 Z-1.8554
G01 X41.8542 Y49.9654 Z-1.8394
G01 X41.7796 Y50.0323 Z-1.8259
G01 X41.7050 Y50.0992 Z-1.8124
G01 X41.6304 Y50.1661 Z-1.7990
G01 X41.5558 Y50.2330 Z-1.7855
G01 X41.4812 Y50.2999 Z-1.7721
G01 X41.4061 Y50.3658 Z-1.7591
G01 X41.3305 Y50.4305 Z-1.7469
G01 X41.2280 Y50.5159 Z-1.7298
G01 X41.1504 Y50.5790 Z-1.7164
G01 X41.0728 Y50.6422 Z-1.7031
G01 X40.9951 Y50.7053 Z-1.6897
G01 X40.9175 Y50.7685 Z-1.6764
G01 X40.8396 Y50.8309 Z-1.6634
G01 X40.7610 Y50.8919 Z-1.6512
G01 X40.6823 Y50.9526 Z-1.6392
G01 X40.5675 Y51.0390 Z-1.6210
G01 X40.4869 Y51.0983 Z-1.6078
G01 X40.4062 Y51.1575 Z-1.5946
G01 X40.3255 Y51.2168 Z-1.5814
G01 X40.2446 Y51.2752 Z-1.5687
G01 X40.1630 Y51.3322 Z-1.5567
G01 X40.0813 Y51.3889 Z-1.5449
G01 X39.9997 Y51.4455 Z-1.5331
G01 X39.8713 Y51.5323 Z-1.5138
G01 X39.7875 Y51.5876 Z-1.5008
G01 X39.7038 Y51.6427 Z-1.4878
G01 X39.6196 Y51.6966 Z-1.4755
G01 X39.5350 Y51.7492 Z-1.4639
G01 X39.4503 Y51.8017 Z-1.4523
G01 X39.3657 Y51.8541 Z-1.4408
G01 X39.2810 Y51.9066 Z-1.4292
G01 X39.1379 Y51.9930 Z-1.4089
G01 X39.0509 Y52.0434 Z-1.3965
G01 X38.9634 Y52.0921 Z-1.3849
G01 X38.8758 Y52.1402 Z-1.3737
G01 X38.7882 Y52.1884 Z-1.3624
G01 X38.7006 Y52.2366 Z-1.3511
G01 X38.6130 Y52.2847 Z-1.3398
G01 X38.5254 Y52.3329 Z-1.3286
G01 X38.3661 Y52.4149 Z-1.3088
G01 X38.2756 Y52.4586 Z-1.2978
G01 X38.1850 Y52.5024 Z-1.2868
G01 X38.0945 Y52.5461 Z-1.2759
G01 X38.0039 Y52.5898 Z-1.2649
G01 X37.9134 Y52.6336 Z-1.2540
G01 X37.8226 Y52.6764 Z-1.2435
G01 X37.7315 Y52.7174 Z-1.2339
G01 X37.5558 Y52.7933 Z-1.2149
G01 X37.4624 Y52.8325 Z-1.2043
G01 X37.3690 Y52.8717 Z-1.1937
G01 X37.2756 Y52.9108 Z-1.1831
G01 X37.1819 Y52.9485 Z-1.1732
G01 X37.0879 Y52.9846 Z-1.1642
G01 X36.9939 Y53.0206 Z-1.1552
G01 X36.8999 Y53.0566 Z-1.1462
G01 X36.8058 Y53.0926 Z-1.1372
G01 X36.7085 Y53.1275 Z-1.1268
G01 X36.6122 Y53.1615 Z-1.1169
G01 X36.5156 Y53.1933 Z-1.1080
G01 X36.4189 Y53.2246 Z-1.0994
G01 X36.3222 Y53.2559 Z-1.0908
G01 X36.2255 Y53.2872 Z-1.0822
G01 X36.1288 Y53.3185 Z-1.0736
G01 X36.0321 Y53.3496 Z-1.0650
G01 X35.9351 Y53.3790 Z-1.0574
G01 X35.8246 Y53.4086 Z-1.0483
G01 X35.7253 Y53.4351 Z-1.0401
G01 X35.6260 Y53.4615 Z-1.0320
G01 X35.5267 Y53.4880 Z-1.0238
G01 X35.4274 Y53.5145 Z-1.0156
G01 X35.3280 Y53.5393 Z-1.0082
G01 X35.2283 Y53.5626 Z-1.0016
G01 X35.1287 Y53.5859 Z-0.9950
G01 X35.0291 Y53.6092 Z-0.9884
G01 X34.9066 Y53.6354 Z-0.9792
G01 X34.8048 Y53.6570 Z-0.9714
G01 X34.7029 Y53.6768 Z-0.9646
G01 X34.6008 Y53.6953 Z-0.9584
G01 X34.4988 Y53.7137 Z-0.9522
G01 X34.3968 Y53.7321 Z-0.9460
G01 X34.2948 Y53.7506 Z-0.9399
G01 X34.1928 Y53.7690 Z-0.9337
G01 X34.0907 Y53.7860 Z-0.9283
G01 X33.9568 Y53.8037 Z-0.9210
G01 X33.8524 Y53.8172 Z-0.9152
G01 X33.7481 Y53.8308 Z-0.9095
G01 X33.6438 Y53.8444 Z-0.9037
G01 X33.5394 Y53.8578 Z-0.8980
G01 X33.4351 Y53.8692 Z-0.8933
G01 X33.3307 Y53.8797 Z-0.8891
G01 X33.2263 Y53.8903 Z-0.8848
G01 X33.1219 Y53.9008 Z-0.8806
G01 X32.9775 Y53.9136 Z-0.8737
G01 X32.8799 Y53.9215 Z-0.8692
G01 X32.7822 Y53.9273 Z-0.8658
G01 X32.6846 Y53.9330 Z-0.8624
G01 X32.5870 Y53.9386 Z-0.8590
G01 X32.5291 Y53.9416 Z-0.8568
G01 X32.4320 Y53.9461 Z-0.8529
G01 X32.3348 Y53.9506 Z-0.8490
G01 X32.2377 Y53.9546 Z-0.8453
G01 X32.1406 Y53.9566 Z-0.8427
G01 X32.0436 Y53.9586 Z-0.8400
G01 X31.9859 Y53.9594 Z-0.8383
G01 X31.8893 Y53.9602 Z-0.8351
G01 X31.7927 Y53.9610 Z-0.8319
G01 X31.6962 Y53.9618 Z-0.8287
G01 X31.5996 Y53.9621 Z-0.8258
G01 X31.5031 Y53.9606 Z-0.8238
G01 X31.4458 Y53.9593 Z-0.8224
G01 X31.3498 Y53.9565 Z-0.8199
G01 X31.2539 Y53.9538 Z-0.8174
G01 X31.1579 Y53.9510 Z-0.8148
G01 X31.0619 Y53.9483 Z-0.8123
G01 X30.9660 Y53.9453 Z-0.8099
G01 X30.9089 Y53.9423 Z-0.8087
G01 X30.8136 Y53.9366 Z-0.8066
G01 X30.7182 Y53.9309 Z-0.8044
G01 X30.6229 Y53.9252 Z-0.8022
G01 X30.5276 Y53.9195 Z-0.8000
G01 X30.4323 Y53.9133 Z-0.7981
G01 X30.3755 Y53.9088 Z-0.7971
G01 X30.2808 Y53.9007 Z-0.7950
G01 X30.1860 Y53.8925 Z-0.7929
G01 X30.0913 Y53.8844 Z-0.7909
G01 X29.9965 Y53.8762 Z-0.7888
G01 X29.9019 Y53.8671 Z-0.7873
G01 X29.8455 Y53.8611 Z-0.7863
G01 X29.7513 Y53.8505 Z-0.7843
G01 X29.6572 Y53.8399 Z-0.7823
G01 X29.5630 Y53.8293 Z-0.7804
G01 X29.4689 Y53.8185 Z-0.7785
G01 X29.3750 Y53.8066 Z-0.7772
G01 X29.3188 Y53.7991 Z-0.7763
G01 X29.2253 Y53.7861 Z-0.7744
G01 X29.1317 Y53.7731 Z-0.7726
G01 X29.0382 Y53.7601 Z-0.7707
G01 X28.9448 Y53.7463 Z-0.7692
G01 X28.8515 Y53.7320 Z-0.7680
G01 X28.7956 Y53.7230 Z-0.7671
G01 X28.7026 Y53.7075 Z-0.7654
G01 X28.6097 Y53.6921 Z-0.7636
G01 X28.5168 Y53.6766 Z-0.7619
G01 X28.4241 Y53.6599 Z-0.7607
G01 X28.3315 Y53.6432 Z-0.7596
G01 X28.2758 Y53.6327 Z-0.7588
G01 X28.1835 Y53.6148 Z-0.7572
G01 X28.0912 Y53.5969 Z-0.7555
G01 X27.9990 Y53.5786 Z-0.7540
G01 X27.9070 Y53.5594 Z-0.7530
G01 X27.8150 Y53.5402 Z-0.7521
G01 X27.7595 Y53.5283 Z-0.7513
G01 X27.6678 Y53.5079 Z-0.7497
G01 X27.5762 Y53.4876 Z-0.7481
G01 X27.4847 Y53.4664 Z-0.7470
G01 X27.3934 Y53.4448 Z-0.7461
G01 X27.3021 Y53.4232 Z-0.7452
G01 X27.2467 Y53.4097 Z-0.7445
G01 X27.1557 Y53.3870 Z-0.7430
G01 X27.0647 Y53.3642 Z-0.7416
G01 X26.9741 Y53.3402 Z-0.7408
G01 X26.8834 Y53.3161 Z-0.7400
G01 X26.7928 Y53.2921 Z-0.7392
G01 X26.7376 Y53.2771 Z-0.7385
G01 X26.6472 Y53.2520 Z-0.7371
G01 X26.5570 Y53.2263 Z-0.7360
G01 X26.4670 Y53.1999 Z-0.7352
G01 X26.3771 Y53.1735 Z-0.7345
G01 X26.2871 Y53.1470 Z-0.7338
G01 X26.2320 Y53.1305 Z-0.7332
G01 X26.1423 Y53.1029 Z-0.7319
G01 X26.0529 Y53.0744 Z-0.7311
G01 X25.9636 Y53.0456 Z-0.7304
G01 X25.8743 Y53.0168 Z-0.7298
G01 X25.7851 Y52.9880 Z-0.7291
G01 X25.7301 Y52.9699 Z-0.7286
G01 X25.6411 Y52.9398 Z-0.7274
G01 X25.5525 Y52.9086 Z-0.7268
G01 X25.4639 Y52.8774 Z-0.7263
G01 X25.3753 Y52.8462 Z-0.7257
G01 X25.2867 Y52.8150 Z-0.7251
G01 X25.2319 Y52.7954 Z-0.7246
G01 X25.1437 Y52.7625 Z-0.7237
G01 X25.0558 Y52.7289 Z-0.7232
G01 X24.9679 Y52.6954 Z-0.7227
G01 X24.8800 Y52.6618 Z-0.7222
G01 X24.7920 Y52.6282 Z-0.7217
G01 X24.7373 Y52.6069 Z-0.7212
G01 X24.6499 Y52.5713 Z-0.7207
G01 X24.5627 Y52.5354 Z-0.7202
G01 X24.4755 Y52.4995 Z-0.7198
G01 X24.3883 Y52.4635 Z-0.7194
G01 X24.3011 Y52.4276 Z-0.7190
G01 X24.2464 Y52.4045 Z-0.7186
G01 X24.1599 Y52.3663 Z-0.7182
G01 X24.0734 Y52.3280 Z-0.7178
G01 X23.9869 Y52.2898 Z-0.7175
G01 X23.9004 Y52.2515 Z-0.7171
G01 X23.8138 Y52.2133 Z-0.7167
G01 X23.7594 Y52.1881 Z-0.7166
G01 X23.6736 Y52.1476 Z-0.7163
G01 X23.5877 Y52.1070 Z-0.7160
G01 X23.5019 Y52.0664 Z-0.7157
G01 X23.4161 Y52.0258 Z-0.7153
G01 X23.3304 Y51.9850 Z-0.7151
G01 X23.2760 Y51.9580
G01 X23.1909 Y51.9151 Z-0.7149
G01 X23.1058 Y51.8722 Z-0.7146
G01 X23.0207 Y51.8293 Z-0.7143
G01 X22.9356 Y51.7864 Z-0.7141
G01 X22.8507 Y51.7430
G01 X22.8006 Y51.7163 Z-0.7140
G01 X22.7026 Y51.6632 Z-0.7135
G01 X22.6045 Y51.6101 Z-0.7130
G01 X22.5212 Y51.5647 Z-0.7125
G01 X22.4236 Y51.5109 Z-0.7118
G01 X22.3266 Y51.4560 Z-0.7117
G01 X22.2442 Y51.4091 Z-0.7114
G01 X22.1476 Y51.3537 Z-0.7110
G01 X22.0509 Y51.2983 Z-0.7105
G01 X21.9689 Y51.2505 Z-0.7102
G01 X21.8733 Y51.1933
G01 X21.7777 Y51.1362 Z-0.7101
G01 X21.6964 Y51.0873 Z-0.7099
G01 X21.6011 Y51.0295 Z-0.7095
G01 X21.5060 Y50.9715 Z-0.7093
G01 X21.4252 Y50.9217 Z-0.7091
G01 X21.3305 Y50.8628 Z-0.7086
G01 X21.2359 Y50.8039 Z-0.7083
G01 X21.1561 Y50.7524 Z-0.7085
G01 X21.0626 Y50.6917
G01 X20.9692 Y50.6310 Z-0.7086
G01 X20.8898 Y50.5787 Z-0.7087
G01 X20.7975 Y50.5161 Z-0.7092
G01 X20.7052 Y50.4535 Z-0.7097
G01 X20.6266 Y50.4000 Z-0.7100
G01 X20.5350 Y50.3362 Z-0.7105
G01 X20.4439 Y50.2718 Z-0.7115
G01 X20.3663 Y50.2168 Z-0.7121
G01 X20.2754 Y50.1518 Z-0.7127
G01 X20.1851 Y50.0861 Z-0.7138
G01 X20.1085 Y50.0295 Z-0.7147
G01 X20.0188 Y49.9629 Z-0.7157
G01 X19.9290 Y49.8963 Z-0.7167
G01 X19.8533 Y49.8385 Z-0.7178
G01 X19.7646 Y49.7702 Z-0.7191
G01 X19.6759 Y49.7019 Z-0.7204
G01 X19.6006 Y49.6435 Z-0.7214
G01 X19.5128 Y49.5737 Z-0.7229
G01 X19.4252 Y49.5039 Z-0.7246
G01 X19.3508 Y49.4441 Z-0.7258
G01 X19.2635 Y49.3736 Z-0.7271
G01 X19.1769 Y49.3023 Z-0.7289
G01 X19.1034 Y49.2413 Z-0.7304
G01 X19.0172 Y49.1693 Z-0.7320
G01 X18.9309 Y49.0972 Z-0.7336
G01 X18.8582 Y49.0351 Z-0.7352
G01 X18.7730 Y48.9616 Z-0.7371
G01 X18.6878 Y48.8880 Z-0.7390
G01 X18.6155 Y48.8253 Z-0.7404
G01 X18.5310 Y48.7507 Z-0.7423
G01 X18.4468 Y48.6757 Z-0.7444
G01 X18.3753 Y48.6117 Z-0.7460
G01 X18.2914 Y48.5361 Z-0.7478
G01 X18.2078 Y48.4602 Z-0.7498
G01 X18.1372 Y48.3951 Z-0.7516
G01 X18.0543 Y48.3181 Z-0.7536
G01 X17.9714 Y48.2410 Z-0.7556
G01 X17.9011 Y48.1754 Z-0.7572
G01 X17.8191 Y48.0970 Z-0.7594
G01 X17.7372 Y48.0186 Z-0.7616
G01 X17.6962 Y47.9794 Z-0.7627
G01 X17.6573 Y47.9429 Z-0.7640
G01 X17.6177 Y47.9070 Z-0.7657
G01 X17.5773 Y47.8716 Z-0.7679
G01 X17.5362 Y47.8365 Z-0.7707
G01 X17.4944 Y47.8018 Z-0.7741
G01 X17.4517 Y47.7675 Z-0.7780
G01 X17.4080 Y47.7338 Z-0.7825
G01 X17.3634 Y47.7005 Z-0.7874
G01 X17.3293 Y47.6758 Z-0.7915
G01 X17.2945 Y47.6514 Z-0.7958
G01 X17.2592 Y47.6273 Z-0.8005
G01 X17.2232 Y47.6034 Z-0.8055
G01 X17.1865 Y47.5797 Z-0.8108
G01 X17.1492 Y47.5562 Z-0.8165
G01 X17.1113 Y47.5326 Z-0.8227
G01 X17.0726 Y47.5093 Z-0.8292
G01 X17.0331 Y47.4862 Z-0.8361
G01 X16.9928 Y47.4634 Z-0.8434
G01 X16.9517 Y47.4408 Z-0.8510
G01 X16.9097 Y47.4184 Z-0.8591
G01 X16.8668 Y47.3962 Z-0.8676
G01 X16.8230 Y47.3743 Z-0.8765
G01 X16.7781 Y47.3526 Z-0.8858
G01 X16.7323 Y47.3312 Z-0.8957
G01 X16.6854 Y47.3099 Z-0.9060
G01 X16.6374 Y47.2885 Z-0.9170
G01 X16.6048 Y47.2743 Z-0.9247
G01 X16.5716 Y47.2603 Z-0.9325
G01 X16.5378 Y47.2464 Z-0.9406
G01 X16.5035 Y47.2326 Z-0.9490
G01 X16.4686 Y47.2190 Z-0.9576
G01 X16.4331 Y47.2054 Z-0.9665
G01 X16.3970 Y47.1920 Z-0.9757
G01 X16.3602 Y47.1787 Z-0.9851
G01 X16.3228 Y47.1655 Z-0.9949
G01 X16.2847 Y47.1525 Z-1.0049
G01 X16.2459 Y47.1396 Z-1.0152
G01 X16.2064 Y47.1268 Z-1.0259
G01 X16.1662 Y47.1142 Z-1.0369
G01 X16.1251 Y47.1014 Z-1.0484
G01 X16.0832 Y47.0887 Z-1.0603
G01 X16.0404 Y47.0762 Z-1.0725
G01 X15.9968 Y47.0638 Z-1.0851
G01 X15.9523 Y47.0516 Z-1.0981
G01 X15.9069 Y47.0396 Z-1.1115
G01 X15.8605 Y47.0278 Z-1.1254
G01 X15.8132 Y47.0161 Z-1.1396
G01 X15.7648 Y47.0047 Z-1.1544
G01 X15.7154 Y46.9934 Z-1.1696
G01 X15.6649 Y46.9824 Z-1.1852
G01 X15.6133 Y46.9716 Z-1.2014
G01 X15.5605 Y46.9610 Z-1.2181
G01 X15.5063 Y46.9503 Z-1.2355
G01 X15.4508 Y46.9398 Z-1.2536
G01 X15.3940 Y46.9295 Z-1.2722
G01 X15.3358 Y46.9195 Z-1.2915
G01 X15.2762 Y46.9098 Z-1.3114
G01 X15.2458 Y46.9051 Z-1.3216
G01 X15.2150 Y46.9004 Z-1.3320
G01 X15.1839 Y46.8959 Z-1.3426
G01 X15.1524 Y46.8914 Z-1.3533
G01 X15.1205 Y46.8870 Z-1.3642
G01 X15.0881 Y46.8826 Z-1.3753
G01 X15.0554 Y46.8784 Z-1.3866
G01 X15.0222 Y46.8743 Z-1.3981
G01 X14.9886 Y46.8702 Z-1.4097
G01 X14.9546 Y46.8663 Z-1.4216
G01 X14.9201 Y46.8624 Z-1.4337
G01 X14.8851 Y46.8587 Z-1.4460
G01 X14.8497 Y46.8550 Z-1.4585
G01 X14.8137 Y46.8513 Z-1.4713
G01 X14.7771 Y46.8476 Z-1.4844
G01 X14.7399 Y46.8440 Z-1.4978
G01 X14.7023 Y46.8406 Z-1.5114
G01 X14.6641 Y46.8372 Z-1.5253
G01 X14.6253 Y46.8340 Z-1.5394
G01 X14.5861 Y46.8309 Z-1.5537
G01 X14.5462 Y46.8279 Z-1.5683
G01 X14.5058 Y46.8251 Z-1.5832
G01 X14.4648 Y46.8224 Z-1.5984
G01 X14.4231 Y46.8198 Z-1.6138
G01 X14.3809 Y46.8174 Z-1.6295
G01 X14.3380 Y46.8152 Z-1.6456
G01 X14.2945 Y46.8131 Z-1.6619
G01 X14.2503 Y46.8111 Z-1.6785
G01 X14.2055 Y46.8094 Z-1.6955
G01 X14.1599 Y46.8077 Z-1.7127
G01 X14.1137 Y46.8063 Z-1.7303
G01 X14.0667 Y46.8051 Z-1.7483
G01 X14.0189 Y46.8040 Z-1.7666
G01 X13.9701 Y46.8028 Z-1.7854
G01 X13.9204 Y46.8019 Z-1.8047
G01 X13.8700 Y46.8011 Z-1.8244
G01 X13.8186 Y46.8005 Z-1.8444
G01 X13.7665 Y46.8001 Z-1.8649
G01 X13.7134 Y46.8000 Z-1.8857
G01 X13.6595 Y46.8001 Z-1.9070
G01 X13.6046 Y46.8004 Z-1.9288
G01 X13.5488 Y46.8010 Z-1.9509
G01 X13.4921 Y46.8019 Z-1.9736
G01 X13.4343 Y46.8030 Z-1.9967
G01 X13.3755 Y46.8044 Z-2.0203
G01 X13.3157 Y46.8060 Z-2.0444
G01 X13.2548 Y46.8080 Z-2.0690
G01 X13.1929 Y46.8103 Z-2.0941
G01 X13.1297 Y46.8129 Z-2.1198
G01 X13.0653 Y46.8157 Z-2.1462
G01 X12.9993 Y46.8186 Z-2.1733
G01 X12.9319 Y46.8218 Z-2.2011
G01 X12.8633 Y46.8254 Z-2.2295
G01 X12.7933 Y46.8294 Z-2.2586
G01 X12.7220 Y46.8337 Z-2.2883
G01 X12.6493 Y46.8385 Z-2.3186
G01 X12.5752 Y46.8436 Z-2.3497
G01 X12.4995 Y46.8492 Z-2.3815
G01 X12.4224 Y46.8553 Z-2.4141
G01 X12.3437 Y46.8618 Z-2.4474
G01 X12.2634 Y46.8688 Z-2.4815
G01 X12.1814 Y46.8763 Z-2.5164
G01 X12.0977 Y46.8844 Z-2.5522
G01 X12.0121 Y46.8929 Z-2.5889
G01 X11.9240 Y46.9017 Z-2.6268
G01 X11.8334 Y46.9108 Z-2.6661
G01 X11.7400 Y46.9201 Z-2.7067
G01 X11.6436 Y46.9298 Z-2.7489
G01 X11.5443 Y46.9397 Z-2.7926
G01 X11.4417 Y46.9500 Z-2.8379
G01 X11.3357 Y46.9606 Z-2.8849
G01 X11.2261 Y46.9715 Z-2.9338
G01 X11.1127 Y46.9828 Z-2.9846
G01 X10.9954 Y46.9946 Z-3.0374
G01 X10.8738 Y47.0067 Z-3.0923
G01 X10.7477 Y47.0194 Z-3.1495
G01 X10.6814 Y47.0546 Z-3.1750
G01 X10.6636 Y47.1071
G01 X10.6462 Y47.1597
G01 X10.6293 Y47.2125
G01 X10.6129 Y47.2654
G01 X10.5969 Y47.3185
G01 X10.5814 Y47.3717
G01 X10.5664 Y47.4250
G01 X10.5518 Y47.4785
G01 X10.5377 Y47.5321
G01 X10.5240 Y47.5858
G01 X10.5109 Y47.6396
G01 X10.4982 Y47.6936
G01 X10.4859 Y47.7476
G01 X10.4742 Y47.8018
G01 X10.4629 Y47.8560
G01 X10.4521 Y47.9104
G01 X10.4418 Y47.9648
G01 X10.4319 Y48.0193
G01 X10.4225 Y48.0740
G01 X10.4136 Y48.1286
G01 X10.4052 Y48.1834
G01 X10.3972 Y48.2383
G01 X10.3898 Y48.2932
G01 X10.3828 Y48.3481
G01 X10.3763 Y48.4032
G01 X10.3702 Y48.4583
G01 X10.3647 Y48.5134
G01 X10.3596 Y48.5686
G01 X10.3550 Y48.6238
G01 X10.3509 Y48.6791
G01 X10.3473 Y48.7343
G01 X10.3441 Y48.7897
G01 X10.3415 Y48.8450
G01 X10.3393 Y48.9004
G01 X10.3376 Y48.9558
G01 X10.3364 Y49.0112
G01 X10.3357 Y49.0666
G01 X10.3355 Y49.1220
G01 X10.3357 Y49.1774
G01 X10.3364 Y49.2328
G01 X10.3376 Y49.2882
G01 X10.3393 Y49.3436
G01 X10.3415 Y49.3990
G01 X10.3442 Y49.4543
G01 X10.3473 Y49.5097
G01 X10.3509 Y49.5650
G01 X10.3550 Y49.6202
G01 X10.3596 Y49.6754
G01 X10.3647 Y49.7306
G01 X10.3702 Y49.7858
G01 X10.3763 Y49.8408
G01 X10.3828 Y49.8959
G01 X10.3898 Y49.9508
G01 X10.3973 Y50.0058
G01 X10.4052 Y50.0606
G01 X10.4136 Y50.1154
G01 X10.4226 Y50.1701
G01 X10.4319 Y50.2247
G01 X10.4418 Y50.2792
G01 X10.4581 Y50.3651
G01 X10.4767 Y50.4621
G01 X10.4953 Y50.5592
G01 X10.5139 Y50.6562
G01 X10.5325 Y50.7533
G01 X10.5511 Y50.8504
G01 X10.5697 Y50.9474
G01 X10.5883 Y51.0445
G01 X10.6069 Y51.1416
G01 X10.6255 Y51.2386
G01 X10.6441 Y51.3357
G01 X10.6626 Y51.4327
G01 X10.6812 Y51.5298
G01 X10.6998 Y51.6269
G01 X10.7364 Y51.8108
G01 X10.7559 Y51.9055
G01 X10.7755 Y52.0003
G01 X10.7950 Y52.0951
G01 X10.8146 Y52.1899
G01 X10.8341 Y52.2846
G01 X10.8537 Y52.3794
G01 X10.8732 Y52.4742
G01 X10.8928 Y52.5689
G01 X10.9123 Y52.6637
G01 X10.9319 Y52.7585
G01 X10.9514 Y52.8533
G01 X10.9709 Y52.9480
G01 X10.9905 Y53.0428
G01 X11.0309 Y53.2315
G01 X11.0530 Y53.3311
G01 X11.0750 Y53.4307
G01 X11.0971 Y53.5303
G01 X11.1192 Y53.6299
G01 X11.1413 Y53.7295
G01 X11.1633 Y53.8291
G01 X11.1854 Y53.9287
G01 X11.2075 Y54.0283
G01 X11.2296 Y54.1279
G01 X11.2516 Y54.2275
G01 X11.2737 Y54.3271
G01 X11.2958 Y54.4267
G01 X11.3403 Y54.6203
G01 X11.3634 Y54.7174
G01 X11.3865 Y54.8145
G01 X11.4096 Y54.9117
G01 X11.4327 Y55.0088
G01 X11.4558 Y55.1059
G01 X11.4789 Y55.2031
G01 X11.5020 Y55.3002
G01 X11.5251 Y55.3973
G01 X11.5482 Y55.4945
G01 X11.5713 Y55.5916
G01 X11.5944 Y55.6888
G01 X11.6175 Y55.7859
G01 X11.6655 Y55.9808
G01 X11.6896 Y56.0755
G01 X11.7138 Y56.1702
G01 X11.7379 Y56.2648
G01 X11.7620 Y56.3595
G01 X11.7861 Y56.4542
G01 X11.8103 Y56.5488
G01 X11.8344 Y56.6435
G01 X11.8585 Y56.7382
G01 X11.8827 Y56.8329
G01 X11.9068 Y56.9275
G01 X11.9309 Y57.0222
G01 X11.9551 Y57.1169
G01 X12.0079 Y57.3172
G01 X12.0352 Y57.4171
G01 X12.0624 Y57.5170
G01 X12.0897 Y57.6168
G01 X12.1169 Y57.7167
G01 X12.1442 Y57.8166
G01 X12.1714 Y57.9165
G01 X12.1987 Y58.0164
G01 X12.2260 Y58.1163
G01 X12.2532 Y58.2162
G01 X12.2805 Y58.3161
G01 X12.3077 Y58.4160
G01 X12.3658 Y58.6217
G01 Z-6.3500
G01 X12.3077 Y58.4160
G01 X12.2805 Y58.3161
G01 X12.2532 Y58.2162
G01 X12.2260 Y58.1163
G01 X12.1987 Y58.0164
G01 X12.1714 Y57.9165
G01 X12.1442 Y57.8166
G01 X12.1169 Y57.7167
G01 X12.0897 Y57.6168
G01 X12.0624 Y57.5170
G01 X12.0352 Y57.4171
G01 X12.0079 Y57.3172
G01 X11.9551 Y57.1169
G01 X11.9309 Y57.0222
G01 X11.9068 Y56.9275
G01 X11.8827 Y56.8329
G01 X11.8585 Y56.7382
G01 X11.8344 Y56.6435
G01 X11.8103 Y56.5488
G01 X11.7861 Y56.4542
G01 X11.7620 Y56.3595
G01 X11.7379 Y56.2648
G01 X11.7138 Y56.1702
G01 X11.6896 Y56.0755
G01 X11.6655 Y55.9808
G01 X11.6175 Y55.7859
G01 X11.5944 Y55.6888
G01 X11.5713 Y55.5916
G01 X11.5482 Y55.4945
G01 X11.5251 Y55.3973
G01 X11.5020 Y55.3002
G01 X11.4789 Y55.2031
G01 X11.4558 Y55.1059
G01 X11.4327 Y55.0088
G01 X11.4096 Y54.9117
G01 X11.3865 Y54.8145
G01 X11.3634 Y54.7174
G01 X11.3403 Y54.6203
G01 X11.2958 Y54.4267
G01 X11.2737 Y54.3271
G01 X11.2516 Y54.2275
G01 X11.2296 Y54.1279
G01 X11.2075 Y54.0283
G01 X11.1854 Y53.9287
G01 X11.1633 Y53.8291
G01 X11.1413 Y53.7295
G01 X11.1192 Y53.6299
G01 X11.0971 Y53.5303
G01 X11.0750 Y53.4307
G01 X11.0530 Y53.3311
G01 X11.0309 Y53.2315
G01 X10.9905 Y53.0428
G01 X10.9709 Y52.9480
G01 X10.9514 Y52.8533
G01 X10.9319 Y52.7585
G01 X10.9123 Y52.6637
G01 X10.8928 Y52.5689
G01 X10.8732 Y52.4742
G01 X10.8537 Y52.3794
G01 X10.8341 Y52.2846
G01 X10.8146 Y52.1899
G01 X10.7950 Y52.0951
G01 X10.7755 Y52.0003
G01 X10.7559 Y51.9055
G01 X10.7364 Y51.8108
G01 X10.6998 Y51.6269
G01 X10.6812 Y51.5298
G01 X10.6626 Y51.4327
G01 X10.6441 Y51.3357
G01 X10.6255 Y51.2386
G01 X10.6069 Y51.1416
G01 X10.5883 Y51.0445
G01 X10.5697 Y50.9474
G01 X10.5511 Y50.8504
G01 X10.5325 Y50.7533
G01 X10.5139 Y50.6562
G01 X10.4953 Y50.5592
G01 X10.4767 Y50.4621
G01 X10.4581 Y50.3651
G01 X10.4418 Y50.2792
G01 X10.4319 Y50.2247
G01 X10.4226 Y50.1701
G01 X10.4136 Y50.1154
G01 X10.4052 Y50.0606
G01 X10.3973 Y50.0058
G01 X10.3898 Y49.9508
G01 X10.3828 Y49.8959
G01 X10.3763 Y49.8408
G01 X10.3702 Y49.7858
G01 X10.3647 Y49.7306
G01 X10.3596 Y49.6754
G01 X10.3550 Y49.6202
G01 X10.3509 Y49.5650
G01 X10.3473 Y49.5097
G01 X10.3442 Y49.4543
G01 X10.3415 Y49.3990
G01 X10.3393 Y49.3436
G01 X10.3376 Y49.2882
G01 X10.3364 Y49.2328
G01 X10.3357 Y49.1774
G01 X10.3355 Y49.1220
G01 X10.3357 Y49.0666
G01 X10.3364 Y49.0112
G01 X10.3376 Y48.9558
G01 X10.3393 Y48.9004
G01 X10.3415 Y48.8450
G01 X10.3441 Y48.7897
G01 X10.3473 Y48.7343
G01 X10.3509 Y48.6791
G01 X10.3550 Y48.6238
G01 X10.3596 Y48.5686
G01 X10.3647 Y48.5134
G01 X10.3702 Y48.4583
G01 X10.3763 Y48.4032
G01 X10.3828 Y48.3481
G01 X10.3898 Y48.2932
G01 X10.3972 Y48.2383
G01 X10.4052 Y48.1834
G01 X10.4136 Y48.1286
G01 X10.4225 Y48.0740
G01 X10.4319 Y48.0193
G01 X10.4418 Y47.9648
G01 X10.4521 Y47.9104
G01 X10.4629 Y47.8560
G01 X10.4742 Y47.8018
G01 X10.4859 Y47.7476
G01 X10.4982 Y47.6936
G01 X10.5109 Y47.6396
G01 X10.5240 Y47.5858
G01 X10.5377 Y47.5321
G01 X10.5518 Y47.4785
G01 X10.5664 Y47.4250
G01 X10.5814 Y47.3717
G01 X10.5969 Y47.3185
G01 X10.6129 Y47.2654
G01 X10.6293 Y47.2125
G01 X10.6462 Y47.1597
G01 X10.6636 Y47.1071
G01 X10.6814 Y47.0546
G01 X10.7477 Y47.0194 Z-6.2990
G01 X10.8738 Y47.0067 Z-6.1846
G01 X10.9954 Y46.9946 Z-6.0747
G01 X11.1127 Y46.9828 Z-5.9691
G01 X11.2261 Y46.9715 Z-5.8676
G01 X11.3357 Y46.9606 Z-5.7699
G01 X11.4417 Y46.9500 Z-5.6758
G01 X11.5443 Y46.9397 Z-5.5852
G01 X11.6436 Y46.9298 Z-5.4978
G01 X11.7400 Y46.9201 Z-5.4135
G01 X11.8334 Y46.9108 Z-5.3321
G01 X11.9240 Y46.9017 Z-5.2536
G01 X12.0121 Y46.8929 Z-5.1777
G01 X12.0977 Y46.8844 Z-5.1043
G01 X12.1814 Y46.8763 Z-5.0328
G01 X12.2634 Y46.8688 Z-4.9630
G01 X12.3437 Y46.8618 Z-4.8948
G01 X12.4224 Y46.8553 Z-4.8282
G01 X12.4995 Y46.8492 Z-4.7631
G01 X12.5752 Y46.8436 Z-4.6995
G01 X12.6493 Y46.8385 Z-4.6373
G01 X12.7220 Y46.8337 Z-4.5765
G01 X12.7933 Y46.8294 Z-4.5171
G01 X12.8633 Y46.8254 Z-4.4590
G01 X12.9319 Y46.8218 Z-4.4022
G01 X12.9993 Y46.8186 Z-4.3466
G01 X13.0653 Y46.8157 Z-4.2923
G01 X13.1297 Y46.8129 Z-4.2397
G01 X13.1929 Y46.8103 Z-4.1883
G01 X13.2548 Y46.8080 Z-4.1380
G01 X13.3157 Y46.8060 Z-4.0888
G01 X13.3755 Y46.8044 Z-4.0406
G01 X13.4343 Y46.8030 Z-3.9934
G01 X13.4921 Y46.8019 Z-3.9472
G01 X13.5488 Y46.8010 Z-3.9019
G01 X13.6046 Y46.8004 Z-3.8575
G01 X13.6595 Y46.8001 Z-3.8141
G01 X13.7134 Y46.8000 Z-3.7715
G01 X13.7665 Y46.8001 Z-3.7298
G01 X13.8186 Y46.8005 Z-3.6888
G01 X13.8700 Y46.8011 Z-3.6487
G01 X13.9204 Y46.8019 Z-3.6094
G01 X13.9701 Y46.8028 Z-3.5709
G01 X14.0189 Y46.8040 Z-3.5332
G01 X14.0667 Y46.8051 Z-3.4965
G01 X14.1137 Y46.8063 Z-3.4606
G01 X14.1599 Y46.8077 Z-3.4254
G01 X14.2055 Y46.8094 Z-3.3909
G01 X14.2503 Y46.8111 Z-3.3570
G01 X14.2945 Y46.8131 Z-3.3238
G01 X14.3380 Y46.8152 Z-3.2911
G01 X14.3809 Y46.8174 Z-3.2591
G01 X14.4231 Y46.8198 Z-3.2276
G01 X14.4648 Y46.8224 Z-3.1967
G01 X14.5058 Y46.8251 Z-3.1664
G01 X14.5462 Y46.8279 Z-3.1367
G01 X14.5861 Y46.8309 Z-3.1074
G01 X14.6253 Y46.8340 Z-3.0787
G01 X14.6641 Y46.8372 Z-3.0505
G01 X14.7023 Y46.8406 Z-3.0228
G01 X14.7399 Y46.8440 Z-2.9956
G01 X14.7771 Y46.8476 Z-2.9689
G01 X14.8137 Y46.8513 Z-2.9426
G01 X14.8497 Y46.8550 Z-2.9170
G01 X14.8851 Y46.8587 Z-2.8919
G01 X14.9201 Y46.8624 Z-2.8674
G01 X14.9546 Y46.8663 Z-2.8432
G01 X14.9886 Y46.8702 Z-2.8195
G01 X15.0222 Y46.8743 Z-2.7961
G01 X15.0554 Y46.8784 Z-2.7732
G01 X15.0881 Y46.8826 Z-2.7506
G01 X15.1205 Y46.8870 Z-2.7284
G01 X15.1524 Y46.8914 Z-2.7066
G01 X15.1839 Y46.8959 Z-2.6851
G01 X15.2150 Y46.9004 Z-2.6640
G01 X15.2458 Y46.9051 Z-2.6433
G01 X15.2762 Y46.9098 Z-2.6228
G01 X15.3358 Y46.9195 Z-2.5830
G01 X15.3940 Y46.9295 Z-2.5445
G01 X15.4508 Y46.9398 Z-2.5072
G01 X15.5063 Y46.9503 Z-2.4710
G01 X15.5605 Y46.9610 Z-2.4362
G01 X15.6133 Y46.9716 Z-2.4028
G01 X15.6649 Y46.9824 Z-2.3705
G01 X15.7154 Y46.9934 Z-2.3391
G01 X15.7648 Y47.0047 Z-2.3087
G01 X15.8132 Y47.0161 Z-2.2793
G01 X15.8605 Y47.0278 Z-2.2508
G01 X15.9069 Y47.0396 Z-2.2231
G01 X15.9523 Y47.0516 Z-2.1963
G01 X15.9968 Y47.0638 Z-2.1702
G01 X16.0404 Y47.0762 Z-2.1450
G01 X16.0832 Y47.0887 Z-2.1205
G01 X16.1251 Y47.1014 Z-2.0968
G01 X16.1662 Y47.1142 Z-2.0738
G01 X16.2064 Y47.1268 Z-2.0518
G01 X16.2459 Y47.1396 Z-2.0305
G01 X16.2847 Y47.1525 Z-2.0098
G01 X16.3228 Y47.1655 Z-1.9897
G01 X16.3602 Y47.1787 Z-1.9702
G01 X16.3970 Y47.1920 Z-1.9514
G01 X16.4331 Y47.2054 Z-1.9330
G01 X16.4686 Y47.2190 Z-1.9153
G01 X16.5035 Y47.2326 Z-1.8980
G01 X16.5378 Y47.2464 Z-1.8813
G01 X16.5716 Y47.2603 Z-1.8651
G01 X16.6048 Y47.2743 Z-1.8493
G01 X16.6374 Y47.2885 Z-1.8341
G01 X16.6854 Y47.3099 Z-1.8120
G01 X16.7323 Y47.3312 Z-1.7913
G01 X16.7781 Y47.3526 Z-1.7717
G01 X16.8230 Y47.3743 Z-1.7530
G01 X16.8668 Y47.3962 Z-1.7352
G01 X16.9097 Y47.4184 Z-1.7182
G01 X16.9517 Y47.4408 Z-1.7021
G01 X16.9928 Y47.4634 Z-1.6868
G01 X17.0331 Y47.4862 Z-1.6722
G01 X17.0726 Y47.5093 Z-1.6584
G01 X17.1113 Y47.5326 Z-1.6453
G01 X17.1492 Y47.5562 Z-1.6330
G01 X17.1865 Y47.5797 Z-1.6215
G01 X17.2232 Y47.6034 Z-1.6109
G01 X17.2592 Y47.6273 Z-1.6010
G01 X17.2945 Y47.6514 Z-1.5916
G01 X17.3293 Y47.6758 Z-1.5829
G01 X17.3634 Y47.7005 Z-1.5748
G01 X17.4080 Y47.7338 Z-1.5649
G01 X17.4517 Y47.7675 Z-1.5561
G01 X17.4944 Y47.8018 Z-1.5483
G01 X17.5362 Y47.8365 Z-1.5414
G01 X17.5773 Y47.8716 Z-1.5358
G01 X17.6177 Y47.9070 Z-1.5314
G01 X17.6573 Y47.9429 Z-1.5279
G01 X17.6962 Y47.9794 Z-1.5254
G01 X17.7372 Y48.0186 Z-1.5232
G01 X17.8191 Y48.0970 Z-1.5188
G01 X17.9011 Y48.1754 Z-1.5144
G01 X17.9714 Y48.2410 Z-1.5113
G01 X18.0543 Y48.3181 Z-1.5073
G01 X18.1372 Y48.3951 Z-1.5032
G01 X18.2078 Y48.4602 Z-1.4996
G01 X18.2914 Y48.5361 Z-1.4956
G01 X18.3753 Y48.6117 Z-1.4920
G01 X18.4468 Y48.6757 Z-1.4887
G01 X18.5310 Y48.7507 Z-1.4845
G01 X18.6155 Y48.8253 Z-1.4808
G01 X18.6878 Y48.8880 Z-1.4779
G01 X18.7730 Y48.9616 Z-1.4742
G01 X18.8582 Y49.0351 Z-1.4705
G01 X18.9309 Y49.0972 Z-1.4673
G01 X19.0172 Y49.1693 Z-1.4641
G01 X19.1034 Y49.2413 Z-1.4609
G01 X19.1769 Y49.3023 Z-1.4579
G01 X19.2635 Y49.3736 Z-1.4542
G01 X19.3508 Y49.4441 Z-1.4516
G01 X19.4252 Y49.5039 Z-1.4491
G01 X19.5128 Y49.5737 Z-1.4459
G01 X19.6006 Y49.6435 Z-1.4428
G01 X19.6759 Y49.7019 Z-1.4409
G01 X19.7646 Y49.7702 Z-1.4383
G01 X19.8533 Y49.8385 Z-1.4357
G01 X19.9290 Y49.8963 Z-1.4333
G01 X20.0188 Y49.9629 Z-1.4314
G01 X20.1085 Y50.0295 Z-1.4295
G01 X20.1851 Y50.0861 Z-1.4275
G01 X20.2754 Y50.1518 Z-1.4254
G01 X20.3663 Y50.2168 Z-1.4242
G01 X20.4439 Y50.2718 Z-1.4229
G01 X20.5350 Y50.3362 Z-1.4211
G01 X20.6266 Y50.4000 Z-1.4200
G01 X20.7052 Y50.4535 Z-1.4194
G01 X20.7975 Y50.5161 Z-1.4184
G01 X20.8898 Y50.5787 Z-1.4174
G01 X20.9692 Y50.6310 Z-1.4172
G01 X21.0626 Y50.6917 Z-1.4171
G01 X21.1561 Y50.7524 Z-1.4169
G01 X21.2359 Y50.8039 Z-1.4166
G01 X21.3305 Y50.8628 Z-1.4173
G01 X21.4252 Y50.9217 Z-1.4181
G01 X21.5060 Y50.9715 Z-1.4185
G01 X21.6011 Y51.0295 Z-1.4190
G01 X21.6964 Y51.0873 Z-1.4198
G01 X21.7777 Y51.1362 Z-1.4202
G01 X21.8733 Y51.1933 Z-1.4203
G01 X21.9689 Y51.2505 Z-1.4204
G01 X22.0509 Y51.2983 Z-1.4211
G01 X22.1476 Y51.3537 Z-1.4220
G01 X22.2442 Y51.4091 Z-1.4229
G01 X22.3266 Y51.4560 Z-1.4233
G01 X22.4236 Y51.5109 Z-1.4236
G01 X22.5212 Y51.5647 Z-1.4250
G01 X22.6045 Y51.6101 Z-1.4261
G01 X22.7026 Y51.6632 Z-1.4271
G01 X22.8006 Y51.7163 Z-1.4281
G01 X22.8507 Y51.7430 Z-1.4282
G01 X22.9356 Y51.7864 Z-1.4281
G01 X23.0207 Y51.8293 Z-1.4287
G01 X23.1058 Y51.8722 Z-1.4292
G01 X23.1909 Y51.9151 Z-1.4297
G01 X23.2760 Y51.9580 Z-1.4303
G01 X23.3304 Y51.9850 Z-1.4302
G01 X23.4161 Y52.0258 Z-1.4307
G01 X23.5019 Y52.0664 Z-1.4313
G01 X23.5877 Y52.1070 Z-1.4319
G01 X23.6736 Y52.1476 Z-1.4326
G01 X23.7594 Y52.1881 Z-1.4332
G01 X23.8138 Y52.2133 Z-1.4334
G01 X23.9004 Y52.2515 Z-1.4342
G01 X23.9869 Y52.2898 Z-1.4349
G01 X24.0734 Y52.3280 Z-1.4357
G01 X24.1599 Y52.3663 Z-1.4364
G01 X24.2464 Y52.4045 Z-1.4372
G01 X24.3011 Y52.4276 Z-1.4379
G01 X24.3883 Y52.4635 Z-1.4388
G01 X24.4755 Y52.4995 Z-1.4396
G01 X24.5627 Y52.5354 Z-1.4405
G01 X24.6499 Y52.5713 Z-1.4414
G01 X24.7373 Y52.6069 Z-1.4425
G01 X24.7920 Y52.6282 Z-1.4435
G01 X24.8800 Y52.6618 Z-1.4445
G01 X24.9679 Y52.6954 Z-1.4455
G01 X25.0558 Y52.7289 Z-1.4465
G01 X25.1437 Y52.7625 Z-1.4475
G01 X25.2319 Y52.7954 Z-1.4492
G01 X25.2867 Y52.8150 Z-1.4502
G01 X25.3753 Y52.8462 Z-1.4514
G01 X25.4639 Y52.8774 Z-1.4525
G01 X25.5525 Y52.9086 Z-1.4537
G01 X25.6411 Y52.9398 Z-1.4548
G01 X25.7301 Y52.9699 Z-1.4571
G01 X25.7851 Y52.9880 Z-1.4583
G01 X25.8743 Y53.0168 Z-1.4595
G01 X25.9636 Y53.0456 Z-1.4608
G01 X26.0529 Y53.0744 Z-1.4621
G01 X26.1423 Y53.1029 Z-1.4637
G01 X26.2320 Y53.1305 Z-1.4664
G01 X26.2871 Y53.1470 Z-1.4676
G01 X26.3771 Y53.1735 Z-1.4690
G01 X26.4670 Y53.1999 Z-1.4705
G01 X26.5570 Y53.2263 Z-1.4719
G01 X26.6472 Y53.2520 Z-1.4742
G01 X26.7376 Y53.2771 Z-1.4770
G01 X26.7928 Y53.2921 Z-1.4783
G01 X26.8834 Y53.3161 Z-1.4799
G01 X26.9741 Y53.3402 Z-1.4815
G01 X27.0647 Y53.3642 Z-1.4832
G01 X27.1557 Y53.3870 Z-1.4861
G01 X27.2467 Y53.4097 Z-1.4890
G01 X27.3021 Y53.4232 Z-1.4905
G01 X27.3934 Y53.4448 Z-1.4923
G01 X27.4847 Y53.4664 Z-1.4940
G01 X27.5762 Y53.4876 Z-1.4963
G01 X27.6678 Y53.5079 Z-1.4994
G01 X27.7595 Y53.5283 Z-1.5026
G01 X27.8150 Y53.5402 Z-1.5041
G01 X27.9070 Y53.5594 Z-1.5061
G01 X27.9990 Y53.5786 Z-1.5081
G01 X28.0912 Y53.5969 Z-1.5110
G01 X28.1835 Y53.6148 Z-1.5143
G01 X28.2758 Y53.6327 Z-1.5176
G01 X28.3315 Y53.6432 Z-1.5193
G01 X28.4241 Y53.6599 Z-1.5215
G01 X28.5168 Y53.6766 Z-1.5238
G01 X28.6097 Y53.6921 Z-1.5273
G01 X28.7026 Y53.7075 Z-1.5308
G01 X28.7956 Y53.7230 Z-1.5343
G01 X28.8515 Y53.7320 Z-1.5361
G01 X28.9448 Y53.7463 Z-1.5384
G01 X29.0382 Y53.7601 Z-1.5414
G01 X29.1317 Y53.7731 Z-1.5451
G01 X29.2253 Y53.7861 Z-1.5489
G01 X29.3188 Y53.7991 Z-1.5526
G01 X29.3750 Y53.8066 Z-1.5545
G01 X29.4689 Y53.8185 Z-1.5570
G01 X29.5630 Y53.8293 Z-1.5607
G01 X29.6572 Y53.8399 Z-1.5647
G01 X29.7513 Y53.8505 Z-1.5686
G01 X29.8455 Y53.8611 Z-1.5725
G01 X29.9019 Y53.8671 Z-1.5745
G01 X29.9965 Y53.8762 Z-1.5776
G01 X30.0913 Y53.8844 Z-1.5817
G01 X30.1860 Y53.8925 Z-1.5859
G01 X30.2808 Y53.9007 Z-1.5900
G01 X30.3755 Y53.9088 Z-1.5941
G01 X30.4323 Y53.9133 Z-1.5963
G01 X30.5276 Y53.9195 Z-1.6001
G01 X30.6229 Y53.9252 Z-1.6044
G01 X30.7182 Y53.9309 Z-1.6088
G01 X30.8136 Y53.9366 Z-1.6131
G01 X30.9089 Y53.9423 Z-1.6175
G01 X30.9660 Y53.9453 Z-1.6198
G01 X31.0619 Y53.9483 Z-1.6246
G01 X31.1579 Y53.9510 Z-1.6297
G01 X31.2539 Y53.9538 Z-1.6347
G01 X31.3498 Y53.9565 Z-1.6398
G01 X31.4458 Y53.9593 Z-1.6448
G01 X31.5031 Y53.9606 Z-1.6475
G01 X31.5996 Y53.9621 Z-1.6516
G01 X31.6962 Y53.9618 Z-1.6574
G01 X31.7927 Y53.9610 Z-1.6638
G01 X31.8893 Y53.9602 Z-1.6702
G01 X31.9859 Y53.9594 Z-1.6766
G01 X32.0436 Y53.9586 Z-1.6800
G01 X32.1406 Y53.9566 Z-1.6853
G01 X32.2377 Y53.9546 Z-1.6907
G01 X32.3348 Y53.9506 Z-1.6980
G01 X32.4320 Y53.9461 Z-1.7058
G01 X32.5291 Y53.9416 Z-1.7136
G01 X32.5870 Y53.9386 Z-1.7180
G01 X32.6846 Y53.9330 Z-1.7247
G01 X32.7822 Y53.9273 Z-1.7315
G01 X32.8799 Y53.9215 Z-1.7385
G01 X32.9775 Y53.9136 Z-1.7475
G01 X33.1219 Y53.9008 Z-1.7611
G01 X33.2263 Y53.8903 Z-1.7696
G01 X33.3307 Y53.8797 Z-1.7781
G01 X33.4351 Y53.8692 Z-1.7867
G01 X33.5394 Y53.8578 Z-1.7960
G01 X33.6438 Y53.8444 Z-1.8074
G01 X33.7481 Y53.8308 Z-1.8189
G01 X33.8524 Y53.8172 Z-1.8305
G01 X33.9568 Y53.8037 Z-1.8420
G01 X34.0907 Y53.7860 Z-1.8565
G01 X34.1928 Y53.7690 Z-1.8674
G01 X34.2948 Y53.7506 Z-1.8797
G01 X34.3968 Y53.7321 Z-1.8921
G01 X34.4988 Y53.7137 Z-1.9044
G01 X34.6008 Y53.6953 Z-1.9168
G01 X34.7029 Y53.6768 Z-1.9291
G01 X34.8048 Y53.6570 Z-1.9429
G01 X34.9066 Y53.6354 Z-1.9584
G01 X35.0291 Y53.6092 Z-1.9769
G01 X35.1287 Y53.5859 Z-1.9900
G01 X35.2283 Y53.5626 Z-2.0032
G01 X35.3280 Y53.5393 Z-2.0164
G01 X35.4274 Y53.5145 Z-2.0312
G01 X35.5267 Y53.4880 Z-2.0475
G01 X35.6260 Y53.4615 Z-2.0639
G01 X35.7253 Y53.4351 Z-2.0803
G01 X35.8246 Y53.4086 Z-2.0967
G01 X35.9351 Y53.3790 Z-2.1148
G01 X36.0321 Y53.3496 Z-2.1301
G01 X36.1288 Y53.3185 Z-2.1472
G01 X36.2255 Y53.2872 Z-2.1644
G01 X36.3222 Y53.2559 Z-2.1816
G01 X36.4189 Y53.2246 Z-2.1988
G01 X36.5156 Y53.1933 Z-2.2160
G01 X36.6122 Y53.1615 Z-2.2338
G01 X36.7085 Y53.1275 Z-2.2537
G01 X36.8058 Y53.0926 Z-2.2744
G01 X36.8999 Y53.0566 Z-2.2924
G01 X36.9939 Y53.0206 Z-2.3104
G01 X37.0879 Y52.9846 Z-2.3284
G01 X37.1819 Y52.9485 Z-2.3465
G01 X37.2756 Y52.9108 Z-2.3662
G01 X37.3690 Y52.8717 Z-2.3874
G01 X37.4624 Y52.8325 Z-2.4086
G01 X37.5558 Y52.7933 Z-2.4298
G01 X37.7315 Y52.7174 Z-2.4678
G01 X37.8226 Y52.6764 Z-2.4869
G01 X37.9134 Y52.6336 Z-2.5079
G01 X38.0039 Y52.5898 Z-2.5299
G01 X38.0945 Y52.5461 Z-2.5518
G01 X38.1850 Y52.5024 Z-2.5737
G01 X38.2756 Y52.4586 Z-2.5956
G01 X38.3661 Y52.4149 Z-2.6175
G01 X38.5254 Y52.3329 Z-2.6571
G01 X38.6130 Y52.2847 Z-2.6797
G01 X38.7006 Y52.2366 Z-2.7022
G01 X38.7882 Y52.1884 Z-2.7248
G01 X38.8758 Y52.1402 Z-2.7473
G01 X38.9634 Y52.0921 Z-2.7699
G01 X39.0509 Y52.0434 Z-2.7930
G01 X39.1379 Y51.9930 Z-2.8178
