(Project KidWallRulerHeader)
(Created by Estlcam version 11 build 11.029)
(Machining time about 00:01:42 hours)

(Required tools:)
(1/2" Chamfer)
G21
G90
G94
M03 S24000
G00 Z5.0000


(No. 1: Carve 26)
G00 X1.2289 Y28.6694
G01 Z-0.9742 F1270 S24000
G01 X1.1290 Y28.5695 Z-0.8743
G01 X1.0290 Y28.4695 Z-0.7743
G01 X0.9291 Y28.3696 Z-0.6744
G01 X0.8291 Y28.2696 Z-0.5744
G01 X0.7292 Y28.1697 Z-0.4745
G01 X0.6684 Y28.1088 Z-0.4137
G01 X0.6483 Y28.0876 Z-0.3936
G01 X0.6302 Y28.0675 Z-0.3755
G01 X0.6138 Y28.0483 Z-0.3591
G01 X0.5989 Y28.0299 Z-0.3442
G01 X0.5853 Y28.0122 Z-0.3306
G01 X0.5730 Y27.9952 Z-0.3183
G01 X0.5600 Y27.9762 Z-0.3053
G01 X0.5483 Y27.9579 Z-0.2935
G01 X0.5377 Y27.9403 Z-0.2830
G01 X0.5283 Y27.9233 Z-0.2735
G01 X0.5186 Y27.9046 Z-0.2639
G01 X0.5100 Y27.8864 Z-0.2553
G01 X0.5025 Y27.8689 Z-0.2478
G01 X0.4959 Y27.8518 Z-0.2411
G01 X0.4894 Y27.8331 Z-0.2347
G01 X0.4839 Y27.8149 Z-0.2291
G01 X0.4792 Y27.7971 Z-0.2245
G01 X0.4750 Y27.7777 Z-0.2203
G01 X0.4717 Y27.7587 Z-0.2170
G01 X0.4691 Y27.7380 Z-0.2144
G01 X0.4676 Y27.7175 Z-0.2128
G01 X0.4670 Y27.6952 Z-0.2123
G01 Y27.6477
G01 Y27.5526
G01 Y27.4575
G01 Y27.3624
G01 Y27.2673
G01 X0.4674 Y27.1604 Z-0.2127
G01 X0.4690 Y27.0425 Z-0.2143
G01 X0.4722 Y26.9259 Z-0.2175
G01 X0.4771 Y26.8107 Z-0.2224
G01 X0.4836 Y26.6965 Z-0.2289
G01 X0.4918 Y26.5833 Z-0.2371
G01 X0.5017 Y26.4710 Z-0.2470
G01 X0.5134 Y26.3592 Z-0.2587
G01 X0.5269 Y26.2480 Z-0.2722
G01 X0.5422 Y26.1370 Z-0.2875
G01 X0.5594 Y26.0262 Z-0.3047
G01 X0.5786 Y25.9153 Z-0.3239
G01 X0.5999 Y25.8041 Z-0.3452
G01 X0.6233 Y25.6925 Z-0.3686
G01 X0.6489 Y25.5803 Z-0.3942
G01 X0.6769 Y25.4672 Z-0.4222
G01 X0.7073 Y25.3532 Z-0.4526
G01 X0.7402 Y25.2380 Z-0.4855
G01 X0.7758 Y25.1215 Z-0.5211
G01 X0.8142 Y25.0035 Z-0.5594
G01 X0.8652 Y24.8600 Z-0.6105
G01 X0.9217 Y24.7175 Z-0.6670
G01 X0.9907 Y24.5769 Z-0.7222
G01 X1.1356 Y24.5201 Z-0.6729
G01 X1.2794 Y24.4682 Z-0.6285
G01 X1.4230 Y24.4204 Z-0.5882
G01 X1.5674 Y24.3762 Z-0.5515
G01 X1.7131 Y24.3351 Z-0.5179
G01 X1.8609 Y24.2966 Z-0.4870
G01 X2.0114 Y24.2605 Z-0.4587
G01 X2.1650 Y24.2264 Z-0.4325
G01 X2.3223 Y24.1942 Z-0.4084
G01 X2.4454 Y24.1707 Z-0.3912
G01 X2.5218 Y24.1568 Z-0.3813
G01 X2.6096 Y24.1414 Z-0.3705
G01 X2.6888 Y24.1281 Z-0.3612
G01 X2.7784 Y24.1137 Z-0.3514
G01 X2.8606 Y24.1009 Z-0.3429
G01 X2.9522 Y24.0873 Z-0.3340
G01 X3.0374 Y24.0751 Z-0.3262
G01 X3.1311 Y24.0622 Z-0.3181
G01 X3.2193 Y24.0506 Z-0.3110
G01 X3.3153 Y24.0384 Z-0.3038
G01 X3.4066 Y24.0273 Z-0.2974
G01 X3.5051 Y24.0158 Z-0.2910
G01 X3.5995 Y24.0052 Z-0.2852
G01 X3.7171 Y24.1011 Z-0.1715
G01 X3.8314 Y24.1991 Z-0.0572
G01 X3.8886 Y24.2481 Z0.0000
G01 X3.8252 Y24.1938 Z-0.0634
G01 X3.6984 Y24.0851 Z-0.1903
G01 X3.6305 Y23.9764 Z-0.2581
G01 X3.7338 Y23.8677 Z-0.1548
G01 X3.8370 Y23.7591 Z-0.0516
G01 X3.8886 Y23.7047 Z0.0000
G01 X3.8406 Y23.7553 Z-0.0480
G01 X3.7446 Y23.8564 Z-0.1440
G01 X3.6486 Y23.9574 Z-0.2400
G01 X3.5501 Y24.0108 Z-0.2882
G01 X3.4495 Y24.0221 Z-0.2944
G01 X3.3489 Y24.0343 Z-0.3014
G01 X3.2483 Y24.0467 Z-0.3087
G01 X3.1478 Y24.0600 Z-0.3168
G01 X3.0473 Y24.0737 Z-0.3253
G01 X2.9468 Y24.0881 Z-0.3345
G01 X2.8464 Y24.1031 Z-0.3444
G01 X2.7460 Y24.1187 Z-0.3548
G01 X2.6456 Y24.1354 Z-0.3663
G01 X2.5453 Y24.1525 Z-0.3782
G01 X2.4450 Y24.1707 Z-0.3913
G01 X2.3448 Y24.1898 Z-0.4052
G01 X2.2446 Y24.2095 Z-0.4197
G01 X2.1445 Y24.2308 Z-0.4358
G01 X2.0444 Y24.2529 Z-0.4527
G01 X1.9444 Y24.2760 Z-0.4707
G01 X1.8445 Y24.3008 Z-0.4903
G01 X1.7446 Y24.3266 Z-0.5110
G01 X1.6448 Y24.3536 Z-0.5329
G01 X1.5451 Y24.3828 Z-0.5569
G01 X1.4454 Y24.4133 Z-0.5822
G01 X1.3459 Y24.4452 Z-0.6089
G01 X1.2464 Y24.4796 Z-0.6382
G01 X1.1471 Y24.5157 Z-0.6692
G01 X1.0478 Y24.5535 Z-0.7018
G01 X0.9463 Y24.5485 Z-0.6916
G01 X0.8399 Y24.4474 Z-0.5852
G01 X0.7335 Y24.3464 Z-0.4788
G01 X0.6271 Y24.2453 Z-0.3724
G01 X0.5207 Y24.1442 Z-0.2660
G01 X0.4143 Y24.0431 Z-0.1596
G01 X0.3079 Y23.9421 Z-0.0532
G01 X0.2547 Y23.8915 Z0.0000
G00 Z5.0000
G00 X0.3079 Y33.5710
G01 Z-0.0532
G01 X0.4143 Y33.4699 Z-0.1596
G01 X0.5207 Y33.3688 Z-0.2660
G01 X0.7335 Y33.1667 Z-0.4788
G01 X0.9463 Y32.9645 Z-0.6916
G01 X1.0480 Y32.9566 Z-0.7048
G01 X1.1472 Y32.9951 Z-0.6714
G01 X1.2465 Y33.0319 Z-0.6397
G01 X1.3459 Y33.0669 Z-0.6099
G01 X1.4455 Y33.0992 Z-0.5827
G01 X1.5451 Y33.1301 Z-0.5570
G01 X1.6448 Y33.1595 Z-0.5327
G01 X1.7446 Y33.1869 Z-0.5105
G01 X1.8444 Y33.2128 Z-0.4897
G01 X1.9444 Y33.2377 Z-0.4700
G01 X2.0444 Y33.2610 Z-0.4519
G01 X2.1445 Y33.2831 Z-0.4350
G01 X2.2446 Y33.3044 Z-0.4189
G01 X2.3448 Y33.3241 Z-0.4043
G01 X2.4450 Y33.3432 Z-0.3904
G01 X2.5453 Y33.3614 Z-0.3773
G01 X2.6456 Y33.3784 Z-0.3655
G01 X2.7460 Y33.3950 Z-0.3540
G01 X2.8464 Y33.4106 Z-0.3437
G01 X2.9468 Y33.4256 Z-0.3339
G01 X3.0473 Y33.4399 Z-0.3247
G01 X3.1478 Y33.4535 Z-0.3163
G01 X3.2483 Y33.4667 Z-0.3083
G01 X3.3489 Y33.4790 Z-0.3011
G01 X3.4495 Y33.4912 Z-0.2941
G01 X3.5501 Y33.5025 Z-0.2880
G01 X3.6486 Y33.5556 Z-0.2400
G01 X3.7446 Y33.6567 Z-0.1440
G01 X3.8406 Y33.7577 Z-0.0480
G01 X3.8886 Y33.8083 Z0.0000
G01 X3.8370 Y33.7540 Z-0.0516
G01 X3.7338 Y33.6453 Z-0.1548
G01 X3.6305 Y33.5366 Z-0.2581
G01 X3.6986 Y33.4279 Z-0.1900
G01 X3.8253 Y33.3193 Z-0.0633
G01 X3.8886 Y33.2649 Z0.0000
G01 X3.8310 Y33.3143 Z-0.0576
G01 X3.7159 Y33.4131 Z-0.1727
G01 X3.5979 Y33.5078 Z-0.2852
G01 X3.5028 Y33.4972 Z-0.2909
G01 X3.4038 Y33.4857 Z-0.2973
G01 X3.3120 Y33.4746 Z-0.3037
G01 X3.2155 Y33.4624 Z-0.3109
G01 X3.1268 Y33.4507 Z-0.3180
G01 X3.0328 Y33.4378 Z-0.3260
G01 X2.9473 Y33.4256 Z-0.3338
G01 X2.8554 Y33.4120 Z-0.3427
G01 X2.7731 Y33.3992 Z-0.3512
G01 X2.6833 Y33.3848 Z-0.3611
G01 X2.6040 Y33.3715 Z-0.3703
G01 X2.5160 Y33.3561 Z-0.3811
G01 X2.4398 Y33.3422 Z-0.3911
G01 X2.3167 Y33.3186 Z-0.4084
G01 X2.1597 Y33.2863 Z-0.4325
G01 X2.0064 Y33.2521 Z-0.4588
G01 X1.8564 Y33.2158 Z-0.4873
G01 X1.7091 Y33.1771 Z-0.5184
G01 X1.5638 Y33.1357 Z-0.5524
G01 X1.4199 Y33.0909 Z-0.5897
G01 X1.2764 Y33.0425 Z-0.6307
G01 X1.1326 Y32.9895 Z-0.6762
G01 X0.9873 Y32.9312 Z-0.7270
G01 X0.9230 Y32.7864 Z-0.6683
G01 X0.8683 Y32.6434 Z-0.6136
G01 X0.8257 Y32.5225 Z-0.5710
G01 X0.7860 Y32.4030 Z-0.5312
G01 X0.7491 Y32.2851 Z-0.4944
G01 X0.7151 Y32.1686 Z-0.4603
G01 X0.6836 Y32.0534 Z-0.4289
G01 X0.6547 Y31.9393 Z-0.4000
G01 X0.6282 Y31.8262 Z-0.3735
G01 X0.6040 Y31.7137 Z-0.3493
G01 X0.5821 Y31.6018 Z-0.3274
G01 X0.5623 Y31.4902 Z-0.3075
G01 X0.5445 Y31.3788 Z-0.2898
G01 X0.5287 Y31.2673 Z-0.2740
G01 X0.5148 Y31.1556 Z-0.2601
G01 X0.5028 Y31.0435 Z-0.2480
G01 X0.4925 Y30.9308 Z-0.2378
G01 X0.4841 Y30.8174 Z-0.2294
G01 X0.4774 Y30.7030 Z-0.2227
G01 X0.4724 Y30.5875 Z-0.2176
G01 X0.4690 Y30.4708 Z-0.2143
G01 X0.4674 Y30.3527 Z-0.2127
G01 X0.4670 Y30.2381 Z-0.2123
G01 Y30.1277
G01 Y30.0173
G01 Y29.9069
G01 X0.4671 Y29.8425 Z-0.2124
G01 X0.4683 Y29.8183 Z-0.2136
G01 X0.4709 Y29.7940 Z-0.2162
G01 X0.4754 Y29.7673 Z-0.2207
G01 X0.4822 Y29.7380 Z-0.2275
G01 X0.4921 Y29.7056 Z-0.2374
G01 X0.5071 Y29.6672 Z-0.2524
G01 X0.5295 Y29.6213 Z-0.2748
G01 X0.5635 Y29.5654 Z-0.3088
G01 X0.6218 Y29.4892 Z-0.3671
G01 X0.7292 Y29.3773 Z-0.4745
G01 X0.9291 Y29.1774 Z-0.6744
G01 X1.1290 Y28.9775 Z-0.8743
G01 X1.3289 Y28.7776 Z-1.0742
G01 X1.4288 Y28.7735 Z-1.0783
G01 X1.5288
G01 X1.6287
G01 X1.7286
G01 X1.8286
G01 X1.9285
G01 X2.0285
G01 X2.1284
G01 X2.2284
G01 X2.3283
G01 X2.4283
G01 X2.5282
G01 X2.6281
G01 X2.7281
G01 X2.8280
G01 X2.9280
G01 X3.0279
G01 X3.1279
G01 X3.2278
G01 X3.3278
G01 X3.4277
G01 X3.5276
G01 X3.6276
G01 X3.7275
G01 X3.8275
G01 X3.9274
G01 X4.0274
G01 X4.1273
G01 X4.2273
G01 X4.3272
G01 X4.4271
G01 X4.5271
G01 X4.6270
G01 X4.7270
G01 X4.8269
G01 X4.9269
G01 X5.0268
G01 X5.1268
G01 X5.2267
G01 X5.3266
G01 X5.4266
G01 X5.5265
G01 X5.6265
G01 X5.7264
G01 X5.8264
G01 X5.9263
G01 X6.0263
G01 X6.1262
G01 X6.2261
G01 X6.3261
G01 X6.4260
G01 X6.5260
G01 X6.6259
G01 X6.7259
G01 X6.8258
G01 X6.9258
G01 X7.0257
G01 X7.1256
G01 X7.2256
G01 X7.3255
G01 X7.4255
G01 X7.5254
G01 X7.6254
G01 X7.7253
G01 X7.8252
G01 X7.9252
G01 X8.0251
G01 X8.1251
G01 X8.2250
G01 X8.3250
G01 X8.4249
G01 X8.5249
G01 X8.6248
G01 X8.7247
G01 X8.8247
G01 X8.9246
G01 X9.0246
G01 X9.1245
G01 X9.2245
G01 X9.3244
G01 X9.4244
G01 X9.5243
G01 X9.6242
G01 X9.7242
G01 X9.8241
G01 X9.9241
G01 X10.0240
G01 X10.1240
G01 X10.2239
G01 X10.3239
G01 X10.4238
G01 X10.5237 Y28.7776 Z-1.0742
G01 X10.6237 Y28.8775 Z-0.9742
G01 X10.7236 Y28.9775 Z-0.8743
G01 X10.8236 Y29.0774 Z-0.7743
G01 X10.9235 Y29.1774 Z-0.6744
G01 X11.0235 Y29.2773 Z-0.5744
G01 X11.1234 Y29.3773 Z-0.4745
G01 X11.1842 Y29.4382 Z-0.4137
G01 X11.2043 Y29.4593 Z-0.3936
G01 X11.2224 Y29.4795 Z-0.3755
G01 X11.2388 Y29.4987 Z-0.3591
G01 X11.2537 Y29.5171 Z-0.3442
G01 X11.2673 Y29.5348 Z-0.3306
G01 X11.2796 Y29.5517 Z-0.3183
G01 X11.2927 Y29.5708 Z-0.3053
G01 X11.3044 Y29.5891 Z-0.2935
G01 X11.3149 Y29.6067 Z-0.2830
G01 X11.3244 Y29.6237 Z-0.2735
G01 X11.3340 Y29.6424 Z-0.2639
G01 X11.3426 Y29.6605 Z-0.2553
G01 X11.3501 Y29.6781 Z-0.2478
G01 X11.3568 Y29.6951 Z-0.2411
G01 X11.3632 Y29.7138 Z-0.2347
G01 X11.3688 Y29.7320 Z-0.2291
G01 X11.3734 Y29.7498 Z-0.2245
G01 X11.3776 Y29.7692 Z-0.2203
G01 X11.3809 Y29.7883 Z-0.2170
G01 X11.3835 Y29.8090 Z-0.2144
G01 X11.3851 Y29.8295 Z-0.2128
G01 X11.3856 Y29.8518 Z-0.2123
G01 Y29.9013
G01 Y30.0003
G01 Y30.0994
G01 Y30.1984
G01 Y30.2975
G01 Y30.3966
G01 Y30.4956
G01 Y30.5947
G01 Y30.6937
G01 Y30.7928
G01 Y30.8918
G01 Y30.9909
G01 Y31.0899
G01 Y31.1890
G01 Y31.2880
G01 Y31.3871
G01 X11.3220 Y31.4861 Z-0.1486
G01 X11.2229 Y31.5852 Z-0.0495
G01 X11.1734 Y31.6347 Z0.0000
G01 X11.2264 Y31.5817 Z-0.0531
G01 X11.3326 Y31.4755 Z-0.1592
G01 X11.4387
G01 X11.5448 Y31.5817 Z-0.0531
G01 X11.5979 Y31.6347 Z0.0000
G01 X11.5477 Y31.5845 Z-0.0502
G01 X11.4473 Y31.4841 Z-0.1506
G01 X11.3856 Y31.3837 Z-0.2123
G01 Y31.2833
G01 Y31.1830
G01 Y31.0826
G01 Y30.9822
G01 Y30.8818
G01 Y30.7814
G01 Y30.6810
G01 Y30.5806
G01 Y30.4802
G01 Y30.3798
G01 Y30.2794
G01 Y30.1790
G01 Y30.0786
G01 Y29.9782
G01 Y29.8778
G01 X11.3791 Y29.7774 Z-0.2188
G01 X11.3497 Y29.6770 Z-0.2482
G01 X11.2965 Y29.5766 Z-0.3014
G01 X11.1220 Y29.3759 Z-0.4759
G01 X10.9212 Y29.1751 Z-0.6767
G01 X10.7204 Y28.9743 Z-0.8775
G01 X10.5196 Y28.7735 Z-1.0783
G01 X10.6200 Y28.6731 Z-0.9779
G01 X10.7204 Y28.5727 Z-0.8775
G01 X10.8208 Y28.4723 Z-0.7771
G01 X10.9212 Y28.3719 Z-0.6767
G01 X11.0216 Y28.2715 Z-0.5763
G01 X11.1220 Y28.1711 Z-0.4759
G01 X11.2196 Y28.0707 Z-0.3783
G01 X11.2965 Y27.9703 Z-0.3014
G01 X11.3497 Y27.8699 Z-0.2482
G01 X11.3791 Y27.7695 Z-0.2188
G01 X11.3856 Y27.6691 Z-0.2123
G01 Y27.5687
G01 Y27.4684
G01 Y27.3680
G01 Y27.2676
G01 Y27.1672
G01 Y27.0668
G01 Y26.9664
G01 Y26.8660
G01 Y26.7656
G01 Y26.6652
G01 Y26.5648
G01 Y26.4644
G01 Y26.3640
G01 Y26.2636
G01 Y26.1632
G01 X11.4473 Y26.0628 Z-0.1506
G01 X11.5477 Y25.9624 Z-0.0502
G01 X11.5979 Y25.9122 Z0.0000
G01 X11.5448 Y25.9653 Z-0.0531
G01 X11.4387 Y26.0714 Z-0.1592
G01 X11.3326
G01 X11.2264 Y25.9653 Z-0.0531
G01 X11.1734 Y25.9122 Z0.0000
G00 Z5.0000
G00 X0.2547 Y33.6215
G01 Z0.0000
G00 Z0.5000
G00 Z5.0000
G00 X11.3193 Y39.7271
G01 Z-0.1459
G01 X11.2220 Y39.6298 Z-0.0486
G01 X11.1734 Y39.5812 Z0.0000
G01 X11.2264 Y39.6343 Z-0.0531
G01 X11.3326 Y39.7404 Z-0.1592
G01 X11.4387
G01 X11.5448 Y39.6343 Z-0.0531
G01 X11.5979 Y39.5812 Z0.0000
G00 Z5.0000
G00 X11.5476 Y39.6315
G01 Z-0.0503
G01 X11.4470 Y39.7321 Z-0.1509
G01 X11.3856 Y39.8327 Z-0.2123
G01 Y39.9334
G01 Y40.0340
G01 Y40.1346
G01 Y40.2352
G01 Y40.3358
G01 Y40.4364
G01 Y40.5370
G01 Y40.6376
G01 X11.3767 Y40.7383 Z-0.2212
G01 X11.3441 Y40.8389 Z-0.2538
G01 X11.2877 Y40.9395 Z-0.3102
G01 X11.2074 Y41.0401 Z-0.3905
G01 X11.1083 Y41.1407 Z-0.4896
G01 X11.0077 Y41.2413 Z-0.5902
G01 X10.9070 Y41.3419 Z-0.6909
G01 X10.8064 Y41.4425 Z-0.7915
G01 X10.7058 Y41.5432 Z-0.8921
G01 X10.7567 Y41.6438 Z-0.8412
G01 X10.9579 Y41.8450 Z-0.6400
G01 X11.1591 Y42.0462 Z-0.4388
G01 X11.2510 Y42.1468 Z-0.3470
G01 X11.3192 Y42.2474 Z-0.2787
G01 X11.3636 Y42.3481 Z-0.2343
G01 X11.3841 Y42.4487 Z-0.2138
G01 X11.3856 Y42.5493 Z-0.2123
G01 Y42.6499
G01 Y42.7505
G01 Y42.8511
G01 Y42.9517
G01 Y43.0523
G01 Y43.1530
G01 Y43.2536
G01 Y43.3542
G01 X11.4470 Y43.4548 Z-0.1509
G01 X11.5476 Y43.5554 Z-0.0503
G01 X11.5979 Y43.6057 Z0.0000
G01 X11.5448 Y43.5527 Z-0.0531
G01 X11.4387 Y43.4465 Z-0.1592
G01 X11.3326
G01 X11.2264 Y43.5527 Z-0.0531
G01 X11.1734 Y43.6057 Z0.0000
G01 X11.2243 Y43.5548 Z-0.0509
G01 X11.3262 Y43.4529 Z-0.1528
G01 X11.3856 Y43.3510 Z-0.2123
G01 Y43.2491
G01 Y43.1472
G01 Y43.0454
G01 Y42.9435
G01 Y42.8416
G01 Y42.7397
G01 Y42.6378
G01 Y42.5359
G01 Y42.4850
G01 X11.3851 Y42.4628 Z-0.2128
G01 X11.3835 Y42.4423 Z-0.2144
G01 X11.3809 Y42.4216 Z-0.2170
G01 X11.3776 Y42.4025 Z-0.2203
G01 X11.3734 Y42.3831 Z-0.2245
G01 X11.3688 Y42.3653 Z-0.2291
G01 X11.3632 Y42.3471 Z-0.2347
G01 X11.3568 Y42.3284 Z-0.2411
G01 X11.3501 Y42.3113 Z-0.2478
G01 X11.3426 Y42.2938 Z-0.2553
G01 X11.3340 Y42.2757 Z-0.2639
G01 X11.3244 Y42.2569 Z-0.2735
G01 X11.3149 Y42.2399 Z-0.2830
G01 X11.3044 Y42.2223 Z-0.2935
G01 X11.2927 Y42.2040 Z-0.3053
G01 X11.2796 Y42.1850 Z-0.3183
G01 X11.2673 Y42.1680 Z-0.3306
G01 X11.2537 Y42.1503 Z-0.3442
G01 X11.2388 Y42.1319 Z-0.3591
G01 X11.2224 Y42.1127 Z-0.3755
G01 X11.2043 Y42.0926 Z-0.3936
G01 X11.1842 Y42.0715 Z-0.4137
G01 X11.1237 Y42.0108 Z-0.4742
G01 X11.0245 Y41.9116 Z-0.5734
G01 X10.9252 Y41.8123 Z-0.6727
G01 X10.8259 Y41.7130 Z-0.7720
G01 X10.7267 Y41.6138 Z-0.8712
G01 X10.6274 Y41.5680 Z-0.9170
G01 X10.5281
G01 X10.4288
G01 X10.3296
G01 X10.2303
G01 X10.1310
G01 X10.0317
G01 X9.9325
G01 X9.8332
G01 X9.7339
G01 X9.6347
G01 X9.5354
G01 X9.4361
G01 X9.3368
G01 X9.2376
G01 X9.1383
G01 X9.0390
G01 X8.9398
G01 X8.8405
G01 X8.7412
G01 X8.6419
G01 X8.5427
G01 X8.4434
G01 X8.3441
G01 X8.2448
G01 X8.1456
G01 X8.0463
G01 X7.9470
G01 X7.8478
G01 X7.7485
G01 X7.6492
G01 X7.5499
G01 X7.4507
G01 X7.3514
G01 X7.2521
G01 X7.1528
G01 X7.0536
G01 X6.9543
G01 X6.8550
G01 X6.7558
G01 X6.6565
G01 X6.5572
G01 X6.4579
G01 X6.3587
G01 X6.2594
G01 X6.1601
G01 X6.0608
G01 X5.9770 Y41.5679 Z-0.9168
G01 X5.8947 Y41.5675 Z-0.9166
G01 X5.8277 Y41.5669 Z-0.9162
G01 X5.7474 Y41.5657 Z-0.9156
G01 X5.6830 Y41.5644 Z-0.9149
G01 X5.6046 Y41.5622 Z-0.9139
G01 X5.5428 Y41.5602 Z-0.9130
G01 X5.4664 Y41.5572 Z-0.9117
G01 X5.3699 Y41.5526 Z-0.9097
G01 X5.2398 Y41.5449 Z-0.9065
G01 X5.1143 Y41.5358 Z-0.9027
G01 X4.9934 Y41.5252 Z-0.8983
G01 X4.8770 Y41.5132 Z-0.8934
G01 X4.7651 Y41.4998 Z-0.8880
G01 X4.6578 Y41.4851 Z-0.8820
G01 X4.5550 Y41.4691 Z-0.8756
G01 X4.4566 Y41.4520 Z-0.8686
G01 X4.3627 Y41.4337 Z-0.8612
G01 X4.2733 Y41.4142 Z-0.8534
G01 X4.1881 Y41.3938 Z-0.8452
G01 X4.1072 Y41.3723 Z-0.8366
G01 X4.0305 Y41.3500 Z-0.8276
G01 X3.9577 Y41.3269 Z-0.8181
G01 X3.8888 Y41.3030 Z-0.8083
G01 X3.7816 Y41.2599 Z-0.7899
G01 X3.6852 Y41.2133 Z-0.7690
G01 X3.5978 Y41.1626 Z-0.7456
G01 X3.5154 Y41.1057 Z-0.7186
G01 X3.4340 Y41.0392 Z-0.6866
G01 X3.3509 Y40.9585 Z-0.6477
G01 X3.2647 Y40.8591 Z-0.6005
G01 X3.1774 Y40.7363 Z-0.5451
G01 X3.1342 Y40.6652 Z-0.5146
G01 X3.0924 Y40.5872 Z-0.4827
G01 X3.0530 Y40.5022 Z-0.4503
G01 X3.0171 Y40.4104 Z-0.4180
G01 X2.9912 Y40.3319 Z-0.3927
G01 X2.9743 Y40.2704 Z-0.3742
G01 X2.9604 Y40.2081 Z-0.3570
G01 X2.9492 Y40.1452 Z-0.3409
G01 X2.9407 Y40.0817 Z-0.3258
G01 X2.9351 Y40.0178 Z-0.3118
G01 X2.9324 Y39.9534 Z-0.2990
G01 X2.9328 Y39.8887 Z-0.2875
G01 X2.9361 Y39.8237 Z-0.2772
G01 X2.9422 Y39.7586 Z-0.2679
G01 X2.9511 Y39.6934 Z-0.2596
G01 X2.9624 Y39.6280 Z-0.2519
G01 X2.9765 Y39.5625 Z-0.2451
G01 X2.9937 Y39.4973 Z-0.2397
G01 X3.0135 Y39.4322 Z-0.2351
G01 X3.0360 Y39.3672 Z-0.2314
G01 X3.0612 Y39.3025 Z-0.2287
G01 X3.0895 Y39.2384 Z-0.2274
G01 X3.1206 Y39.1747 Z-0.2272
G01 X3.1543 Y39.1115 Z-0.2278
G01 X3.1914 Y39.0469 Z-0.2297
G01 X3.2274 Y38.9890 Z-0.2320
G01 X3.2663 Y38.9325 Z-0.2349
G01 X3.3074 Y38.8770 Z-0.2377
G01 X3.3508 Y38.8225 Z-0.2404
G01 X3.3969 Y38.7692 Z-0.2433
G01 X3.4454 Y38.7169 Z-0.2462
G01 X3.4963 Y38.6654 Z-0.2488
G01 X3.5495 Y38.6148 Z-0.2513
G01 X3.6054 Y38.5652 Z-0.2540
G01 X3.6637 Y38.5164 Z-0.2563
G01 X3.7244 Y38.4682 Z-0.2583
G01 X3.7878 Y38.4210 Z-0.2604
G01 X3.8538 Y38.3745 Z-0.2622
G01 X3.9222 Y38.3286 Z-0.2636
G01 X3.9933 Y38.2835 Z-0.2649
G01 X4.0671 Y38.2392 Z-0.2660
G01 X4.1435 Y38.1955 Z-0.2667
G01 X4.2225 Y38.1524 Z-0.2671
G01 X4.3046 Y38.1107 Z-0.2679
G01 X4.3491 Y38.0886 Z-0.2682
G01 X4.3721 Y38.0769 Z-0.2694
G01 X4.3948 Y38.0641 Z-0.2719
G01 X4.4172 Y38.0499 Z-0.2757
G01 X4.4375 Y38.0357 Z-0.2803
G01 X4.4576 Y38.0203 Z-0.2862
G01 X4.4759 Y38.0053 Z-0.2928
G01 X4.4945 Y37.9891 Z-0.3008
G01 X4.5111 Y37.9735 Z-0.3090
G01 X4.5279 Y37.9566 Z-0.3183
G01 X4.5448 Y37.9383 Z-0.3289
G01 X4.5620 Y37.9184 Z-0.3409
G01 X4.5773 Y37.8996 Z-0.3527
G01 X4.5932 Y37.8793 Z-0.3662
G01 X4.6094 Y37.8573 Z-0.3813
G01 X4.6260 Y37.8333 Z-0.3980
G01 X4.6404 Y37.8111 Z-0.4139
G01 X4.6551 Y37.7870 Z-0.4314
G01 X4.6702 Y37.7610 Z-0.4506
G01 X4.6859 Y37.7326 Z-0.4723
G01 X4.7023 Y37.7017 Z-0.4965
G01 X4.7163 Y37.6736 Z-0.5187
G01 X4.7307 Y37.6433 Z-0.5430
G01 X4.7453 Y37.6104 Z-0.5695
G01 X4.7573 Y37.5821 Z-0.5926
G01 X4.7695 Y37.5518 Z-0.6176
G01 X4.7826 Y37.5189 Z-0.6453
G01 X4.7926 Y37.4926 Z-0.6676
G01 X4.8028 Y37.4647 Z-0.6914
G01 X4.8132 Y37.4352 Z-0.7167
G01 X4.8238 Y37.4039 Z-0.7436
G01 X4.8345 Y37.3706 Z-0.7724
G01 X4.8455 Y37.3352 Z-0.8032
G01 X4.8566 Y37.2974 Z-0.8362
G01 X4.8644 Y37.2706 Z-0.8599
G01 X4.8726 Y37.2423 Z-0.8851
G01 X4.8808 Y37.2127 Z-0.9116
G01 X4.8892 Y37.1816 Z-0.9395
G01 X4.8977 Y37.1490 Z-0.9688
G01 X4.9063 Y37.1147 Z-0.9996
G01 X4.9150 Y37.0788 Z-1.0321
G01 X4.8725 Y37.0454 Z-1.0301
G01 X4.8014 Y37.0218 Z-1.0065
G01 X4.7319 Y37.0014 Z-0.9861
G01 X4.6637 Y36.9839 Z-0.9687
G01 X4.5966 Y36.9692 Z-0.9540
G01 X4.5304 Y36.9571 Z-0.9419
G01 X4.4650 Y36.9475 Z-0.9322
G01 X4.4083 Y36.9411 Z-0.9258
G01 X4.3519 Y36.9364 Z-0.9211
G01 X4.2957 Y36.9335 Z-0.9182
G01 X4.2397 Y36.9323 Z-0.9170
G01 X4.1779 Y36.9322
G01 X4.0772
G01 X3.9765
G01 X3.8759
G01 X3.7752
G01 X3.6745
G01 X3.5739
G01 X3.4732
G01 X3.3725
G01 X3.2718
G01 X3.1712
G01 X3.0705
G01 X2.9698
G01 X2.8692
G01 X2.7685
G01 X2.6678
G01 X2.5671
G01 X2.4665
G01 X2.3658
G01 X2.2651
G01 X2.1644
G01 X2.0638
G01 X1.9631
G01 X1.8624
G01 X1.7618
G01 X1.6611
G01 X1.5604
G01 X1.4597
G01 X1.3591
G01 X1.2584
G01 X1.1577
G01 X1.0571 Y36.9399 Z-0.9093
G01 X0.8557 Y37.1159 Z-0.7333
G01 X0.6544 Y37.2911 Z-0.5581
G01 X0.4530 Y37.4644 Z-0.3848
G01 X0.3524 Y37.5505 Z-0.2987
G01 X0.2517 Y37.6363 Z-0.2129
G01 X0.1510 Y37.7217 Z-0.1275
G01 X0.0503 Y37.8068 Z-0.0424
G01 X0.0000 Y37.8492 Z0.0000
G01 X0.0249 Y37.8282 Z-0.0209
G01 X0.0744 Y37.7865 Z-0.0627
G01 X0.1234 Y37.7450 Z-0.1042
G01 X0.1720 Y37.7039 Z-0.1453
G01 X0.2201 Y37.6631 Z-0.1861
G01 X0.2678 Y37.6225 Z-0.2267
G01 X0.3151 Y37.5823 Z-0.2669
G01 X0.3619 Y37.5424 Z-0.3068
G01 X0.4082 Y37.5028 Z-0.3464
G01 X0.4541 Y37.4635 Z-0.3857
G01 X0.4996 Y37.4245 Z-0.4247
G01 X0.5447 Y37.3857 Z-0.4635
G01 X0.5893 Y37.3473 Z-0.5019
G01 X0.6335 Y37.3091 Z-0.5401
G01 X0.6773 Y37.2712 Z-0.5780
G01 X0.7207 Y37.2336 Z-0.6156
G01 X0.7637 Y37.1962 Z-0.6530
G01 X0.8063 Y37.1591 Z-0.6901
G01 X0.8485 Y37.1222 Z-0.7270
G01 X0.8903 Y37.0856 Z-0.7636
G01 X0.9255 Y37.0548 Z-0.7944
G01 X0.9630 Y37.0221 Z-0.8271
G01 X1.0000 Y36.9897 Z-0.8595
G01 X1.0366 Y36.9578 Z-0.8914
G01 X1.0589 Y36.9244 Z-0.9091
G01 X0.9199 Y36.7656 Z-0.7504
G01 X0.7580 Y36.5811 Z-0.5658
G01 X0.6150 Y36.4128 Z-0.4026
G01 X0.5389 Y36.2986 Z-0.3162
G01 X0.5077 Y36.2385 Z-0.2815
G01 X0.4834 Y36.1766 Z-0.2537
G01 X0.4669 Y36.1129 Z-0.2337
G01 X0.4618 Y36.0804 Z-0.2270
G01 X0.4591 Y36.0474 Z-0.2225
G01 X0.4588 Y36.0140 Z-0.2205
G01 X0.4596 Y35.9801 Z-0.2196
G01 X0.4605 Y35.9455 Z-0.2188
G01 X0.4613 Y35.9104 Z-0.2179
G01 X0.4622 Y35.8747 Z-0.2171
G01 X0.4630 Y35.8384 Z-0.2162
G01 X0.4639 Y35.8016 Z-0.2153
G01 X0.4647 Y35.7641 Z-0.2145
G01 X0.4656 Y35.7261 Z-0.2136
G01 X0.4664 Y35.6874 Z-0.2128
G01 X0.4670 Y35.6399 Z-0.2123
G01 Y35.6019
G01 Y35.5634
G01 Y35.5243
G01 Y35.4845
G01 Y35.4442
G01 Y35.4033
G01 Y35.3617
G01 Y35.3196
G01 Y35.2769
G01 Y35.2336
G01 Y35.1897
G01 Y35.1452
G01 Y35.1001
G01 Y35.0545
G01 X0.4467 Y34.9846 Z-0.1919
G01 X0.3759 Y34.9139 Z-0.1212
G01 X0.3034 Y34.8413 Z-0.0487
G01 X0.2547 Y34.7927 Z0.0000
G01 X0.3078 Y34.8457 Z-0.0531
G01 X0.4139 Y34.9519 Z-0.1592
G01 X0.5200
G01 X0.6262 Y34.8457 Z-0.0531
G01 X0.6792 Y34.7927 Z0.0000
G01 X0.6283 Y34.8436 Z-0.0509
G01 X0.5264 Y34.9455 Z-0.1528
G01 X0.4670 Y35.0474 Z-0.2123
G01 Y35.1493
G01 Y35.2511
G01 Y35.3530
G01 Y35.4549
G01 Y35.5568
G01 Y35.6587
G01 X0.4648 Y35.7606 Z-0.2144
G01 X0.4625 Y35.8624 Z-0.2168
G01 X0.4600 Y35.9643 Z-0.2192
G01 X0.4587 Y36.0153 Z-0.2205
G01 Y36.0365 Z-0.2216
G01 X0.4597 Y36.0579 Z-0.2237
G01 X0.4615 Y36.0777 Z-0.2265
G01 X0.4642 Y36.0978 Z-0.2303
G01 X0.4679 Y36.1183 Z-0.2351
G01 X0.4722 Y36.1372 Z-0.2403
G01 X0.4773 Y36.1567 Z-0.2465
G01 X0.4834 Y36.1767 Z-0.2537
G01 X0.4898 Y36.1950 Z-0.2611
G01 X0.4971 Y36.2140 Z-0.2695
G01 X0.5055 Y36.2337 Z-0.2790
G01 X0.5138 Y36.2515 Z-0.2884
G01 X0.5231 Y36.2700 Z-0.2987
G01 X0.5336 Y36.2892 Z-0.3103
G01 X0.5452 Y36.3093 Z-0.3231
G01 X0.5583 Y36.3303 Z-0.3375
G01 X0.5707 Y36.3492 Z-0.3511
G01 X0.5843 Y36.3696 Z-0.3668
G01 X0.5993 Y36.3912 Z-0.3844
G01 X0.6161 Y36.4141 Z-0.4038
G01 X0.6315 Y36.4342 Z-0.4217
G01 X0.6485 Y36.4554 Z-0.4412
G01 X0.6671 Y36.4776 Z-0.4625
G01 X0.7292 Y36.5483 Z-0.5331
G01 X0.8292 Y36.6621 Z-0.6468
G01 X0.9291 Y36.7761 Z-0.7608
G01 X1.0290 Y36.8902 Z-0.8750
G01 X1.1290 Y36.9322 Z-0.9170
G01 X1.2289
G01 X1.3289
G01 X1.4288
G01 X1.5288
G01 X1.6287
G01 X1.7287
G01 X1.8286
G01 X1.9285
G01 X2.0285
G01 X2.1284
G01 X2.2284
G01 X2.3283
G01 X2.4283
G01 X2.5282
G01 X2.6281
G01 X2.7281
G01 X2.8280
G01 X2.9280
G01 X3.0279
G01 X3.1279
G01 X3.2278
G01 X3.3278
G01 X3.4277
G01 X3.5276
G01 X3.6276
G01 X3.7275
G01 X3.8275
G01 X3.9274
G01 X4.0274
G01 X4.1273
G01 X4.2273
G01 X4.3272 Y36.9349 Z-0.9196
G01 X4.4271 Y36.9430 Z-0.9277
G01 X4.5271 Y36.9566 Z-0.9413
G01 X4.6270 Y36.9756 Z-0.9603
G01 X4.7270 Y37.0001 Z-0.9848
G01 X4.8269 Y37.0300 Z-1.0147
G01 X4.9269 Y37.0612 Z-1.0460
G01 X5.0268 Y37.0488 Z-1.0335
G01 X5.1268 Y37.0370 Z-1.0217
G01 X5.2267 Y37.0263 Z-1.0110
G01 X5.3266 Y37.0158 Z-1.0006
G01 X5.4266 Y37.0066 Z-0.9913
G01 X5.5265 Y36.9977 Z-0.9824
G01 X5.6265 Y36.9896 Z-0.9744
G01 X5.7264 Y36.9821 Z-0.9668
G01 X5.8264 Y36.9752 Z-0.9599
G01 X5.9263 Y36.9689 Z-0.9537
G01 X6.0263 Y36.9631 Z-0.9478
G01 X6.1262 Y36.9580 Z-0.9428
G01 X6.2261 Y36.9532 Z-0.9379
G01 X6.3261 Y36.9492 Z-0.9340
G01 X6.4260 Y36.9454 Z-0.9301
G01 X6.5260 Y36.9424 Z-0.9271
G01 X6.6259 Y36.9395 Z-0.9242
G01 X6.7259 Y36.9375 Z-0.9222
G01 X6.8258 Y36.9354 Z-0.9202
G01 X6.9258 Y36.9342 Z-0.9190
G01 X7.0257 Y36.9331 Z-0.9178
G01 X7.1256 Y36.9326 Z-0.9174
G01 X7.2256 Y36.9323 Z-0.9170
G01 X7.3255 Y36.9322
G01 X7.4255
G01 X7.5254
G01 X7.6254
G01 X7.7253
G01 X7.8253
G01 X7.9252
G01 X8.0251
G01 X8.1251
G01 X8.2250
G01 X8.3250
G01 X8.4249
G01 X8.5249
G01 X8.6248
G01 X8.7248
G01 X8.8247
G01 X8.9246
G01 X9.0246
G01 X9.1245
G01 X9.2245
G01 X9.3244
G01 X9.4244
G01 X9.5243
G01 X9.6242
G01 X9.7242
G01 X9.8241
G01 X9.9241
G01 X10.0240
G01 X10.1240
G01 X10.2239
G01 X10.3239
G01 X10.4238
G01 X10.5237
G01 X10.6237
G01 X10.7236 Y36.8895 Z-0.8743
G01 X10.9235 Y36.6897 Z-0.6744
G01 X11.1234 Y36.4898 Z-0.4745
G01 X11.2308 Y36.3779 Z-0.3671
G01 X11.2891 Y36.3016 Z-0.3088
G01 X11.3231 Y36.2458 Z-0.2748
G01 X11.3455 Y36.1999 Z-0.2524
G01 X11.3605 Y36.1614 Z-0.2374
G01 X11.3704 Y36.1290 Z-0.2275
G01 X11.3772 Y36.0997 Z-0.2207
G01 X11.3817 Y36.0730 Z-0.2162
G01 X11.3843 Y36.0487 Z-0.2136
G01 X11.3855 Y36.0245 Z-0.2124
G01 X11.3856 Y35.9672 Z-0.2123
G01 Y35.8709
G01 Y35.7747
G01 Y35.6785
G01 Y35.5823
G01 Y35.4861
G01 Y35.3898
G01 Y35.2936
G01 Y35.1974
G01 Y35.1012
G01 X11.3177 Y35.0050 Z-0.1443
G01 X11.2215 Y34.9087 Z-0.0481
G01 X11.1734 Y34.8606 Z0.0000
G01 X11.2264 Y34.9137 Z-0.0531
G01 X11.3326 Y35.0198 Z-0.1592
G01 X11.4387
G01 X11.5448 Y34.9137 Z-0.0531
G01 X11.5979 Y34.8606 Z0.0000
G01 X11.5478 Y34.9107 Z-0.0501
G01 X11.4476 Y35.0109 Z-0.1503
G01 X11.3856 Y35.1111 Z-0.2123
G01 Y35.2113
G01 Y35.3115
G01 Y35.4117
G01 Y35.5118
G01 Y35.6120
G01 Y35.7122
G01 Y35.8124
G01 Y35.9126
G01 Y36.0128
G01 X11.3744 Y36.1130 Z-0.2235
G01 X11.3395 Y36.2132 Z-0.2584
G01 X11.2810 Y36.3133 Z-0.3169
G01 X11.1988 Y36.4135 Z-0.3991
G01 X11.0995 Y36.5137 Z-0.4984
G01 X10.9993 Y36.6139 Z-0.5986
G01 X10.8991 Y36.7141 Z-0.6988
G01 X10.7989 Y36.8143 Z-0.7990
G01 X10.6987 Y36.9145 Z-0.8992
G01 X10.7634 Y37.0146 Z-0.8345
G01 X10.9637 Y37.2150 Z-0.6342
G01 X11.1641 Y37.4154 Z-0.4338
G01 X11.2546 Y37.5156 Z-0.3433
G01 X11.3215 Y37.6158 Z-0.2764
G01 X11.3647 Y37.7160 Z-0.2332
G01 X11.3844 Y37.8161 Z-0.2135
G01 X11.3856 Y37.9163 Z-0.2123
G01 Y38.0165
G01 Y38.1167
G01 Y38.2169
G01 Y38.3171
G01 Y38.4173
G01 Y38.5175
G01 Y38.6176
G01 X11.4476 Y38.7178 Z-0.1503
G01 X11.5478 Y38.8180 Z-0.0501
G01 X11.5979 Y38.8681 Z0.0000
G01 X11.5448 Y38.8150 Z-0.0531
G01 X11.4387 Y38.7089 Z-0.1592
G01 X11.3326
G01 X11.2264 Y38.8150 Z-0.0531
G01 X11.1734 Y38.8681 Z0.0000
G00 Z5.0000
G00 X8.4192 Y50.4858
G01 Z-0.0307
G01 X8.3885 Y50.4599 Z0.0000
G00 Z5.0000
G00 X8.4516 Y50.5130
G01 Z-0.0631
G01 X8.5802 Y50.6192 Z-0.1917
G01 X8.5176 Y50.7254 Z-0.1291
G01 X8.4316 Y50.8316 Z-0.0430
G01 X8.3885 Y50.8847 Z0.0000
G01 X8.4246 Y50.8402 Z-0.0361
G01 X8.4968 Y50.7511 Z-0.1083
G01 X8.5653 Y50.6657 Z-0.1768
G01 X8.6439 Y50.6189 Z-0.2047
G01 X8.7237 Y50.6001 Z-0.2042
G01 X8.8063 Y50.5793 Z-0.2040
G01 X8.8836 Y50.5588 Z-0.2041
G01 X8.9637 Y50.5363 Z-0.2045
G01 X9.0383 Y50.5141 Z-0.2052
G01 X9.1161 Y50.4900 Z-0.2060
G01 X9.1881 Y50.4665 Z-0.2070
G01 X9.2634 Y50.4408 Z-0.2081
G01 X9.3328 Y50.4161 Z-0.2092
G01 X9.4058 Y50.3891 Z-0.2105
G01 X9.4726 Y50.3633 Z-0.2117
G01 X9.5434 Y50.3354 Z-0.2127
G01 X9.6423 Y50.2949 Z-0.2135
G01 X9.7718 Y50.2386 Z-0.2143
G01 X9.8968 Y50.1806 Z-0.2147
G01 X10.0173 Y50.1209 Z-0.2145
G01 X10.1334 Y50.0598 Z-0.2134
G01 X10.2454 Y49.9973 Z-0.2115
G01 X10.3533 Y49.9334 Z-0.2085
G01 X10.4573 Y49.8683 Z-0.2045
G01 X10.5576 Y49.8018 Z-0.1993
G01 X10.6540 Y49.7335 Z-0.1934
G01 X10.7464 Y49.6630 Z-0.1873
G01 X10.8346 Y49.5902 Z-0.1811
G01 X10.9173 Y49.5157 Z-0.1745
G01 X10.9995 Y49.4351 Z-0.1674
G01 X11.0771 Y49.3527 Z-0.1610
G01 X11.1503 Y49.2687 Z-0.1555
G01 X11.2188 Y49.1828 Z-0.1507
G01 X11.2827 Y49.0953 Z-0.1468
G01 X11.3418 Y49.0061 Z-0.1438
G01 X11.3961 Y48.9154 Z-0.1416
G01 X11.4457 Y48.8230 Z-0.1403
G01 X11.4904 Y48.7292 Z-0.1399
G01 X11.5302 Y48.6341 Z-0.1404
G01 X11.5652 Y48.5376 Z-0.1416
G01 X11.5954 Y48.4399 Z-0.1437
G01 X11.6208 Y48.3411 Z-0.1465
G01 X11.6415 Y48.2412 Z-0.1499
G01 X11.6576 Y48.1403 Z-0.1539
G01 X11.6691 Y48.0385 Z-0.1584
G01 X11.6762 Y47.9358 Z-0.1634
G01 X11.6783 Y47.8322 Z-0.1693
G01 X11.6752 Y47.7277 Z-0.1764
G01 X11.6657 Y47.6169 Z-0.1853
G01 X11.6486 Y47.5018 Z-0.1962
G01 X11.6235 Y47.3897 Z-0.2092
G01 X11.5912 Y47.2807 Z-0.2235
G01 X11.5516 Y47.1750 Z-0.2394
G01 X11.5042 Y47.0729 Z-0.2576
G01 X11.4501 Y46.9743 Z-0.2772
G01 X11.3893 Y46.8792 Z-0.2983
G01 X11.3220 Y46.7875 Z-0.3208
G01 X11.2481 Y46.6995 Z-0.3451
G01 X11.1680 Y46.6149 Z-0.3707
G01 X11.0820 Y46.5336 Z-0.3976
G01 X10.9900 Y46.4554 Z-0.4257
G01 X10.8921 Y46.3802 Z-0.4549
G01 X10.7890 Y46.3074 Z-0.4845
G01 X10.6804 Y46.2369 Z-0.5146
G01 X10.6001 Y46.1880 Z-0.5362
G01 X10.4820 Y46.1211 Z-0.5669
G01 X10.3582 Y46.0562 Z-0.5982
G01 X10.2285 Y45.9932 Z-0.6299
G01 X10.0941 Y45.9326 Z-0.6619
G01 X9.9585 Y45.8759 Z-0.6932
G01 X9.8237 Y45.8238 Z-0.7233
G01 X9.6895 Y45.7760 Z-0.7522
G01 X9.5559 Y45.7322 Z-0.7796
G01 X9.4228 Y45.6922 Z-0.8057
G01 X9.2901 Y45.6559 Z-0.8304
G01 X9.1576 Y45.6229 Z-0.8536
G01 X9.0251 Y45.5933 Z-0.8754
G01 X8.8924 Y45.5668 Z-0.8957
G01 X8.7592 Y45.5432 Z-0.9146
G01 X8.6255 Y45.5226 Z-0.9321
G01 X8.4909 Y45.5048 Z-0.9482
G01 X8.3552 Y45.4896 Z-0.9628
G01 X8.2182 Y45.4768 Z-0.9756
G01 X8.1340 Y45.4700 Z-0.9824
G01 X8.0797 Y45.4660 Z-0.9864
G01 X7.9948 Y45.4604 Z-0.9920
G01 X7.9395 Y45.4572 Z-0.9952
G01 X7.8538 Y45.4529 Z-0.9995
G01 X7.7972 Y45.4505 Z-1.0019
G01 X7.7106 Y45.4474 Z-1.0050
G01 X7.6526 Y45.4458 Z-1.0066
G01 X7.5651 Y45.4439 Z-1.0085
G01 X7.5055 Y45.4431 Z-1.0093
G01 X7.4169 Y45.4425 Z-1.0099
G01 X7.3507
G01 X7.2529 Y45.4431 Z-1.0093
G01 X7.1822 Y45.4440 Z-1.0084
G01 X7.0857 Y45.4459 Z-1.0065
G01 X7.0169 Y45.4477 Z-1.0047
G01 X6.9217 Y45.4508 Z-1.0016
G01 X6.8547 Y45.4535 Z-0.9989
G01 X6.7607 Y45.4579 Z-0.9945
G01 X6.6955 Y45.4624 Z-0.9920
G01 X6.6032 Y45.4731 Z-0.9915
G01 X6.5402 Y45.4820 Z-0.9918
G01 X6.4472 Y45.4815 Z-0.9772
G01 X6.3842 Y45.4840 Z-0.9694
G01 X6.2933 Y45.4916 Z-0.9605
G01 X6.2318 Y45.4976 Z-0.9545
G01 X6.1418 Y45.5071 Z-0.9450
G01 X6.0812 Y45.5140 Z-0.9382
G01 X5.9921 Y45.5248 Z-0.9274
G01 X5.9322 Y45.5327 Z-0.9198
G01 X5.8438 Y45.5451 Z-0.9080
G01 X5.7846 Y45.5541 Z-0.8998
G01 X5.6970 Y45.5682 Z-0.8870
G01 X5.6381 Y45.5784 Z-0.8782
G01 X5.5511 Y45.5942 Z-0.8644
G01 X5.4924 Y45.6057 Z-0.8549
G01 X5.4062 Y45.6233 Z-0.8402
G01 X5.3475 Y45.6360 Z-0.8300
G01 X5.2618 Y45.6555 Z-0.8143
G01 X5.2029 Y45.6696 Z-0.8033
G01 X5.1178 Y45.6909 Z-0.7868
G01 X5.0585 Y45.7066 Z-0.7750
G01 X4.9739 Y45.7299 Z-0.7576
G01 X4.9141 Y45.7471 Z-0.7450
G01 X4.8300 Y45.7724 Z-0.7268
G01 X4.7695 Y45.7914 Z-0.7133
G01 X4.6858 Y45.8188 Z-0.6942
G01 X4.6245 Y45.8396 Z-0.6798
G01 X4.5413 Y45.8693 Z-0.6600
G01 X4.4791 Y45.8922 Z-0.6448
G01 X4.3962 Y45.9241 Z-0.6242
G01 X4.3340 Y45.9491 Z-0.6085
G01 X4.2528 Y45.9828 Z-0.5875
G01 X4.1924 Y46.0089 Z-0.5716
G01 X4.1142 Y46.0442 Z-0.5507
G01 X4.0561 Y46.0713 Z-0.5348
G01 X3.9809 Y46.1081 Z-0.5139
G01 X3.9251 Y46.1364 Z-0.4981
G01 X3.8528 Y46.1746 Z-0.4771
G01 X3.7993 Y46.2043 Z-0.4614
G01 X3.7299 Y46.2443 Z-0.4406
G01 X3.6783 Y46.2752 Z-0.4247
G01 X3.6120 Y46.3169 Z-0.4041
G01 X3.5299 Y46.3706 Z-0.3770
G01 X3.4207 Y46.4497 Z-0.3411
G01 X3.3182 Y46.5339 Z-0.3076
G01 X3.2228 Y46.6235 Z-0.2768
G01 X3.1356 Y46.7187 Z-0.2496
G01 X3.0565 Y46.8193 Z-0.2255
G01 X2.9869 Y46.9254 Z-0.2059
G01 X2.9268 Y47.0365 Z-0.1901
G01 X2.8766 Y47.1521 Z-0.1785
G01 X2.8366 Y47.2718 Z-0.1711
G01 X2.8060 Y47.3947 Z-0.1666
G01 X2.7852 Y47.5207 Z-0.1656
G01 X2.7730 Y47.6490 Z-0.1666
G01 X2.7694 Y47.7794 Z-0.1696
G01 X2.7745 Y47.9027 Z-0.1751
G01 X2.7874 Y48.0164 Z-0.1830
G01 X2.8079 Y48.1270 Z-0.1935
G01 X2.8365 Y48.2342 Z-0.2071
G01 X2.8721 Y48.3376 Z-0.2231
G01 X2.9146 Y48.4370 Z-0.2416
G01 X2.9635 Y48.5322 Z-0.2622
G01 X3.0183 Y48.6232 Z-0.2844
G01 X3.0782 Y48.7101 Z-0.3080
G01 X3.1433 Y48.7927 Z-0.3329
G01 X3.2127 Y48.8716 Z-0.3584
G01 X3.2863 Y48.9468 Z-0.3845
G01 X3.3641 Y49.0184 Z-0.4113
G01 X3.4456 Y49.0869 Z-0.4381
G01 X3.5306 Y49.1527 Z-0.4648
G01 X3.6193 Y49.2159 Z-0.4915
G01 X3.7119 Y49.2765 Z-0.5184
G01 X3.8086 Y49.3346 Z-0.5455
G01 X3.9093 Y49.3905 Z-0.5729
G01 X4.0144 Y49.4440 Z-0.6005
G01 X4.1285 Y49.4979 Z-0.6301
G01 X4.2383 Y49.5457 Z-0.6582
G01 X4.3476 Y49.5892 Z-0.6854
G01 X4.4563 Y49.6287 Z-0.7115
G01 X4.5645 Y49.6645 Z-0.7364
G01 X4.6724 Y49.6967 Z-0.7603
G01 X4.7801 Y49.7256 Z-0.7831
G01 X4.8878 Y49.7513 Z-0.8048
G01 X4.9957 Y49.7739 Z-0.8254
G01 X5.1039 Y49.7937 Z-0.8449
G01 X5.2127 Y49.8108 Z-0.8633
G01 X5.3223 Y49.8251 Z-0.8808
G01 X5.4328 Y49.8375 Z-0.8965
G01 X5.5444 Y49.8482 Z-0.9104
G01 X5.6575 Y49.8571 Z-0.9226
G01 X5.7723 Y49.8642 Z-0.9330
G01 X5.8823 Y49.9349 Z-0.8761
G01 X5.9945 Y50.0576 Z-0.7639
G01 X6.0799 Y50.1488 Z-0.6785
G01 X6.1523 Y50.2244 Z-0.6061
G01 X6.2097 Y50.2835 Z-0.5486
G01 X6.2853 Y50.3602 Z-0.4730
G01 X6.3361 Y50.4112 Z-0.4223
G01 X6.3613 Y50.4353 Z-0.3971
G01 X6.3861 Y50.4582 Z-0.3723
G01 X6.4105 Y50.4798 Z-0.3479
G01 X6.4348 Y50.5004 Z-0.3236
G01 X6.5073 Y50.5655 Z-0.2511
G01 X6.5228 Y50.5804 Z-0.2356
G01 X6.5402 Y50.5964 Z-0.2182
G01 X6.5497 Y50.6048 Z-0.2086
G01 X6.5599 Y50.6135 Z-0.1985
G01 X6.5707 Y50.6226 Z-0.1877
G01 X6.5822 Y50.6320 Z-0.1761
G01 X6.5946 Y50.6419 Z-0.1638
G01 X6.6423 Y50.6834 Z-0.1160
G01 X6.5801 Y50.6303 Z-0.1783
G01 X6.4693 Y50.5296 Z-0.2891
G01 X6.2538 Y50.3283 Z-0.5045
G01 X6.0590 Y50.1269 Z-0.6994
G01 X5.8739 Y49.9256 Z-0.8845
G01 X5.8620 Y49.8249 Z-0.8964
G01 X5.9598 Y49.7242 Z-0.7986
G01 X6.0575 Y49.6236 Z-0.7008
G01 X6.1553 Y49.5229 Z-0.6031
G01 X6.2531 Y49.4222 Z-0.5053
G01 X6.3508 Y49.3215 Z-0.4075
G01 X6.4354 Y49.2209 Z-0.3229
G01 X6.4962 Y49.1202 Z-0.2622
G01 X6.5331 Y49.0195 Z-0.2253
G01 X6.5461 Y48.9189 Z-0.2123
G01 Y48.8182
G01 Y48.7175
G01 Y48.6168
G01 Y48.5162
G01 Y48.4155
G01 Y48.3148
G01 Y48.2142
G01 Y48.1135
G01 Y48.0128
G01 Y47.9121
G01 Y47.8115
G01 Y47.7108
G01 Y47.6101
G01 Y47.5095
G01 Y47.4088
G01 Y47.3081
G01 Y47.2074
G01 Y47.1068
G01 Y47.0061
G01 Y46.9054
G01 Y46.8048
G01 Y46.7041
G01 Y46.6034
G01 Y46.5027
G01 Y46.4394 Z-0.2126
G01 Y46.4131 Z-0.2158
G01 X6.5462 Y46.3835 Z-0.2231
G01 Y46.3443 Z-0.2381
G01 Y46.2837 Z-0.2711
G01 X6.5463 Y46.1196 Z-0.3946
G00 Z5.0000
G00 X5.8239 Y49.8640
G01 Z-0.9345
G01 X5.7261 Y49.8616 Z-0.9293
G01 X5.6282 Y49.8549 Z-0.9197
G01 X5.5302 Y49.8469 Z-0.9088
G01 X5.4322 Y49.8374 Z-0.8965
G01 X5.3342 Y49.8264 Z-0.8827
G01 X5.2361 Y49.8139 Z-0.8674
G01 X5.1198 Y49.7964 Z-0.8477
G01 X5.0070 Y49.7762 Z-0.8275
G01 X4.8963 Y49.7532 Z-0.8064
G01 X4.7877 Y49.7275 Z-0.7846
G01 X4.6812 Y49.6992 Z-0.7622
G01 X4.5770 Y49.6684 Z-0.7393
G01 X4.4751 Y49.6352 Z-0.7159
G01 X4.3756 Y49.5998 Z-0.6923
G01 X4.2784 Y49.5622 Z-0.6685
G01 X4.1837 Y49.5226 Z-0.6447
G01 X4.0915 Y49.4809 Z-0.6207
G01 X4.0018 Y49.4379 Z-0.5973
G01 X3.9145 Y49.3932 Z-0.5743
G01 X3.8298 Y49.3468 Z-0.5514
G01 X3.7478 Y49.2987 Z-0.5288
G01 X3.6685 Y49.2489 Z-0.5063
G01 X3.5920 Y49.1970 Z-0.4836
G01 X3.5184 Y49.1436 Z-0.4611
G01 X3.4476 Y49.0885 Z-0.4387
G01 X3.3797 Y49.0320 Z-0.4166
G01 X3.3153 Y48.9743 Z-0.3949
G01 X3.2548 Y48.9157 Z-0.3738
G01 X3.1983 Y48.8559 Z-0.3532
G01 X3.1454 Y48.7952 Z-0.3336
G01 X3.0962 Y48.7339 Z-0.3151
G01 X3.0508 Y48.6720 Z-0.2977
G01 X3.0093 Y48.6091 Z-0.2809
G01 X2.9713 Y48.5460 Z-0.2654
G01 X2.9368 Y48.4826 Z-0.2514
G01 X2.9061 Y48.4186 Z-0.2381
G01 X2.8787 Y48.3544 Z-0.2262
G01 X2.8544 Y48.2901 Z-0.2157
G01 X2.8338 Y48.2253 Z-0.2059
G01 X2.8159 Y48.1603 Z-0.1976
G01 X2.8012 Y48.0949 Z-0.1904
G01 X2.7894 Y48.0292 Z-0.1841
G01 X2.7801 Y47.9629 Z-0.1792
G01 X2.7740 Y47.8960 Z-0.1748
G01 X2.7702 Y47.8284 Z-0.1717
G01 X2.7694 Y47.7600 Z-0.1691
G01 X2.7713 Y47.6823 Z-0.1674
G01 X2.7768 Y47.5967 Z-0.1663
G01 X2.7862 Y47.5134 Z-0.1657
G01 X2.7988 Y47.4324 Z-0.1664
G01 X2.8151 Y47.3534 Z-0.1681
G01 X2.8353 Y47.2763 Z-0.1708
G01 X2.8587 Y47.2009 Z-0.1754
G01 X2.8865 Y47.1273 Z-0.1809
G01 X2.9180 Y47.0551 Z-0.1881
G01 X2.9533 Y46.9840 Z-0.1974
G01 X2.9935 Y46.9146 Z-0.2077
G01 X3.0377 Y46.8462 Z-0.2204
G01 X3.0865 Y46.7789 Z-0.2350
G01 X3.1403 Y46.7132 Z-0.2510
G01 X3.1987 Y46.6484 Z-0.2695
G01 X3.2620 Y46.5849 Z-0.2899
G01 X3.3305 Y46.5232 Z-0.3117
G01 X3.4039 Y46.4628 Z-0.3357
G01 X3.4823 Y46.4037 Z-0.3618
G01 X3.5659 Y46.3467 Z-0.3892
G01 X3.6395 Y46.2996 Z-0.4126
G01 X3.7258 Y46.2466 Z-0.4394
G01 X3.8163 Y46.1946 Z-0.4666
G01 X3.9108 Y46.1440 Z-0.4939
G01 X4.0093 Y46.0942 Z-0.5218
G01 X4.1117 Y46.0453 Z-0.5501
G01 X4.2181 Y45.9975 Z-0.5787
G01 X4.3284 Y45.9513 Z-0.6071
G01 X4.4427 Y45.9062 Z-0.6358
G01 X4.5607 Y45.8623 Z-0.6647
G01 X4.6827 Y45.8199 Z-0.6935
G01 X4.8084 Y45.7790 Z-0.7222
G01 X4.9380 Y45.7400 Z-0.7503
G01 X5.0714 Y45.7031 Z-0.7777
G01 X5.2086 Y45.6682 Z-0.8045
G01 X5.3495 Y45.6356 Z-0.8303
G01 X5.4941 Y45.6053 Z-0.8552
G01 X5.6423 Y45.5776 Z-0.8788
G01 X5.7941 Y45.5526 Z-0.9012
G01 X5.9496 Y45.5303 Z-0.9222
G01 X6.0791 Y45.5142 Z-0.9379
G01 X6.1810 Y45.5029 Z-0.9492
G01 X6.2829 Y45.4925 Z-0.9596
G01 X6.3761 Y45.4846 Z-0.9685
G01 X6.4358 Y45.4817 Z-0.9758
G01 X6.4963 Y45.4812 Z-0.9844
G01 X6.5468 Y45.4916 Z-0.9838
G01 Y45.5299 Z-0.9465
G01 X6.5467 Y45.5653 Z-0.9120
G01 Y45.5983 Z-0.8799
G01 Y45.6291 Z-0.8501
G01 Y45.6578 Z-0.8223
G01 X6.5466 Y45.7100 Z-0.7720
G01 Y45.7562 Z-0.7277
G01 Y45.7974 Z-0.6884
G01 X6.5465 Y45.8344 Z-0.6533
G01 Y45.8678 Z-0.6218
G01 Y45.8981 Z-0.5934
G01 Y45.9258 Z-0.5676
G01 Y45.9631 Z-0.5332
G01 X6.5464 Y45.9962 Z-0.5030
G01 Y46.0258 Z-0.4764
G01 Y46.0524 Z-0.4527
G01 Y46.0840 Z-0.4250
G00 Z5.0000
G00 X37.7687 Y32.2988
G01 Z-0.5637
G01 X37.6743 Y32.3995 Z-0.4629
G01 X37.5696 Y32.5100 Z-0.3524
G01 X37.4731 Y32.6107 Z-0.2517
G01 X37.3766 Y32.7114 Z-0.1510
G01 X37.2801 Y32.8121 Z-0.0503
G01 X37.2319 Y32.8625 Z0.0000
G01 X37.2808 Y32.8114 Z-0.0511
G01 X37.3787 Y32.7092 Z-0.1533
G01 X37.4766 Y32.6071 Z-0.2554
G01 X37.5745 Y32.5049 Z-0.3576
G01 X37.7704 Y32.2970 Z-0.5655
G01 X37.8683 Y32.2564 Z-0.6061
G01 X37.9662 Y32.3497 Z-0.5128
G01 X38.0641 Y32.4429 Z-0.4196
G01 X38.1620 Y32.5361 Z-0.3263
G01 X38.2599 Y32.6294 Z-0.2331
G01 X38.3578 Y32.7226 Z-0.1399
G01 X38.4557 Y32.8159 Z-0.0466
G01 X38.5047 Y32.8625 Z0.0000
G00 Z5.0000
G00 X38.4544 Y32.8146
G01 Z-0.0479
G01 X38.3539 Y32.7189 Z-0.1436
G01 X38.2533 Y32.6231 Z-0.2393
G01 X38.1528 Y32.5274 Z-0.3351
G01 X38.0523 Y32.4316 Z-0.4308
G01 X37.8512 Y32.2402 Z-0.6223
G01 X37.8317 Y32.1405 Z-0.6369
G01 X37.8259 Y32.0401 Z-0.6379
G01 X37.8189 Y31.9398 Z-0.6399
G01 X37.8120 Y31.8395 Z-0.6419
G01 X37.8051 Y31.7391 Z-0.6439
G01 X37.7978 Y31.6388 Z-0.6463
G01 X37.7896 Y31.5386 Z-0.6496
G01 X37.7815 Y31.4383 Z-0.6528
G01 X37.7733 Y31.3381 Z-0.6561
G01 X37.7644 Y31.2379 Z-0.6600
G01 X37.7550 Y31.1377 Z-0.6646
G01 X37.7455 Y31.0375 Z-0.6692
G01 X37.7360 Y30.9373 Z-0.6737
G01 X37.7254 Y30.8371 Z-0.6794
G01 X37.7146 Y30.7370 Z-0.6854
G01 X37.7037 Y30.6369 Z-0.6913
G01 X37.6926 Y30.5368 Z-0.6975
G01 X37.6804 Y30.4367 Z-0.7049
G01 X37.6681 Y30.3367 Z-0.7122
G01 X37.6559 Y30.2366 Z-0.7196
G01 X37.6427 Y30.1366 Z-0.7279
G01 X37.6289 Y30.0366 Z-0.7367
G01 X37.6152 Y29.9366 Z-0.7455
G01 X37.6013 Y29.8367 Z-0.7545
G01 X37.5860 Y29.7368 Z-0.7649
G01 X37.5707 Y29.6368 Z-0.7753
G01 X37.5554 Y29.5369 Z-0.7857
G01 X37.5391 Y29.4371 Z-0.7971
G01 X37.5222 Y29.3373 Z-0.8091
G01 X37.5053 Y29.2374 Z-0.8212
G01 X37.4881 Y29.1376 Z-0.8335
G01 X37.4695 Y29.0379 Z-0.8472
G01 X37.4509 Y28.9381 Z-0.8609
G01 X37.4323 Y28.8384 Z-0.8746
G01 X37.4123 Y28.7387 Z-0.8897
G01 X37.3920 Y28.6390 Z-0.9052
G01 X37.3716 Y28.5394 Z-0.9206
G01 X37.3505 Y28.4398 Z-0.9368
G01 X37.3283 Y28.3402 Z-0.9542
G01 X37.3061 Y28.2406 Z-0.9715
G01 X37.2837 Y28.1411 Z-0.9889
G01 X37.2597 Y28.0416 Z-1.0081
G01 X37.2356 Y27.9421 Z-1.0273
G01 X37.2115 Y27.8426 Z-1.0465
G01 X37.1860 Y27.7432 Z-1.0672
G01 X37.1599 Y27.6438 Z-1.0884
G01 X37.1338 Y27.5445 Z-1.1096
G01 X37.1069 Y27.4451 Z-1.1316
G01 X37.0788 Y27.3458 Z-1.1548
G01 X37.0506 Y27.2466 Z-1.1781
G01 X37.0223 Y27.1473 Z-1.2016
G01 X36.9921 Y27.0481 Z-1.2269
G01 X36.9618 Y26.9489 Z-1.2523
G01 X36.9315 Y26.8498 Z-1.2777
G01 X36.8997 Y26.7507 Z-1.3046
G01 X36.8672 Y26.6516 Z-1.3322
G01 X36.8347 Y26.5525 Z-1.3598
G01 X36.8015 Y26.4535 Z-1.3882
G01 X36.7667 Y26.3545 Z-1.4181
G01 X36.7319 Y26.2556 Z-1.4480
G01 X36.6971 Y26.1566 Z-1.4780
G01 X36.6602 Y26.0578 Z-1.5100
G01 X36.6231 Y25.9589 Z-1.5422
G01 X36.5860 Y25.8601 Z-1.5745
G01 X36.5479 Y25.7613 Z-1.6077
G01 X36.5093 Y25.6625 Z-1.6415
G01 X36.4706 Y25.5638 Z-1.6752
G01 X36.4312 Y25.4650 Z-1.7097
G01 X36.3942 Y25.3662 Z-1.7419
G01 X36.4947 Y25.2606 Z-1.6363
G01 X36.5953 Y25.1551 Z-1.5308
G01 X36.6958 Y25.0495 Z-1.4252
G01 X36.7963 Y24.9439 Z-1.3196
G01 X36.8969 Y24.8383 Z-1.2141
G01 X36.9974 Y24.7328 Z-1.1085
G01 X37.0980 Y24.6272 Z-1.0029
G01 X37.1985 Y24.5216 Z-0.8973
G01 X37.2990 Y24.4161 Z-0.7918
G01 X37.3996 Y24.3105 Z-0.6862
G01 X37.5001 Y24.2049 Z-0.5806
G01 X37.6006 Y24.0994 Z-0.4751
G01 X37.7012 Y23.9938 Z-0.3695
G01 X37.8017 Y23.8882 Z-0.2639
G01 X37.9022 Y23.7826 Z-0.1584
G01 X38.0028 Y23.6771 Z-0.0528
G01 X38.0530 Y23.6243 Z0.0000
G01 X38.0029 Y23.6769 Z-0.0526
G01 X37.9027 Y23.7821 Z-0.1578
G01 X37.8025 Y23.8874 Z-0.2631
G01 X37.6021 Y24.0978 Z-0.4735
G01 X37.4017 Y24.3082 Z-0.6839
G01 X37.2013 Y24.5187 Z-0.8944
G01 X37.0009 Y24.7291 Z-1.1048
G01 X36.8005 Y24.9396 Z-1.3153
G01 X36.6001 Y25.1500 Z-1.5257
G01 X36.3997 Y25.3605 Z-1.7362
G01 X36.2995 Y25.3297 Z-1.7054
G01 X36.1993 Y25.2861 Z-1.6618
G01 X36.0990 Y25.2441 Z-1.6198
G01 X35.9988 Y25.2036 Z-1.5793
G01 X35.8986 Y25.1632 Z-1.5389
G01 X35.7984 Y25.1230 Z-1.4987
G01 X35.6982 Y25.0852 Z-1.4609
G01 X35.5980 Y25.0479 Z-1.4236
G01 X35.4978 Y25.0106 Z-1.3863
G01 X35.3976 Y24.9744 Z-1.3501
G01 X35.2974 Y24.9402 Z-1.3159
G01 X35.1972 Y24.9059 Z-1.2816
G01 X35.0970 Y24.8718 Z-1.2475
G01 X34.9968 Y24.8402 Z-1.2159
G01 X34.8966 Y24.8088 Z-1.1845
G01 X34.7964 Y24.7775 Z-1.1532
G01 X34.6962 Y24.7478 Z-1.1235
G01 X34.5960 Y24.7193 Z-1.0951
G01 X34.4958 Y24.6909 Z-1.0666
G01 X34.3956 Y24.6630 Z-1.0387
G01 X34.2954 Y24.6373 Z-1.0130
G01 X34.1952 Y24.6116 Z-0.9873
G01 X34.0950 Y24.5860 Z-0.9617
G01 X33.9948 Y24.5626 Z-0.9383
G01 X33.8946 Y24.5395 Z-0.9153
G01 X33.7943 Y24.5165 Z-0.8922
G01 X33.6941 Y24.4949 Z-0.8706
G01 X33.5939 Y24.4744 Z-0.8502
G01 X33.4937 Y24.4540 Z-0.8297
G01 X33.3935 Y24.4341 Z-0.8098
G01 X33.2933 Y24.4161 Z-0.7918
G01 X33.1931 Y24.3981 Z-0.7738
G01 X33.0929 Y24.3801 Z-0.7558
G01 X32.9927 Y24.3641 Z-0.7399
G01 X32.8925 Y24.3485 Z-0.7242
G01 X32.7923 Y24.3328 Z-0.7085
G01 X32.6921 Y24.3184 Z-0.6941
G01 X32.5919 Y24.3049 Z-0.6806
G01 X32.4917 Y24.2914 Z-0.6671
G01 X32.3915 Y24.2784 Z-0.6541
G01 X32.2913 Y24.2670 Z-0.6427
G01 X32.1911 Y24.2557 Z-0.6314
G01 X32.0909 Y24.2443 Z-0.6201
G01 X31.9907 Y24.2346 Z-0.6103
G01 X31.8905 Y24.2252 Z-0.6009
G01 X31.7903 Y24.2159 Z-0.5916
G01 X31.6901 Y24.2072 Z-0.5829
G01 X31.5899 Y24.1997 Z-0.5754
G01 X31.4896 Y24.1923 Z-0.5680
G01 X31.3894 Y24.1849 Z-0.5606
G01 X31.2892 Y24.1789 Z-0.5546
G01 X31.1890 Y24.1733 Z-0.5490
G01 X31.0888 Y24.1677 Z-0.5434
G01 X30.9886 Y24.1624 Z-0.5381
G01 X30.8884 Y24.1585 Z-0.5342
G01 X30.7882 Y24.1546 Z-0.5303
G01 X30.6880 Y24.1507 Z-0.5264
G01 X30.5878 Y24.1476 Z-0.5233
G01 X30.4876 Y24.1454 Z-0.5211
G01 X30.3874 Y24.1431 Z-0.5188
G01 X30.2872 Y24.1408 Z-0.5165
G01 X30.1870 Y24.1397 Z-0.5155
G01 X30.0868 Y24.1390 Z-0.5147
G01 X29.9866 Y24.1383 Z-0.5140
G01 X29.8864 Y24.1375 Z-0.5132
G01 X29.7862
G01 X29.6860
G01 X29.5858
G01 X29.4856
G01 X29.3854
G01 X29.2852
G01 X29.1849
G01 X29.0847
G01 X28.9845
G01 X28.8843
G01 X28.7841
G01 X28.6839
G01 X28.5837
G01 X28.4835
G01 X28.3833
G01 X28.2831
G01 X28.1829
G01 X28.0827
G01 X27.9825
G01 X27.8823
G01 X27.7821
G01 X27.6819
G01 X27.5817
G01 X27.4815
G01 X27.3813
G01 X27.2811
G01 X27.1809
G01 X27.0807
G01 X26.9805
G01 X26.8802
G01 X26.7800
G01 X26.6798
G01 X26.5796
G01 X26.4794
G01 X26.3792
G01 X26.2790
G01 X26.1788
G01 X26.0786
G01 X25.9784
G01 X25.8782
G01 X25.7780
G01 X25.6778
G01 X25.5776
G01 X25.4774
G01 X25.3772
G01 X25.2770
G01 X25.1768
G01 X25.0766
G01 X24.9764
G01 X24.8762
G01 X24.7760
G01 X24.6758
G01 X24.5755 Y24.1376 Z-0.5133
G01 X24.4753 Y24.1435 Z-0.5192
G01 X24.3751 Y24.1592 Z-0.5349
G01 X24.2749 Y24.1846 Z-0.5603
G01 X24.1747 Y24.2199 Z-0.5956
G01 X24.0745 Y24.2649 Z-0.6406
G01 X23.9743 Y24.3197 Z-0.6954
G01 X23.8741 Y24.3843 Z-0.7600
G01 X23.7739 Y24.4587 Z-0.8344
G01 X23.5735 Y24.6367 Z-1.0124
G01 X23.3731 Y24.8371 Z-1.2128
G01 X23.1727 Y25.0375 Z-1.4132
G01 X22.9723 Y25.2379 Z-1.6136
G01 X22.7719 Y25.4383 Z-1.8140
G01 X22.5715 Y25.6387 Z-2.0144
G01 X22.3711 Y25.8391 Z-2.2148
G01 X22.1706 Y26.0395 Z-2.4152
G01 X21.9702 Y26.2231 Z-2.5988
G01 X21.8700 Y26.1229 Z-2.4986
G01 X21.7698 Y26.0227 Z-2.3984
G01 X21.6696 Y25.9225 Z-2.2982
G01 X21.5694 Y25.8223 Z-2.1980
G01 X21.4692 Y25.7221 Z-2.0978
G01 X21.3690 Y25.6219 Z-1.9976
G01 X21.2688 Y25.5217 Z-1.8974
G01 X21.1686 Y25.4215 Z-1.7972
G01 X21.0684 Y25.3213 Z-1.6970
G01 X20.9682 Y25.2211 Z-1.5968
G01 X20.8680 Y25.1208 Z-1.4966
G01 X20.7678 Y25.0206 Z-1.3963
G01 X20.6676 Y24.9204 Z-1.2961
G01 X20.5674 Y24.8202 Z-1.1959
G01 X20.4672 Y24.7200 Z-1.0957
G01 X20.3670 Y24.6203 Z-0.9960
G01 X20.2668 Y24.5280 Z-0.9037
G01 X20.1666 Y24.4455 Z-0.8212
G01 X20.0664 Y24.3728 Z-0.7485
G01 X19.9661 Y24.3098 Z-0.6855
G01 X19.8659 Y24.2566 Z-0.6324
G01 X19.7657 Y24.2133 Z-0.5890
G01 X19.6655 Y24.1797 Z-0.5554
G01 X19.5653 Y24.1558 Z-0.5315
G01 X19.4651 Y24.1418 Z-0.5175
G01 X19.3649 Y24.1375 Z-0.5132
G01 X19.2647
G01 X19.1645
G01 X19.0643
G01 X18.9641
G01 X18.8639
G01 X18.7637
G01 X18.6635
G01 X18.5633
G01 X18.4631
G01 X18.3629
G01 X18.2627
G01 X18.1625
G01 X18.0623
G01 X17.9621
G01 X17.8619
G01 X17.7617
G01 X17.6614
G01 X17.5612
G01 X17.4610
G01 X17.3608
G01 X17.2606
G01 X17.1604
G01 X17.0602
G01 X16.9600
G01 X16.8598
G01 X16.7596
G01 X16.6594
G01 X16.5592
G01 X16.4590
G01 X16.3588
G01 X16.2586
G01 X16.1584
G01 X16.0582
G01 X15.9580
G01 X15.8578
G01 X15.7576 Y24.0752 Z-0.4509
G01 X15.6574 Y23.9750 Z-0.3507
G01 X15.5572 Y23.8748 Z-0.2505
G01 X15.4570 Y23.7746 Z-0.1503
G01 X15.3567 Y23.6744 Z-0.0501
G01 X15.3066 Y23.6243 Z0.0000
G01 X15.3580 Y23.6756 Z-0.0513
G01 X15.4606 Y23.7783 Z-0.1540
G01 X15.5633 Y23.8809 Z-0.2566
G01 X15.7686 Y24.0862 Z-0.4619
G01 Y24.1888
G01 X15.6659 Y24.2915 Z-0.3593
G01 X15.5633 Y24.3941 Z-0.2566
G01 X15.4606 Y24.4968 Z-0.1540
G01 X15.3580 Y24.5994 Z-0.0513
G01 X15.3066 Y24.6508 Z0.0000
G01 X15.3562 Y24.6012 Z-0.0496
G01 X15.4554 Y24.5020 Z-0.1487
G01 X15.5545 Y24.4029 Z-0.2479
G01 X15.7528 Y24.2046 Z-0.4461
G01 X15.8519 Y24.1375 Z-0.5132
G01 X15.9511
G01 X16.0502
G01 X16.1493
G01 X16.2485
G01 X16.3476
G01 X16.4468
G01 X16.5459
G01 X16.6451
G01 X16.7442
G01 X16.8433
G01 X16.9425
G01 X17.0416
G01 X17.1408
G01 X17.2399
G01 X17.3390
G01 X17.4382
G01 X17.5373
G01 X17.6365
G01 X17.7356
G01 X17.8347
G01 X17.9339
G01 X18.0330
G01 X18.1322
G01 X18.2313
G01 X18.3305
G01 X18.4296
G01 X18.5287
G01 X18.6279
G01 X18.7270
G01 X18.8262
G01 X18.9253
G01 X19.0244
G01 X19.1236
G01 X19.2227
G01 X19.3219
G01 X19.4162 Y24.1385 Z-0.5142
G01 X19.4703 Y24.1423 Z-0.5180
G01 X19.5294 Y24.1497 Z-0.5254
G01 X19.5896 Y24.1607 Z-0.5364
G01 X19.6561 Y24.1770 Z-0.5527
G01 X19.7249 Y24.1984 Z-0.5741
G01 X19.8019 Y24.2278 Z-0.6035
G01 X19.8832 Y24.2651 Z-0.6408
G01 X19.9700 Y24.3121 Z-0.6878
G01 X20.0638 Y24.3710 Z-0.7467
G01 X20.1662 Y24.4452 Z-0.8209
G01 X20.2796 Y24.5393 Z-0.9150
G01 X20.3979 Y24.6508 Z-1.0265
G01 X20.5477 Y24.8006 Z-1.1763
G01 X20.7475 Y25.0004 Z-1.3761
G01 X20.9473 Y25.2002 Z-1.5759
G01 X21.1471 Y25.4000 Z-1.7757
G01 X21.3469 Y25.5998 Z-1.9755
G01 X21.5467 Y25.7996 Z-2.1753
G01 X21.7465 Y25.9994 Z-2.3751
G01 X21.9463 Y26.1992 Z-2.5749
G01 X21.9786 Y26.2991 Z-2.6072
G01 Y26.3990
G01 Y26.4989
G01 Y26.5988
G01 Y26.6987
G01 Y26.7986
G01 Y26.8985
G01 Y26.9984
G01 Y27.0983
G01 Y27.1982
G01 Y27.2981
G01 Y27.3980
G01 Y27.4979
G01 Y27.5978
G01 Y27.6977
G01 Y27.7976
G01 Y27.8974
G01 Y27.9973
G01 Y28.0972
G01 Y28.1971
G01 Y28.2970
G01 Y28.3969
G01 Y28.4968
G01 Y28.5967
G01 Y28.6966
G01 Y28.7965
G01 Y28.8964
G01 Y28.9963
G01 Y29.0962
G01 Y29.1961
G01 Y29.2960
G01 Y29.3959
G01 Y29.4958
G01 Y29.5957
G01 Y29.6956
G01 Y29.7955
G01 Y29.8954
G01 Y29.9953
G01 Y30.0952
G01 Y30.1951
G01 Y30.2950
G01 Y30.3949
G01 Y30.4948
G01 Y30.5947
G01 Y30.6946
G01 Y30.7945
G01 Y30.8944
G01 Y30.9943
G01 Y31.0942
G01 Y31.1941
G01 Y31.2940
G01 Y31.3939
G01 Y31.4938
G01 Y31.5937
G01 Y31.6936
G01 Y31.7935
G01 Y31.8934
G01 Y31.9933
G01 Y32.0932
G01 Y32.1931
G01 Y32.2930
G01 Y32.3929
G01 Y32.4928
G01 Y32.5927
G01 Y32.6926
G01 Y32.7925
G01 Y32.8924
G01 Y32.9923
G01 Y33.0922
G01 Y33.1921
G01 Y33.2920
G01 Y33.3918
G01 Y33.4917
G01 Y33.5916
G01 Y33.6915
G01 Y33.7914
G01 Y33.8913
G01 Y33.9912
G01 Y34.0911
G01 Y34.1910
G01 Y34.2909
G01 Y34.3908
G01 Y34.4907
G01 Y34.5906
G01 Y34.6905
G01 Y34.7904
G01 Y34.8903
G01 Y34.9902
G01 Y35.0901
G01 Y35.1900
G01 Y35.2899
G01 Y35.3898
G01 Y35.4897
G01 Y35.5896
G01 Y35.6895
G01 Y35.7894
G01 Y35.8893
G01 Y35.9892
G01 Y36.0891
G01 Y36.1890
G01 Y36.2889
G01 Y36.3888
G01 Y36.4887
G01 Y36.5886
G01 Y36.6885
G01 Y36.7884
G01 Y36.8883
G01 Y36.9882
G01 Y37.0881
G01 Y37.1880
G01 Y37.2879
G01 Y37.3878
G01 Y37.4877
G01 Y37.5876
G01 Y37.6875
G01 Y37.7874
G01 Y37.8873
G01 Y37.9872
G01 Y38.0871
G01 Y38.1870
G01 Y38.2869
G01 Y38.3868
G01 Y38.4867
G01 Y38.5866
G01 Y38.6865
G01 Y38.7864
G01 Y38.8862
G01 Y38.9861
G01 Y39.0860
G01 Y39.1859
G01 Y39.2858
G01 Y39.3857
G01 Y39.4856
G01 Y39.5855
G01 Y39.6854
G01 Y39.7853
G01 Y39.8852
G01 Y39.9851
G01 Y40.0850
G01 Y40.1849
G01 Y40.2848
G01 Y40.3847
G01 Y40.4846
G01 Y40.5845
G01 Y40.6844
G01 Y40.7843
G01 Y40.8842
G01 Y40.9841
G01 Y41.0840
G01 Y41.1839
G01 Y41.2838
G01 Y41.3837
G01 Y41.4836
G01 Y41.5835
G01 Y41.6834
G01 Y41.7833
G01 Y41.8832
G01 Y41.9831
G01 Y42.0830
G01 Y42.1829
G01 Y42.2828
G01 Y42.3827
G01 Y42.4826
G01 Y42.5825
G01 Y42.6824
G01 Y42.7823
G01 Y42.8822
G01 Y42.9821
G01 Y43.0820
G01 Y43.1819
G01 Y43.2818
G01 Y43.3817
G01 Y43.4816
G01 Y43.5815
G01 Y43.6814
G01 Y43.7813
G01 Y43.8812
G01 Y43.9811
G01 Y44.0810
G01 Y44.1809
G01 Y44.2808
G01 Y44.3806
G01 Y44.4805
G01 Y44.5804
G01 Y44.6803
G01 Y44.7802
G01 Y44.8801
G01 Y44.9800
G01 Y45.0799
G01 Y45.1798
G01 Y45.2797
G01 Y45.3796
G01 Y45.4795
G01 Y45.5794
G01 Y45.6793
G01 Y45.7792
G01 Y45.8791
G01 Y45.9790
G01 Y46.0789
G01 Y46.1788
G01 Y46.2787
G01 Y46.3786
G01 Y46.4785
G01 Y46.5784
G01 Y46.6783
G01 Y46.7782
G01 Y46.8781
G01 Y46.9780
G01 Y47.0779
G01 Y47.1778
G01 Y47.2777
G01 Y47.3776
G01 Y47.4775
G01 Y47.5774
G01 Y47.6773
G01 Y47.7772
G01 Y47.8771
G01 Y47.9770
G01 Y48.0769
G01 Y48.1768
G01 Y48.2767
G01 Y48.3766
G01 X21.9463 Y48.4765 Z-2.5749
G01 X21.8464 Y48.5764 Z-2.4750
G01 X21.7465 Y48.6763 Z-2.3751
G01 X21.6466 Y48.7762 Z-2.2752
G01 X21.5467 Y48.8761 Z-2.1753
G01 X21.4468 Y48.9760 Z-2.0754
G01 X21.3469 Y49.0759 Z-1.9755
G01 X21.2470 Y49.1758 Z-1.8756
G01 X21.1471 Y49.2757 Z-1.7757
G01 X21.0472 Y49.3756 Z-1.6758
G01 X20.9473 Y49.4755 Z-1.5759
G01 X20.8474 Y49.5754 Z-1.4760
G01 X20.7475 Y49.6753 Z-1.3761
G01 X20.6476 Y49.7752 Z-1.2762
G01 X20.5477 Y49.8750 Z-1.1763
G01 X20.4478 Y49.9749 Z-1.0764
G01 X20.3801 Y50.0425 Z-1.0089
G01 X20.3541 Y50.0678 Z-0.9836
G01 X20.3286 Y50.0918 Z-0.9595
G01 X20.3038 Y50.1147 Z-0.9367
G01 X20.2796 Y50.1364 Z-0.9150
G01 X20.2559 Y50.1571 Z-0.8943
G01 X20.2327 Y50.1768 Z-0.8746
G01 X20.2026 Y50.2016 Z-0.8498
G01 X20.1734 Y50.2248 Z-0.8265
G01 X20.1449 Y50.2467 Z-0.8047
G01 X20.1172 Y50.2672 Z-0.7841
G01 X20.0902 Y50.2865 Z-0.7649
G01 X20.0638 Y50.3046 Z-0.7467
G01 X20.0317 Y50.3258 Z-0.7256
G01 X20.0005 Y50.3454 Z-0.7060
G01 X19.9700 Y50.3636 Z-0.6878
G01 X19.9404 Y50.3804 Z-0.6709
G01 X19.9058 Y50.3990 Z-0.6523
G01 X19.8721 Y50.4160 Z-0.6353
G01 X19.8392 Y50.4315 Z-0.6198
G01 X19.8019 Y50.4479 Z-0.6035
G01 X19.7655 Y50.4625 Z-0.5889
G01 X19.7299 Y50.4755 Z-0.5758
G01 X19.6902 Y50.4886 Z-0.5627
G01 X19.6513 Y50.5000 Z-0.5514
G01 X19.6084 Y50.5108 Z-0.5406
G01 X19.5663 Y50.5196 Z-0.5317
G01 X19.5203 Y50.5273 Z-0.5240
G01 X19.4748 Y50.5329 Z-0.5184
G01 X19.4252 Y50.5367 Z-0.5146
G01 X19.3759 Y50.5381 Z-0.5132
G01 X19.3219
G01 X19.2227
G01 X19.1236
G01 X19.0244
G01 X18.9253
G01 X18.8262
G01 X18.7270
G01 X18.6279
G01 X18.5287
G01 X18.4296
G01 X18.3305
G01 X18.2313
G01 X18.1322
G01 X18.0330
G01 X17.9339
G01 X17.8347
G01 X17.7356
G01 X17.6365
G01 X17.5373
G01 X17.4382
G01 X17.3390
G01 X17.2399
G01 X17.1408
G01 X17.0416
G01 X16.9425
G01 X16.8433
G01 X16.7442
G01 X16.6451
G01 X16.5459
G01 X16.4468
G01 X16.3476
G01 X16.2485
G01 X16.1493
G01 X16.0502
G01 X15.9511
G01 X15.8519
G01 X15.7528 Y50.4710 Z-0.4461
G01 X15.6536 Y50.3719 Z-0.3470
G01 X15.5545 Y50.2727 Z-0.2479
G01 X15.4554 Y50.1736 Z-0.1487
G01 X15.3562 Y50.0745 Z-0.0496
G01 X15.3066 Y50.0249 Z0.0000
G01 X15.3580 Y50.0762 Z-0.0513
G01 X15.4606 Y50.1789 Z-0.1540
G01 X15.5633 Y50.2815 Z-0.2566
G01 X15.7686 Y50.4868 Z-0.4619
G01 Y50.5895
G01 X15.6659 Y50.6921 Z-0.3593
G01 X15.5633 Y50.7947 Z-0.2566
G01 X15.4606 Y50.8974 Z-0.1540
G01 X15.3580 Y51.0000 Z-0.0513
G01 X15.3066 Y51.0514 Z0.0000
G01 X15.3568 Y51.0012 Z-0.0502
G01 X15.4572 Y50.9008 Z-0.1505
G01 X15.5576 Y50.8004 Z-0.2509
G01 X15.7583 Y50.5997 Z-0.4516
G01 X15.8587 Y50.5381 Z-0.5132
G01 X15.9590
G01 X16.0594
G01 X16.1597
G01 X16.2601
G01 X16.3605
G01 X16.4608
G01 X16.5612
G01 X16.6616
G01 X16.7619
G01 X16.8623
G01 X16.9627
G01 X17.0630
G01 X17.1634
G01 X17.2638
G01 X17.3641
G01 X17.4645
G01 X17.5649
G01 X17.6652
G01 X17.7656
G01 X17.8660
G01 X17.9663
G01 X18.0667
G01 X18.1671
G01 X18.2674
G01 X18.3678
G01 X18.4681
G01 X18.5685
G01 X18.6689
G01 X18.7692
G01 X18.8696
G01 X18.9700
G01 X19.0703
G01 X19.1707
G01 X19.2711
G01 X19.3714
G01 X19.4718 Y50.5332 Z-0.5181
G01 X19.5722 Y50.5185 Z-0.5329
G01 X19.6725 Y50.4940 Z-0.5574
G01 X19.7729 Y50.4596 Z-0.5917
G01 X19.8733 Y50.4155 Z-0.6359
G01 X19.9736 Y50.3615 Z-0.6899
G01 X20.0740 Y50.2977 Z-0.7537
G01 X20.1744 Y50.2241 Z-0.8273
G01 X20.3751 Y50.0475 Z-1.0039
G01 X20.5758 Y49.8470 Z-1.2044
G01 X20.7765 Y49.6462 Z-1.4051
G01 X20.9773 Y49.4455 Z-1.6058
G01 X21.1780 Y49.2448 Z-1.8066
G01 X21.3787 Y49.0441 Z-2.0073
G01 X21.5795 Y48.8433 Z-2.2080
G01 X21.7802 Y48.6426 Z-2.4088
G01 X21.9809 Y48.4464 Z-2.6049
G01 X22.0813 Y48.5468 Z-2.5046
G01 X22.1817 Y48.6472 Z-2.4042
G01 X22.2820 Y48.7475 Z-2.3038
G01 X22.3824 Y48.8479 Z-2.2035
G01 X22.4828 Y48.9483 Z-2.1031
G01 X22.5831 Y49.0486 Z-2.0027
G01 X22.6835 Y49.1490 Z-1.9024
G01 X22.7838 Y49.2494 Z-1.8020
G01 X22.8842 Y49.3497 Z-1.7016
G01 X22.9846 Y49.4501 Z-1.6013
G01 X23.0849 Y49.5504 Z-1.5009
G01 X23.1853 Y49.6508 Z-1.4005
G01 X23.2857 Y49.7512 Z-1.3002
G01 X23.3860 Y49.8515 Z-1.1998
G01 X23.4864 Y49.9519 Z-1.0995
G01 X23.5868 Y50.0519 Z-0.9995
G01 X23.6871 Y50.1447 Z-0.9067
G01 X23.7875 Y50.2277 Z-0.8237
G01 X23.8879 Y50.3008 Z-0.7505
G01 X23.9882 Y50.3642 Z-0.6872
G01 X24.0886 Y50.4177 Z-0.6337
G01 X24.1890 Y50.4614 Z-0.5900
G01 X24.2893 Y50.4953 Z-0.5561
G01 X24.3897 Y50.5194 Z-0.5320
G01 X24.4901 Y50.5337 Z-0.5177
G01 X24.5904 Y50.5381 Z-0.5132
G01 X24.6908
G01 X24.7911
G01 X24.8915
G01 X24.9919
G01 X25.0922
G01 X25.1926
G01 X25.2930
G01 X25.3933
G01 X25.4937
G01 X25.5941
G01 X25.6944
G01 X25.7948
G01 X25.8952
G01 X25.9955
G01 X26.0959
G01 X26.1963
G01 X26.2966
G01 X26.3970
G01 X26.4974
G01 X26.5977
G01 X26.6981
G01 X26.7985
G01 X26.8988
G01 X26.9992
G01 X27.0995
G01 X27.1999
G01 X27.3003
G01 X27.4006
G01 X27.5010
G01 X27.6014
G01 X27.7017
G01 X27.8021
G01 X27.9025
G01 X28.0028
G01 X28.1032
G01 X28.2036
G01 X28.3039
G01 X28.4043 Y50.5997 Z-0.4516
G01 X28.5047 Y50.7001 Z-0.3513
G01 X28.6050 Y50.8004 Z-0.2509
G01 X28.7054 Y50.9008 Z-0.1505
G01 X28.8058 Y51.0012 Z-0.0502
G01 X28.8559 Y51.0514 Z0.0000
G01 X28.8046 Y51.0000 Z-0.0513
G01 X28.7020 Y50.8974 Z-0.1540
G01 X28.5993 Y50.7947 Z-0.2566
G01 X28.3940 Y50.5895 Z-0.4619
G01 Y50.4868
G01 X28.4967 Y50.3842 Z-0.3593
G01 X28.5993 Y50.2815 Z-0.2566
G01 X28.7020 Y50.1789 Z-0.1540
G01 X28.8046 Y50.0762 Z-0.0513
G01 X28.8559 Y50.0249 Z0.0000
G00 Z5.0000
G00 X62.0673 Y37.7865
G01 Z-3.0138
G00 Z0.5000
G00 Z5.0000
G00 X62.0679 Y37.7186
G01 Z-3.0144
G01 X62.0687 Y37.6227 Z-3.0152
G01 X62.0695 Y37.5268 Z-3.0160
G01 X62.0703 Y37.4310 Z-3.0168
G01 Y37.2446
G01 X62.0695 Y37.1488 Z-3.0160
G01 X62.0687 Y37.0529 Z-3.0152
G01 X62.0679 Y36.9571 Z-3.0144
G01 X62.0648 Y36.7744 Z-3.0113
G01 X62.0624 Y36.6798 Z-3.0089
G01 X62.0600 Y36.5851 Z-3.0065
G01 X62.0575 Y36.4904 Z-3.0041
G01 X62.0515 Y36.3133 Z-2.9980
G01 X62.0475 Y36.2197 Z-2.9940
G01 X62.0434 Y36.1261 Z-2.9900
G01 X62.0394 Y36.0325 Z-2.9859
G01 X62.0304 Y35.8600 Z-2.9770
G01 X62.0248 Y35.7674 Z-2.9713
G01 X62.0191 Y35.6748 Z-2.9657
G01 X62.0135 Y35.5821 Z-2.9600
G01 X62.0017 Y35.4134 Z-2.9482
G01 X61.9944 Y35.3216 Z-2.9409
G01 X61.9871 Y35.2299 Z-2.9336
G01 X61.9798 Y35.1381 Z-2.9263
G01 X61.9732 Y35.0542 Z-2.9197
G01 X61.9624 Y34.9449 Z-2.9090
G01 X61.9517 Y34.8356 Z-2.8983
G01 X61.9410 Y34.7263 Z-2.8875
G01 X61.9302 Y34.6165 Z-2.8768
G01 X61.9175 Y34.5079 Z-2.8640
G01 X61.9048 Y34.3993 Z-2.8513
G01 X61.8921 Y34.2907 Z-2.8386
G01 X61.8793 Y34.1815 Z-2.8258
G01 X61.8646 Y34.0735 Z-2.8111
G01 X61.8498 Y33.9655 Z-2.7963
G01 X61.8351 Y33.8574 Z-2.7816
G01 X61.8201 Y33.7479 Z-2.7666
G01 X61.8033 Y33.6403 Z-2.7498
G01 X61.7865 Y33.5326 Z-2.7330
G01 X61.7697 Y33.4250 Z-2.7162
G01 X61.7524 Y33.3142 Z-2.6989
G01 X61.7335 Y33.2068 Z-2.6800
G01 X61.7146 Y33.0994 Z-2.6611
G01 X61.6957 Y32.9919 Z-2.6422
G01 X61.6757 Y32.8788 Z-2.6222
G01 X61.6547 Y32.7715 Z-2.6012
G01 X61.6336 Y32.6641 Z-2.5802
G01 X61.6126 Y32.5568 Z-2.5591
G01 X61.5897 Y32.4404 Z-2.5362
G01 X61.5659 Y32.3332 Z-2.5136
G01 X61.5422 Y32.2260 Z-2.4909
G01 X61.5184 Y32.1188 Z-2.4683
G01 X61.4916 Y31.9985 Z-2.4428
G01 X61.4646 Y31.8916 Z-2.4190
G01 X61.4375 Y31.7847 Z-2.3953
G01 X61.4104 Y31.6778 Z-2.3717
G01 X61.3786 Y31.5533 Z-2.3440
G01 X61.3482 Y31.4466 Z-2.3192
G01 X61.3177 Y31.3400 Z-2.2945
G01 X61.2872 Y31.2334 Z-2.2699
G01 X61.2498 Y31.1042 Z-2.2399
G01 X61.2158 Y30.9978 Z-2.2143
G01 X61.1818 Y30.8915 Z-2.1887
G01 X61.1478 Y30.7851 Z-2.1630
G01 X61.1040 Y30.6509 Z-2.1309
G01 X61.0664 Y30.5448 Z-2.1044
G01 X61.0288 Y30.4387 Z-2.0779
G01 X60.9912 Y30.3326 Z-2.0513
G01 X60.9436 Y30.2022 Z-2.0196
G01 X60.9092 Y30.1140 Z-1.9967
G01 X60.8747 Y30.0258 Z-1.9739
G01 X60.8403 Y29.9375 Z-1.9511
G01 X60.8054 Y29.8497 Z-1.9288
G01 X60.7608 Y29.7404 Z-1.9017
G01 X60.7232 Y29.6524 Z-1.8783
G01 X60.6855 Y29.5644 Z-1.8548
G01 X60.6476 Y29.4767 Z-1.8317
G01 X60.6089 Y29.3895 Z-1.8096
G01 X60.5575 Y29.2747 Z-1.7802
G01 X60.5166 Y29.1870 Z-1.7561
G01 X60.4753 Y29.0996 Z-1.7326
G01 X60.4333 Y29.0128 Z-1.7100
G01 X60.3913 Y28.9260 Z-1.6873
G01 X60.3326 Y28.8057 Z-1.6556
G01 X60.2877 Y28.7189 Z-1.6320
G01 X60.2422 Y28.6325 Z-1.6089
G01 X60.1968 Y28.5462 Z-1.5859
G01 X60.1514 Y28.4598 Z-1.5628
G01 X60.1052 Y28.3741 Z-1.5408
G01 X60.0799 Y28.3286 Z-1.5289
G01 X60.0313 Y28.2427 Z-1.5058
G01 X59.9827 Y28.1569 Z-1.4827
G01 X59.9338 Y28.0713 Z-1.4600
G01 X59.8840 Y27.9867 Z-1.4386
G01 X59.8341 Y27.9020 Z-1.4172
G01 X59.8090 Y27.8601 Z-1.4061
G01 X59.7585 Y27.7777 Z-1.3835
G01 X59.7070 Y27.6963 Z-1.3625
G01 X59.6553 Y27.6151 Z-1.3416
G01 X59.6036 Y27.5339 Z-1.3207
G01 X59.5518 Y27.4528 Z-1.3001
G01 X59.5244 Y27.4123 Z-1.2899
G01 X59.4709 Y27.3345 Z-1.2696
G01 X59.4174 Y27.2567 Z-1.2492
G01 X59.3639 Y27.1790 Z-1.2288
G01 X59.3093 Y27.1024 Z-1.2100
G01 X59.2546 Y27.0259 Z-1.1915
G01 X59.2199 Y26.9787 Z-1.1793
G01 X59.1535 Y26.8895 Z-1.1555
G01 X59.0857 Y26.8019 Z-1.1337
G01 X59.0179 Y26.7144 Z-1.1121
G01 X58.9500 Y26.6270 Z-1.0905
G01 X58.9070 Y26.5742 Z-1.0775
G01 X58.8369 Y26.4910 Z-1.0565
G01 X58.7669 Y26.4077 Z-1.0355
G01 X58.6964 Y26.3252 Z-1.0152
G01 X58.6249 Y26.2438 Z-0.9965
G01 X58.5793 Y26.1928 Z-0.9841
G01 X58.5071 Y26.1138 Z-0.9636
G01 X58.4337 Y26.0365 Z-0.9452
G01 X58.3602 Y25.9595 Z-0.9271
G01 X58.2867 Y25.8824 Z-0.9090
G01 X58.2378 Y25.8339 Z-0.8977
G01 X58.1622 Y25.7611 Z-0.8801
G01 X58.0867 Y25.6884 Z-0.8625
G01 X58.0105 Y25.6165 Z-0.8460
G01 X57.9335 Y25.5457 Z-0.8308
G01 X57.8819 Y25.4992 Z-0.8200
G01 X57.8042 Y25.4310 Z-0.8032
G01 X57.7252 Y25.3649 Z-0.7887
G01 X57.6462 Y25.2987 Z-0.7742
G01 X57.5670 Y25.2328 Z-0.7601
G01 X57.5118 Y25.1899 Z-0.7514
G01 X57.4308 Y25.1283 Z-0.7376
G01 X57.3498 Y25.0668 Z-0.7239
G01 X57.2677 Y25.0071 Z-0.7123
G01 X57.1853 Y24.9479 Z-0.7012
G01 X57.1276 Y24.9073 Z-0.6928
G01 X57.0440 Y24.8515 Z-0.6810
G01 X56.9598 Y24.7970 Z-0.6705
G01 X56.8756 Y24.7424 Z-0.6601
G01 X56.7908 Y24.6890 Z-0.6510
G01 X56.7297 Y24.6526 Z-0.6447
G01 X56.6438 Y24.6027 Z-0.6348
G01 X56.5575 Y24.5532 Z-0.6254
G01 X56.4705 Y24.5056 Z-0.6181
G01 X56.3834 Y24.4580 Z-0.6109
G01 X56.3202 Y24.4244 Z-0.6048
G01 X56.2316 Y24.3811 Z-0.5977
G01 X56.1429 Y24.3381 Z-0.5908
G01 X56.0542 Y24.2950 Z-0.5839
G01 X55.9647 Y24.2541 Z-0.5793
G01 X55.8988 Y24.2250 Z-0.5752
G01 X55.8086 Y24.1865 Z-0.5687
G01 X55.7179 Y24.1492 Z-0.5635
G01 X55.6269 Y24.1130 Z-0.5593
G01 X55.5359 Y24.0767 Z-0.5552
G01 X55.4680 Y24.0512 Z-0.5518
G01 X55.3756 Y24.0193 Z-0.5478
G01 X55.2832 Y23.9875 Z-0.5438
G01 X55.1908 Y23.9559 Z-0.5401
G01 X55.0977 Y23.9262 Z-0.5384
G01 X55.0279 Y23.9048 Z-0.5363
G01 X54.9341 Y23.8772 Z-0.5323
G01 X54.8400 Y23.8512 Z-0.5299
G01 X54.7458 Y23.8258 Z-0.5282
G01 X54.6515 Y23.8004 Z-0.5264
G01 X54.5800 Y23.7826 Z-0.5249
G01 X54.4846 Y23.7614 Z-0.5230
G01 X54.3891 Y23.7402 Z-0.5211
G01 X54.2936 Y23.7191 Z-0.5194
G01 X54.1978 Y23.6998 Z-0.5195
G01 X54.1247 Y23.6860 Z-0.5188
G01 X54.0280 Y23.6689 Z-0.5167
G01 X53.9312 Y23.6527 Z-0.5157
G01 X53.8342 Y23.6375 Z-0.5156
G01 X53.7373 Y23.6223 Z-0.5155
G01 X53.6628 Y23.6115 Z-0.5145
G01 X53.5647 Y23.6002 Z-0.5140
G01 X53.4666 Y23.5889 Z-0.5135
G01 X53.3686 Y23.5777 Z-0.5130
G01 X53.2704 Y23.5674 Z-0.5136
G01 X53.1943 Y23.5610 Z-0.5137
G01 X53.0951 Y23.5536 Z-0.5129
G01 X52.9959 Y23.5463 Z-0.5120
G01 X52.8966 Y23.5405 Z-0.5126
G01 X52.7972 Y23.5348 Z-0.5134
G01 X52.7197 Y23.5313 Z-0.5132
G01 X52.6193 Y23.5280 Z-0.5122
G01 X52.5189 Y23.5262 Z-0.5124
G01 X52.4185 Y23.5243 Z-0.5127
G01 X52.3180 Y23.5224 Z-0.5130
G01 X52.2391
G01 X52.1379 Y23.5243 Z-0.5128
G01 X52.0367 Y23.5262 Z-0.5125
G01 X51.9355 Y23.5280 Z-0.5122
G01 X51.8343 Y23.5313 Z-0.5134
G01 X51.7558 Y23.5349 Z-0.5136
G01 X51.6558 Y23.5405 Z-0.5128
G01 X51.5559 Y23.5464 Z-0.5123
G01 X51.4560 Y23.5538 Z-0.5133
G01 X51.3562 Y23.5611 Z-0.5142
G01 X51.2793 Y23.5676 Z-0.5141
G01 X51.1806 Y23.5780 Z-0.5138
G01 X51.0820 Y23.5892 Z-0.5143
G01 X50.9834 Y23.6004 Z-0.5149
G01 X50.8849 Y23.6119 Z-0.5157
G01 X50.8098 Y23.6227 Z-0.5167
G01 X50.7125 Y23.6379 Z-0.5169
G01 X50.6151 Y23.6530 Z-0.5171
G01 X50.5180 Y23.6694 Z-0.5185
G01 X50.4209 Y23.6865 Z-0.5207
G01 X50.3474 Y23.7002 Z-0.5215
G01 X50.2514 Y23.7196 Z-0.5216
G01 X50.1557 Y23.7407 Z-0.5236
G01 X50.0600 Y23.7619 Z-0.5256
G01 X49.9642 Y23.7831 Z-0.5276
G01 X49.8926 Y23.8011 Z-0.5295
G01 X49.7983 Y23.8264 Z-0.5314
G01 X49.7039 Y23.8517 Z-0.5333
G01 X49.6097 Y23.8779 Z-0.5361
G01 X49.5159 Y23.9054 Z-0.5402
G01 X49.4461 Y23.9266 Z-0.5424
G01 X49.3531 Y23.9562 Z-0.5443
G01 X49.2607 Y23.9879 Z-0.5484
G01 X49.1684 Y24.0196 Z-0.5525
G01 X49.0760 Y24.0513 Z-0.5567
G01 X49.0085 Y24.0770 Z-0.5604
G01 X48.9176 Y24.1130 Z-0.5647
G01 X48.8267 Y24.1491 Z-0.5689
G01 X48.7363 Y24.1864 Z-0.5745
G01 X48.6462 Y24.2247 Z-0.5812
G01 X48.5808 Y24.2535 Z-0.5853
G01 X48.4916 Y24.2944 Z-0.5903
G01 X48.4032 Y24.3372 Z-0.5973
G01 X48.3148 Y24.3800 Z-0.6043
G01 X48.2266 Y24.4232 Z-0.6117
G01 X48.1641 Y24.4563 Z-0.6178
G01 X48.0774 Y24.5036 Z-0.6251
G01 X47.9907 Y24.5509 Z-0.6325
G01 X47.9049 Y24.6002 Z-0.6421
G01 X47.8192 Y24.6498 Z-0.6521
G01 X47.7592 Y24.6856 Z-0.6583
G01 X47.6749 Y24.7386 Z-0.6675
G01 X47.5911 Y24.7928 Z-0.6780
G01 X47.5074 Y24.8470 Z-0.6885
G01 X47.4243 Y24.9024 Z-0.7003
G01 X47.3676 Y24.9421 Z-0.7086
G01 X47.2859 Y25.0008 Z-0.7197
G01 X47.2043 Y25.0600 Z-0.7312
G01 X47.1239 Y25.1210 Z-0.7449
G01 X47.0434 Y25.1821 Z-0.7586
G01 X46.9894 Y25.2240 Z-0.7672
G01 X46.9108 Y25.2892 Z-0.7811
G01 X46.8325 Y25.3547 Z-0.7954
G01 X46.7542 Y25.4203 Z-0.8098
G01 X46.6770 Y25.4877 Z-0.8263
G01 X46.6267 Y25.5330 Z-0.8368
G01 X46.5505 Y25.6031 Z-0.8518
G01 X46.4749 Y25.6740 Z-0.8679
G01 X46.4002 Y25.7462 Z-0.8856
G01 X46.3255 Y25.8184 Z-0.9032
G01 X46.2780 Y25.8654 Z-0.9139
G01 X46.2053 Y25.9418 Z-0.9319
G01 X46.1328 Y26.0182 Z-0.9500
G01 X46.0602 Y26.0948 Z-0.9682
G01 X45.9890 Y26.1730 Z-0.9885
G01 X45.9449 Y26.2225 Z-1.0007
G01 X45.8746 Y26.3032 Z-1.0194
G01 X45.8049 Y26.3848 Z-1.0392
G01 X45.7360 Y26.4674 Z-1.0602
G01 X45.6671 Y26.5499 Z-1.0813
G01 X45.6256 Y26.6008 Z-1.0936
G01 X45.5589 Y26.6874 Z-1.1150
G01 X45.4922 Y26.7741 Z-1.1365
G01 X45.4255 Y26.8608 Z-1.1581
G01 X45.3602 Y26.9490 Z-1.1816
G01 X45.3218 Y27.0020 Z-1.1952
G01 X45.2574 Y27.0929 Z-1.2173
G01 X45.1935 Y27.1842 Z-1.2401
G01 X45.1306 Y27.2767 Z-1.2644
G01 X45.0367 Y27.4154 Z-1.3004
G01 X44.9856 Y27.4953 Z-1.3204
G01 X44.9351 Y27.5757 Z-1.3411
G01 X44.8845 Y27.6561 Z-1.3618
G01 X44.8340 Y27.7365 Z-1.3825
G01 X44.7608 Y27.8575 Z-1.4149
G01 X44.7122 Y27.9412 Z-1.4360
G01 X44.6636 Y28.0250 Z-1.4572
G01 X44.6154 Y28.1091 Z-1.4789
G01 X44.5680 Y28.1940 Z-1.5018
G01 X44.4951 Y28.3253 Z-1.5367
G01 X44.4487 Y28.4113 Z-1.5584
G01 X44.4034 Y28.4983 Z-1.5815
G01 X44.3582 Y28.5854 Z-1.6047
G01 X44.3130 Y28.6725 Z-1.6280
G01 X44.2508 Y28.7944 Z-1.6606
G01 X44.2089 Y28.8818 Z-1.6834
G01 X44.1671 Y28.9693 Z-1.7062
G01 X44.1253 Y29.0567 Z-1.7290
G01 X44.0838 Y29.1445 Z-1.7522
G01 X44.0300 Y29.2618 Z-1.7841
G01 X43.9915 Y29.3496 Z-1.8063
G01 X43.9530 Y29.4373 Z-1.8286
G01 X43.9148 Y29.5254 Z-1.8514
G01 X43.8774 Y29.6140 Z-1.8750
G01 X43.8304 Y29.7257 Z-1.9046
G01 X43.7951 Y29.8137 Z-1.9262
G01 X43.7600 Y29.9020 Z-1.9482
G01 X43.7257 Y29.9908 Z-1.9712
G01 X43.6915 Y30.0795 Z-1.9941
G01 X43.6475 Y30.1944 Z-2.0234
G01 X43.6091 Y30.3005 Z-2.0490
G01 X43.5716 Y30.4073 Z-2.0756
G01 X43.5341 Y30.5140 Z-2.1023
G01 X43.4867 Y30.6500 Z-2.1359
G01 X43.4524 Y30.7567 Z-2.1612
G01 X43.4185 Y30.8637 Z-2.1869
G01 X43.3846 Y30.9706 Z-2.2126
G01 X43.3435 Y31.1015 Z-2.2439
G01 X43.3129 Y31.2086 Z-2.2685
G01 X43.2825 Y31.3157 Z-2.2932
G01 X43.2521 Y31.4228 Z-2.3179
G01 X43.2166 Y31.5489 Z-2.3469
G01 X43.1896 Y31.6562 Z-2.3706
G01 X43.1625 Y31.7636 Z-2.3943
G01 X43.1355 Y31.8710 Z-2.4180
G01 X43.1051 Y31.9927 Z-2.4448
G01 X43.0813 Y32.1003 Z-2.4673
G01 X43.0576 Y32.2079 Z-2.4900
G01 X43.0338 Y32.3155 Z-2.5127
G01 X43.0079 Y32.4334 Z-2.5374
G01 X42.9869 Y32.5411 Z-2.5584
G01 X42.9658 Y32.6489 Z-2.5794
G01 X42.9448 Y32.7566 Z-2.6004
G01 X42.9225 Y32.8712 Z-2.6227
G01 X42.9036 Y32.9790 Z-2.6416
G01 X42.8847 Y33.0868 Z-2.6605
G01 X42.8658 Y33.1946 Z-2.6794
G01 X42.8462 Y33.3065 Z-2.6990
G01 X42.8294 Y33.4145 Z-2.7158
G01 X42.8126 Y33.5225 Z-2.7326
G01 X42.7958 Y33.6305 Z-2.7494
G01 X42.7787 Y33.7409 Z-2.7666
G01 X42.7639 Y33.8492 Z-2.7813
G01 X42.7492 Y33.9575 Z-2.7961
G01 X42.7344 Y34.0659 Z-2.8108
G01 X42.7195 Y34.1757 Z-2.8257
G01 X42.7068 Y34.2845 Z-2.8384
G01 X42.6941 Y34.3933 Z-2.8511
G01 X42.6814 Y34.5022 Z-2.8639
G01 X42.6685 Y34.6123 Z-2.8767
G01 X42.6578 Y34.7218 Z-2.8874
G01 X42.6471 Y34.8313 Z-2.8981
G01 X42.6364 Y34.9408 Z-2.9089
G01 X42.6257 Y35.0503 Z-2.9196
G01 X42.6190 Y35.1350 Z-2.9263
G01 X42.6117 Y35.2269 Z-2.9336
G01 X42.6044 Y35.3188 Z-2.9409
G01 X42.5971 Y35.4108 Z-2.9481
G01 X42.5852 Y35.5802 Z-2.9600
G01 X42.5796 Y35.6730 Z-2.9656
G01 X42.5739 Y35.7657 Z-2.9713
G01 X42.5683 Y35.8584 Z-2.9769
G01 X42.5593 Y36.0315 Z-2.9859
G01 X42.5553 Y36.1252 Z-2.9899
G01 X42.5513 Y36.2188 Z-2.9940
G01 X42.5472 Y36.3125 Z-2.9980
G01 X42.5412 Y36.4900 Z-3.0041
G01 X42.5388 Y36.5847 Z-3.0065
G01 X42.5363 Y36.6794 Z-3.0089
G01 X42.5339 Y36.7742 Z-3.0113
G01 X42.5308 Y36.9570 Z-3.0144
G01 X42.5300 Y37.0529 Z-3.0152
G01 X42.5292 Y37.1487 Z-3.0160
G01 X42.5284 Y37.2446 Z-3.0168
G01 Y37.4301
G01 X42.5292 Y37.5253 Z-3.0160
G01 X42.5300 Y37.6205 Z-3.0152
G01 X42.5308 Y37.7157 Z-3.0144
G01 X42.5339 Y37.8971 Z-3.0114
G01 X42.5362 Y37.9911 Z-3.0090
G01 X42.5386 Y38.0852 Z-3.0066
G01 X42.5410 Y38.1793 Z-3.0042
G01 X42.5470 Y38.3555 Z-2.9982
G01 X42.5510 Y38.4485 Z-2.9942
G01 X42.5550 Y38.5416 Z-2.9903
G01 X42.5590 Y38.6346 Z-2.9863
G01 X42.5678 Y38.8065 Z-2.9774
G01 X42.5734 Y38.8986 Z-2.9718
G01 X42.5790 Y38.9908 Z-2.9662
G01 X42.5846 Y39.0830 Z-2.9606
G01 X42.5899 Y39.1691 Z-2.9554
G01 X42.5985 Y39.2787 Z-2.9467
G01 X42.6071 Y39.3884 Z-2.9381
G01 X42.6158 Y39.4981 Z-2.9294
G01 X42.6246 Y39.6096 Z-2.9206
G01 X42.6352 Y39.7185 Z-2.9100
G01 X42.6458 Y39.8273 Z-2.8994
G01 X42.6564 Y39.9362 Z-2.8888
G01 X42.6671 Y40.0464 Z-2.8781
G01 X42.6797 Y40.1547 Z-2.8655
G01 X42.6923 Y40.2629 Z-2.8530
G01 X42.7049 Y40.3711 Z-2.8404
G01 X42.7176 Y40.4809 Z-2.8276
G01 X42.7322 Y40.5887 Z-2.8130
G01 X42.7468 Y40.6964 Z-2.7984
G01 X42.7614 Y40.8042 Z-2.7839
G01 X42.7763 Y40.9145 Z-2.7689
G01 X42.7929 Y41.0219 Z-2.7523
G01 X42.8096 Y41.1293 Z-2.7357
G01 X42.8262 Y41.2367 Z-2.7191
G01 X42.8435 Y41.3485 Z-2.7017
G01 X42.8622 Y41.4557 Z-2.6830
G01 X42.8809 Y41.5630 Z-2.6644
G01 X42.8996 Y41.6702 Z-2.6457
G01 X42.9195 Y41.7844 Z-2.6257
G01 X42.9403 Y41.8916 Z-2.6049
G01 X42.9611 Y41.9988 Z-2.5841
G01 X42.9819 Y42.1061 Z-2.5633
G01 X43.0048 Y42.2236 Z-2.5404
G01 X43.0283 Y42.3308 Z-2.5179
G01 X43.0517 Y42.4379 Z-2.4955
G01 X43.0752 Y42.5450 Z-2.4731
G01 X43.1020 Y42.6666 Z-2.4476
G01 X43.1285 Y42.7735 Z-2.4240
G01 X43.1553 Y42.8804 Z-2.4005
G01 X43.1820 Y42.9873 Z-2.3771
G01 X43.2137 Y43.1131 Z-2.3493
G01 X43.2436 Y43.2199 Z-2.3247
G01 X43.2737 Y43.3265 Z-2.3003
G01 X43.3037 Y43.4332 Z-2.2759
G01 X43.3409 Y43.5638 Z-2.2457
G01 X43.3743 Y43.6703 Z-2.2203
G01 X43.4079 Y43.7768 Z-2.1949
G01 X43.4414 Y43.8833 Z-2.1695
G01 X43.4848 Y44.0189 Z-2.1372
G01 X43.5218 Y44.1252 Z-2.1109
G01 X43.5589 Y44.2315 Z-2.0846
G01 X43.5960 Y44.3377 Z-2.0583
G01 X43.6431 Y44.4696 Z-2.0263
G01 X43.6770 Y44.5580 Z-2.0037
G01 X43.7110 Y44.6464 Z-1.9810
G01 X43.7449 Y44.7348 Z-1.9584
G01 X43.7791 Y44.8230 Z-1.9361
G01 X43.8235 Y44.9336 Z-1.9090
G01 X43.8605 Y45.0218 Z-1.8857
G01 X43.8976 Y45.1100 Z-1.8624
G01 X43.9348 Y45.1981 Z-1.8393
G01 X43.9729 Y45.2855 Z-1.8174
G01 X44.0239 Y45.4016 Z-1.7879
G01 X44.0642 Y45.4896 Z-1.7641
G01 X44.1047 Y45.5774 Z-1.7405
G01 X44.1461 Y45.6645 Z-1.7181
G01 X44.1875 Y45.7516 Z-1.6956
G01 X44.2457 Y45.8732 Z-1.6640
G01 X44.2898 Y45.9604 Z-1.6403
G01 X44.3346 Y46.0471 Z-1.6175
G01 X44.3793 Y46.1339 Z-1.5946
G01 X44.4241 Y46.2206 Z-1.5717
G01 X44.4695 Y46.3068 Z-1.5497
G01 X44.4905 Y46.3453 Z-1.5397
G01 X44.5384 Y46.4310 Z-1.5166
G01 X44.5863 Y46.5168 Z-1.4936
G01 X44.6343 Y46.6024 Z-1.4706
G01 X44.6834 Y46.6870 Z-1.4492
G01 X44.7326 Y46.7716 Z-1.4278
G01 X44.7566 Y46.8122 Z-1.4171
G01 X44.8064 Y46.8946 Z-1.3945
G01 X44.8571 Y46.9761 Z-1.3731
G01 X44.9081 Y47.0573 Z-1.3522
G01 X44.9591 Y47.1384 Z-1.3313
G01 X45.0102 Y47.2196 Z-1.3104
G01 X45.0363 Y47.2591 Z-1.3004
G01 X45.0892 Y47.3369 Z-1.2799
G01 X45.1421 Y47.4146 Z-1.2595
G01 X45.1950 Y47.4924 Z-1.2391
G01 X45.2487 Y47.5693 Z-1.2198
G01 X45.3029 Y47.6457 Z-1.2012
G01 X45.3364 Y47.6920 Z-1.1893
G01 X45.4022 Y47.7812 Z-1.1653
G01 X45.4690 Y47.8691 Z-1.1430
G01 X45.5362 Y47.9566 Z-1.1213
G01 X45.6035 Y48.0441 Z-1.0996
G01 X45.6452 Y48.0963 Z-1.0865
G01 X45.7146 Y48.1796 Z-1.0653
G01 X45.7841 Y48.2629 Z-1.0442
G01 X45.8538 Y48.3458 Z-1.0235
G01 X45.9247 Y48.4272 Z-1.0047
G01 X45.9694 Y48.4775 Z-0.9924
G01 X46.0411 Y48.5565 Z-0.9717
G01 X46.1138 Y48.6341 Z-0.9530
G01 X46.1869 Y48.7112 Z-0.9348
G01 X46.2600 Y48.7883 Z-0.9166
G01 X46.3078 Y48.8365 Z-0.9051
G01 X46.3830 Y48.9093 Z-0.8875
G01 X46.4583 Y48.9820 Z-0.8698
G01 X46.5340 Y49.0541 Z-0.8530
G01 X46.6107 Y49.1248 Z-0.8380
G01 X46.6616 Y49.1707 Z-0.8273
G01 X46.7390 Y49.2389 Z-0.8104
G01 X46.8178 Y49.3052 Z-0.7959
G01 X46.8966 Y49.3712 Z-0.7815
G01 X46.9755 Y49.4372 Z-0.7672
G01 X47.0300 Y49.4798 Z-0.7584
G01 X47.1109 Y49.5413 Z-0.7447
G01 X47.1918 Y49.6029 Z-0.7310
G01 X47.2735 Y49.6629 Z-0.7190
G01 X47.3558 Y49.7220 Z-0.7080
G01 X47.4130 Y49.7623 Z-0.6997
G01 X47.4963 Y49.8184 Z-0.6874
G01 X47.5805 Y49.8730 Z-0.6770
G01 X47.6647 Y49.9275 Z-0.6666
G01 X47.7492 Y49.9813 Z-0.6570
G01 X47.8098 Y50.0174 Z-0.6508
G01 X47.8958 Y50.0674 Z-0.6409
G01 X47.9819 Y50.1173 Z-0.6311
G01 X48.0690 Y50.1649 Z-0.6237
G01 X48.1561 Y50.2125 Z-0.6164
G01 X48.2190 Y50.2460 Z-0.6104
G01 X48.3076 Y50.2897 Z-0.6028
G01 X48.3963 Y50.3328 Z-0.5958
G01 X48.4851 Y50.3759 Z-0.5889
G01 X48.5746 Y50.4173 Z-0.5838
G01 X48.6403 Y50.4463 Z-0.5797
G01 X48.7307 Y50.4849 Z-0.5731
G01 X48.8215 Y50.5226 Z-0.5674
G01 X48.9127 Y50.5589 Z-0.5632
G01 X49.0039 Y50.5951 Z-0.5590
G01 X49.0717 Y50.6211 Z-0.5553
G01 X49.1643 Y50.6530 Z-0.5512
G01 X49.2570 Y50.6849 Z-0.5471
G01 X49.3496 Y50.7168 Z-0.5431
G01 X49.4429 Y50.7467 Z-0.5412
G01 X49.5129 Y50.7681 Z-0.5390
G01 X49.6070 Y50.7957 Z-0.5350
G01 X49.7014 Y50.8221 Z-0.5322
G01 X49.7960 Y50.8476 Z-0.5304
G01 X49.8906 Y50.8730 Z-0.5286
G01 X49.9624 Y50.8912 Z-0.5267
G01 X50.0583 Y50.9124 Z-0.5247
G01 X50.1542 Y50.9337 Z-0.5228
G01 X50.2501 Y50.9550 Z-0.5209
G01 X50.3463 Y50.9745 Z-0.5208
G01 X50.4199 Y50.9883 Z-0.5201
G01 X50.5171 Y51.0055 Z-0.5180
G01 X50.6144 Y51.0219 Z-0.5166
G01 X50.7119 Y51.0372 Z-0.5165
G01 X50.8094 Y51.0524 Z-0.5163
G01 X50.8845 Y51.0633 Z-0.5153
G01 X50.9831 Y51.0749 Z-0.5145
G01 X51.0818 Y51.0862 Z-0.5140
G01 X51.1805 Y51.0974 Z-0.5135
G01 X51.2793 Y51.1079 Z-0.5139
G01 X51.3561 Y51.1144 Z-0.5140
G01 X51.4560 Y51.1217 Z-0.5131
G01 X51.5559 Y51.1291 Z-0.5122
G01 X51.6559 Y51.1351 Z-0.5127
G01 X51.7559 Y51.1407 Z-0.5135
G01 X51.8343 Y51.1443 Z-0.5133
G01 X51.9355 Y51.1476 Z-0.5122
G01 X52.0367 Y51.1495 Z-0.5125
G01 X52.1379 Y51.1513 Z-0.5127
G01 X52.2391 Y51.1532 Z-0.5130
G01 X52.3181
G01 X52.4186 Y51.1513 Z-0.5128
G01 X52.5190 Y51.1495 Z-0.5125
G01 X52.6194 Y51.1476 Z-0.5122
G01 X52.7198 Y51.1443 Z-0.5134
G01 X52.7975 Y51.1408 Z-0.5136
G01 X52.8969 Y51.1351 Z-0.5129
G01 X52.9962 Y51.1292 Z-0.5124
G01 X53.0954 Y51.1218 Z-0.5133
G01 X53.1946 Y51.1145 Z-0.5143
G01 X53.2708 Y51.1080 Z-0.5142
G01 X53.3690 Y51.0976 Z-0.5139
G01 X53.4671 Y51.0864 Z-0.5144
G01 X53.5651 Y51.0752 Z-0.5150
G01 X53.6632 Y51.0636 Z-0.5159
G01 X53.7378 Y51.0528 Z-0.5169
G01 X53.8347 Y51.0376 Z-0.5171
G01 X53.9317 Y51.0225 Z-0.5173
G01 X54.0284 Y51.0061 Z-0.5187
G01 X54.1251 Y50.9891 Z-0.5209
G01 X54.1983 Y50.9753 Z-0.5217
G01 X54.2941 Y50.9559 Z-0.5218
G01 X54.3895 Y50.9348 Z-0.5238
G01 X54.4850 Y50.9137 Z-0.5257
G01 X54.5804 Y50.8925 Z-0.5277
G01 X54.6519 Y50.8745 Z-0.5296
G01 X54.7461 Y50.8493 Z-0.5315
G01 X54.8404 Y50.8240 Z-0.5333
G01 X54.9344 Y50.7979 Z-0.5360
G01 X55.0281 Y50.7705 Z-0.5400
G01 X55.0980 Y50.7492 Z-0.5422
G01 X55.1910 Y50.7197 Z-0.5441
G01 X55.2834 Y50.6881 Z-0.5480
G01 X55.3758 Y50.6565 Z-0.5520
G01 X55.4682 Y50.6249 Z-0.5561
G01 X55.5360 Y50.5993 Z-0.5596
G01 X55.6270 Y50.5634 Z-0.5638
G01 X55.7181 Y50.5275 Z-0.5679
G01 X55.8087 Y50.4904 Z-0.5732
G01 X55.8990 Y50.4523 Z-0.5797
G01 X55.9649 Y50.4235 Z-0.5837
G01 X56.0544 Y50.3828 Z-0.5884
G01 X56.1431 Y50.3403 Z-0.5951
G01 X56.2319 Y50.2978 Z-0.6018
G01 X56.3205 Y50.2550 Z-0.6088
G01 X56.3838 Y50.2217 Z-0.6147
G01 X56.4710 Y50.1748 Z-0.6217
G01 X56.5582 Y50.1278 Z-0.6288
G01 X56.6446 Y50.0790 Z-0.6378
G01 X56.7308 Y50.0297 Z-0.6474
G01 X56.7919 Y49.9938 Z-0.6534
G01 X56.8770 Y49.9413 Z-0.6620
G01 X56.9614 Y49.8875 Z-0.6720
G01 X57.0459 Y49.8338 Z-0.6820
G01 X57.1298 Y49.7790 Z-0.6931
G01 X57.1879 Y49.7390 Z-0.7011
G01 X57.2705 Y49.6808 Z-0.7116
G01 X57.3531 Y49.6223 Z-0.7224
G01 X57.4345 Y49.5618 Z-0.7354
G01 X57.5159 Y49.5013 Z-0.7484
G01 X57.5716 Y49.4591 Z-0.7567
G01 X57.6514 Y49.3946 Z-0.7697
G01 X57.7309 Y49.3297 Z-0.7833
G01 X57.8104 Y49.2647 Z-0.7969
G01 X57.8889 Y49.1982 Z-0.8123
G01 X57.9412 Y49.1523 Z-0.8225
G01 X58.0188 Y49.0829 Z-0.8367
G01 X58.0958 Y49.0127 Z-0.8519
G01 X58.1708 Y48.9395 Z-0.8706
G01 X58.2457 Y48.8662 Z-0.8895
G01 X58.2946 Y48.8174 Z-0.9012
G01 X58.3680 Y48.7407 Z-0.9196
G01 X58.4410 Y48.6632 Z-0.9389
G01 X58.5139 Y48.5858 Z-0.9582
G01 X58.5860 Y48.5073 Z-0.9787
G01 X58.6314 Y48.4560 Z-0.9919
G01 X58.7023 Y48.3743 Z-1.0117
G01 X58.7730 Y48.2924 Z-1.0318
G01 X58.8425 Y48.2090 Z-1.0538
G01 X58.9120 Y48.1256 Z-1.0758
G01 X58.9549 Y48.0730 Z-1.0889
G01 X59.0228 Y47.9861 Z-1.1107
G01 X59.0901 Y47.8985 Z-1.1332
G01 X59.1575 Y47.8110 Z-1.1557
G01 X59.2584 Y47.6754 Z-1.1920
G01 X59.3127 Y47.5990 Z-1.2112
G01 X59.3671 Y47.5226 Z-1.2304
G01 X59.4209 Y47.4456 Z-1.2505
G01 X59.4740 Y47.3679 Z-1.2715
G01 X59.5542 Y47.2499 Z-1.3029
G01 X59.6065 Y47.1698 Z-1.3230
G01 X59.6578 Y47.0887 Z-1.3445
G01 X59.7092 Y47.0077 Z-1.3659
G01 X59.7605 Y46.9266 Z-1.3874
G01 X59.8361 Y46.8036 Z-1.4208
G01 X59.8857 Y46.7191 Z-1.4427
G01 X59.9352 Y46.6347 Z-1.4646
G01 X59.9846 Y46.5501 Z-1.4867
G01 X60.0330 Y46.4646 Z-1.5103
G01 X60.0992 Y46.3465 Z-1.5424
G01 X60.1457 Y46.2605 Z-1.5641
G01 X60.1914 Y46.1738 Z-1.5866
G01 X60.2366 Y46.0867 Z-1.6099
G01 X60.2818 Y45.9997 Z-1.6331
G01 X60.3444 Y45.8783 Z-1.6652
G01 X60.3863 Y45.7909 Z-1.6878
G01 X60.4282 Y45.7035 Z-1.7106
G01 X60.4701 Y45.6161 Z-1.7333
G01 X60.5119 Y45.5286 Z-1.7561
G01 X60.5657 Y45.4115 Z-1.7878
G01 X60.6043 Y45.3238 Z-1.8100
G01 X60.6429 Y45.2361 Z-1.8322
G01 X60.6814 Y45.1483 Z-1.8545
G01 X60.7190 Y45.0598 Z-1.8780
G01 X60.7660 Y44.9482 Z-1.9074
G01 X60.8014 Y44.8602 Z-1.9290
G01 X60.8367 Y44.7722 Z-1.9506
G01 X60.8711 Y44.6835 Z-1.9734
G01 X60.9055 Y44.5948 Z-1.9963
G01 X60.9495 Y44.4800 Z-2.0255
G01 X60.9882 Y44.3741 Z-2.0507
G01 X61.0258 Y44.2674 Z-2.0772
G01 X61.0633 Y44.1607 Z-2.1038
G01 X61.1108 Y44.0248 Z-2.1373
G01 X61.1454 Y43.9183 Z-2.1622
G01 X61.1794 Y43.8114 Z-2.1879
G01 X61.2133 Y43.7045 Z-2.2135
G01 X61.2546 Y43.5737 Z-2.2446
G01 X61.2853 Y43.4667 Z-2.2690
G01 X61.3157 Y43.3596 Z-2.2937
G01 X61.3462 Y43.2525 Z-2.3184
G01 X61.3818 Y43.1265 Z-2.3472
G01 X61.4090 Y43.0192 Z-2.3708
G01 X61.4360 Y42.9119 Z-2.3944
G01 X61.4631 Y42.8045 Z-2.4181
G01 X61.4935 Y42.6829 Z-2.4448
G01 X61.5174 Y42.5753 Z-2.4674
G01 X61.5411 Y42.4676 Z-2.4900
G01 X61.5649 Y42.3600 Z-2.5127
G01 X61.5908 Y42.2421 Z-2.5374
G01 X61.6118 Y42.1344 Z-2.5584
G01 X61.6329 Y42.0267 Z-2.5794
G01 X61.6539 Y41.9189 Z-2.6004
G01 X61.6762 Y41.8043 Z-2.6227
G01 X61.6951 Y41.6966 Z-2.6416
G01 X61.7140 Y41.5888 Z-2.6605
G01 X61.7329 Y41.4810 Z-2.6794
G01 X61.7525 Y41.3690 Z-2.6990
G01 X61.7693 Y41.2610 Z-2.7158
G01 X61.7861 Y41.1531 Z-2.7326
G01 X61.8029 Y41.0451 Z-2.7494
G01 X61.8200 Y40.9347 Z-2.7666
G01 X61.8348 Y40.8263 Z-2.7813
G01 X61.8495 Y40.7180 Z-2.7961
G01 X61.8643 Y40.6097 Z-2.8108
G01 X61.8792 Y40.4999 Z-2.8257
G01 X61.8919 Y40.3911 Z-2.8384
G01 X61.9046 Y40.2822 Z-2.8511
G01 X61.9173 Y40.1734 Z-2.8639
G01 X61.9302 Y40.0633 Z-2.8767
G01 X61.9409 Y39.9537 Z-2.8874
G01 X61.9516 Y39.8442 Z-2.8981
G01 X61.9623 Y39.7347 Z-2.9089
G01 X61.9730 Y39.6252 Z-2.9196
G01 X61.9798 Y39.5406 Z-2.9263
G01 X61.9870 Y39.4487 Z-2.9336
G01 X61.9943 Y39.3567 Z-2.9408
G01 X62.0016 Y39.2648 Z-2.9481
G01 X62.0135 Y39.0953 Z-2.9600
G01 X62.0191 Y39.0026 Z-2.9656
G01 X62.0248 Y38.9099 Z-2.9713
G01 X62.0304 Y38.8171 Z-2.9769
G01 X62.0394 Y38.6441 Z-2.9859
G01 X62.0434 Y38.5504 Z-2.9899
G01 X62.0474 Y38.4567 Z-2.9940
G01 X62.0515 Y38.3631 Z-2.9980
G01 X62.0575 Y38.1855 Z-3.0041
G01 X62.0600 Y38.0908 Z-3.0065
G01 X62.0624 Y37.9961 Z-3.0089
G01 X62.0648 Y37.9014 Z-3.0113
G01 X62.0679 Y37.7186 Z-3.0144
G01 X62.0687 Y37.6227 Z-3.0152
G01 X62.0695 Y37.5268 Z-3.0160
G01 X62.0703 Y37.4310 Z-3.0168
G01 X62.2317 Y37.3378 Z-2.8569
G00 Z5.0000
G00 X64.7580 Y24.2046
G01 Z-0.4461
G01 X64.5597 Y24.4029 Z-0.2479
G01 X64.4606 Y24.5020 Z-0.1487
G01 X64.3614 Y24.6012 Z-0.0496
G01 X64.3118 Y24.6508 Z0.0000
G01 X64.3632 Y24.5994 Z-0.0513
G01 X64.4658 Y24.4968 Z-0.1540
G01 X64.5685 Y24.3941 Z-0.2566
G01 X64.6711 Y24.2915 Z-0.3593
G01 X64.7738 Y24.1888 Z-0.4619
G01 Y24.0862
G01 X64.5685 Y23.8809 Z-0.2566
G01 X64.4658 Y23.7783 Z-0.1540
G01 X64.3632 Y23.6756 Z-0.0513
G01 X64.3118 Y23.6243 Z0.0000
G00 Z5.0000
G00 X64.3618 Y23.6742
G01 Z-0.0499
G01 X64.4617 Y23.7741 Z-0.1498
G01 X64.5616 Y23.8740 Z-0.2497
G01 X64.6615 Y23.9739 Z-0.3496
G01 X64.7613 Y24.0738 Z-0.4495
G01 X64.8612 Y24.1375 Z-0.5132
G01 X64.9611
G01 X65.0610
G01 X65.1609
G01 X65.2608
G01 X65.3607
G01 X65.4606
G01 X65.5604
G01 X65.6603
G01 X65.7602
G01 X65.8601
G01 X65.9600
G01 X66.0599
G01 X66.1598
G01 X66.2597
G01 X66.3596
G01 X66.4594
G01 X66.5593
G01 X66.6592
G01 X66.7591
G01 X66.8590
G01 X66.9589
G01 X67.0588
G01 X67.1587
G01 X67.2586
G01 X67.3584
G01 X67.4583
G01 X67.5582
G01 X67.6581
G01 X67.7580
G01 X67.8579
G01 X67.9578
G01 X68.0577
G01 X68.1576
G01 X68.2574
G01 X68.3573
G01 X68.4572 Y24.1407 Z-0.5164
G01 X68.5571 Y24.1534 Z-0.5291
G01 X68.6570 Y24.1758 Z-0.5515
G01 X68.7569 Y24.2080 Z-0.5837
G01 X68.8568 Y24.2498 Z-0.6255
G01 X68.9567 Y24.3014 Z-0.6771
G01 X69.0565 Y24.3627 Z-0.7384
G01 X69.1564 Y24.4337 Z-0.8094
G01 X69.2563 Y24.5145 Z-0.8902
G01 X69.3562 Y24.6049 Z-0.9807
G01 X69.4561 Y24.7038 Z-1.0795
G01 X69.5560 Y24.8037 Z-1.1794
G01 X69.6559 Y24.9035 Z-1.2792
G01 X69.7558 Y25.0034 Z-1.3791
G01 X69.8557 Y25.1033 Z-1.4790
G01 X69.9555 Y25.2032 Z-1.5789
G01 X70.0554 Y25.3031 Z-1.6788
G01 X70.1553 Y25.4030 Z-1.7787
G01 X70.2552 Y25.5029 Z-1.8786
G01 X70.3551 Y25.6028 Z-1.9785
G01 X70.4550 Y25.7026 Z-2.0784
G01 X70.5549 Y25.8025 Z-2.1782
G01 X70.6548 Y25.9024 Z-2.2781
G01 X70.7547 Y26.0023 Z-2.3780
G01 X70.8545 Y26.1022 Z-2.4779
G01 X70.9544 Y26.2021 Z-2.5778
G01 X71.0543
G01 X71.2541 Y26.0023 Z-2.3780
G01 X71.4539 Y25.8025 Z-2.1782
G01 X71.6536 Y25.6028 Z-1.9785
G01 X71.8534 Y25.4030 Z-1.7787
G01 X72.0532 Y25.2032 Z-1.5789
G01 X72.2530 Y25.0034 Z-1.3791
G01 X72.4528 Y24.8037 Z-1.1794
G01 X72.6525 Y24.6049 Z-0.9807
G01 X72.8523 Y24.4337 Z-0.8094
G01 X72.9522 Y24.3627 Z-0.7384
G01 X73.0521 Y24.3014 Z-0.6771
G01 X73.1520 Y24.2498 Z-0.6255
G01 X73.2519 Y24.2080 Z-0.5837
G01 X73.3518 Y24.1758 Z-0.5515
G01 X73.4516 Y24.1534 Z-0.5291
G01 X73.5515 Y24.1407 Z-0.5164
G01 X73.6514 Y24.1375 Z-0.5132
G01 X73.7513
G01 X73.8512
G01 X73.9511
G01 X74.0510
G01 X74.1509
G01 X74.2507
G01 X74.3506
G01 X74.4505
G01 X74.5504
G01 X74.6503
G01 X74.7502
G01 X74.8501
G01 X74.9500
G01 X75.0499
G01 X75.1497
G01 X75.2496
G01 X75.3495
G01 X75.4494
G01 X75.5493
G01 X75.6492
G01 X75.7491
G01 X75.8490
G01 X75.9489
G01 X76.0487
G01 X76.1486
G01 X76.2485
G01 X76.3484
G01 X76.4483
G01 X76.5482
G01 X76.6481
G01 X76.7480
G01 X76.8479
G01 X76.9477
G01 X77.0476
G01 X77.1475
G01 X77.2474 Y24.0738 Z-0.4495
G01 X77.4472 Y23.8740 Z-0.2497
G01 X77.5471 Y23.7741 Z-0.1498
G01 X77.6470 Y23.6742 Z-0.0499
G01 X77.6969 Y23.6243 Z0.0000
G01 X77.6456 Y23.6756 Z-0.0513
G01 X77.5429 Y23.7783 Z-0.1540
G01 X77.4403 Y23.8809 Z-0.2566
G01 X77.3376 Y23.9836 Z-0.3593
G01 X77.2350 Y24.0862 Z-0.4619
G01 Y24.1888
G01 X77.4403 Y24.3941 Z-0.2566
G01 X77.5429 Y24.4968 Z-0.1540
G01 X77.6456 Y24.5994 Z-0.0513
G01 X77.6969 Y24.6508 Z0.0000
G01 X77.6473 Y24.6012 Z-0.0496
G01 X77.5482 Y24.5020 Z-0.1487
G01 X77.4491 Y24.4029 Z-0.2479
G01 X77.3499 Y24.3038 Z-0.3470
G01 X77.2508 Y24.2046 Z-0.4461
G01 X77.1516 Y24.1375 Z-0.5132
G01 X77.0525
G01 X76.9533
G01 X76.8542
G01 X76.7551
G01 X76.6559
G01 X76.5568
G01 X76.4576
G01 X76.3585
G01 X76.2594
G01 X76.1602
G01 X76.0611
G01 X75.9619
G01 X75.8628
G01 X75.7636
G01 X75.6645
G01 X75.5654
G01 X75.4662
G01 X75.3671
G01 X75.2679
G01 X75.1688
G01 X75.0697
G01 X74.9705
G01 X74.8714
G01 X74.7722
G01 X74.6731
G01 X74.5740
G01 X74.4748
G01 X74.3757
G01 X74.2765
G01 X74.1774
G01 X74.0782
G01 X73.9791
G01 X73.8800
G01 X73.7808
G01 X73.6817
G01 X73.6276
G01 X73.5783 Y24.1389 Z-0.5146
G01 X73.5288 Y24.1427 Z-0.5184
G01 X73.4833 Y24.1483 Z-0.5240
G01 X73.4372 Y24.1560 Z-0.5317
G01 X73.3951 Y24.1649 Z-0.5406
G01 X73.3523 Y24.1757 Z-0.5514
G01 X73.3134 Y24.1870 Z-0.5627
G01 X73.2737 Y24.2001 Z-0.5758
G01 X73.2381 Y24.2132 Z-0.5889
G01 X73.2017 Y24.2278 Z-0.6035
G01 X73.1643 Y24.2441 Z-0.6198
G01 X73.1315 Y24.2596 Z-0.6353
G01 X73.0978 Y24.2766 Z-0.6523
G01 X73.0631 Y24.2952 Z-0.6709
G01 X73.0335 Y24.3121 Z-0.6878
G01 X73.0031 Y24.3303 Z-0.7060
G01 X72.9719 Y24.3499 Z-0.7256
G01 X72.9398 Y24.3710 Z-0.7467
G01 X72.9134 Y24.3892 Z-0.7649
G01 X72.8863 Y24.4084 Z-0.7841
G01 X72.8586 Y24.4290 Z-0.8047
G01 X72.8302 Y24.4508 Z-0.8265
G01 X72.8009 Y24.4741 Z-0.8498
G01 X72.7708 Y24.4989 Z-0.8746
G01 X72.7477 Y24.5186 Z-0.8943
G01 X72.7240 Y24.5393 Z-0.9150
G01 X72.6997 Y24.5610 Z-0.9367
G01 X72.6749 Y24.5838 Z-0.9595
G01 X72.6495 Y24.6079 Z-0.9836
G01 X72.6234 Y24.6332 Z-1.0089
G01 X72.5557 Y24.7007 Z-1.0764
G01 X72.4558 Y24.8006 Z-1.1763
G01 X72.3559 Y24.9005 Z-1.2762
G01 X72.2560 Y25.0004 Z-1.3761
G01 X72.1561 Y25.1003 Z-1.4760
G01 X72.0562 Y25.2002 Z-1.5759
G01 X71.9563 Y25.3001 Z-1.6758
G01 X71.8564 Y25.4000 Z-1.7757
G01 X71.7565 Y25.4999 Z-1.8756
G01 X71.6566 Y25.5998 Z-1.9755
G01 X71.5567 Y25.6997 Z-2.0754
G01 X71.4568 Y25.7996 Z-2.1753
G01 X71.3569 Y25.8995 Z-2.2752
G01 X71.2570 Y25.9994 Z-2.3751
G01 X71.1571 Y26.0993 Z-2.4750
G01 X71.0572 Y26.1992 Z-2.5749
G01 X71.0044 Y26.2991 Z-2.6277
G01 Y26.3990
G01 Y26.4989
G01 Y26.5988
G01 Y26.6987
G01 Y26.7986
G01 Y26.8985
G01 Y26.9984
G01 Y27.0983
G01 Y27.1982
G01 Y27.2981
G01 Y27.3980
G01 Y27.4979
G01 Y27.5978
G01 Y27.6977
G01 Y27.7976
G01 Y27.8974
G01 Y27.9973
G01 Y28.0972
G01 Y28.1971
G01 Y28.2970
G01 Y28.3969
G01 Y28.4968
G01 Y28.5967
G01 Y28.6966
G01 Y28.7965
G01 Y28.8964
G01 Y28.9963
G01 Y29.0962
G01 Y29.1961
G01 Y29.2960
G01 Y29.3959
G01 Y29.4958
G01 Y29.5957
G01 Y29.6956
G01 Y29.7955
G01 Y29.8954
G01 Y29.9953
G01 Y30.0952
G01 Y30.1951
G01 Y30.2950
G01 Y30.3949
G01 Y30.4948
G01 Y30.5947
G01 Y30.6946
G01 Y30.7945
G01 Y30.8944
G01 Y30.9943
G01 Y31.0942
G01 Y31.1941
G01 Y31.2940
G01 Y31.3939
G01 Y31.4938
G01 Y31.5937
G01 Y31.6936
G01 Y31.7935
G01 Y31.8934
G01 Y31.9933
G01 Y32.0932
G01 Y32.1931
G01 Y32.2930
G01 Y32.3929
G01 Y32.4928
G01 Y32.5927
G01 Y32.6926
G01 Y32.7925
G01 Y32.8924
G01 Y32.9923
G01 Y33.0922
G01 Y33.1921
G01 Y33.2920
G01 Y33.3918
G01 Y33.4917
G01 Y33.5916
G01 Y33.6915
G01 Y33.7914
G01 Y33.8913
G01 Y33.9912
G01 Y34.0911
G01 Y34.1910
G01 Y34.2909
G01 Y34.3908
G01 Y34.4907
G01 Y34.5906
G01 Y34.6905
G01 Y34.7904
G01 Y34.8903
G01 Y34.9902
G01 Y35.0901
G01 Y35.1900
G01 Y35.2899
G01 Y35.3898
G01 Y35.4897
G01 Y35.5896
G01 Y35.6895
G01 Y35.7894
G01 Y35.8893
G01 Y35.9892
G01 Y36.0891
G01 Y36.1890
G01 Y36.2889
G01 Y36.3888
G01 Y36.4887
G01 Y36.5886
G01 Y36.6885
G01 Y36.7884
G01 Y36.8883
G01 Y36.9882
G01 Y37.0881
G01 Y37.1880
G01 Y37.2879
G01 Y37.3878
G01 Y37.4877
G01 Y37.5876
G01 Y37.6875
G01 Y37.7874
G01 Y37.8873
G01 Y37.9872
G01 Y38.0871
G01 Y38.1870
G01 Y38.2869
G01 Y38.3868
G01 Y38.4867
G01 Y38.5866
G01 Y38.6865
G01 Y38.7864
G01 Y38.8862
G01 Y38.9861
G01 Y39.0860
G01 Y39.1859
G01 Y39.2858
G01 Y39.3857
G01 Y39.4856
G01 Y39.5855
G01 Y39.6854
G01 Y39.7853
G01 Y39.8852
G01 Y39.9851
G01 Y40.0850
G01 Y40.1849
G01 Y40.2848
G01 Y40.3847
G01 Y40.4846
G01 Y40.5845
G01 Y40.6844
G01 Y40.7843
G01 Y40.8842
G01 Y40.9841
G01 Y41.0840
G01 Y41.1839
G01 Y41.2838
G01 Y41.3837
G01 Y41.4836
G01 Y41.5835
G01 Y41.6834
G01 Y41.7833
G01 Y41.8832
G01 Y41.9831
G01 Y42.0830
G01 Y42.1829
G01 Y42.2828
G01 Y42.3827
G01 Y42.4826
G01 Y42.5825
G01 Y42.6824
G01 Y42.7823
G01 Y42.8822
G01 Y42.9821
G01 Y43.0820
G01 Y43.1819
G01 Y43.2818
G01 Y43.3817
G01 Y43.4816
G01 Y43.5815
G01 Y43.6814
G01 Y43.7813
G01 Y43.8812
G01 Y43.9811
G01 Y44.0810
G01 Y44.1809
G01 Y44.2808
G01 Y44.3806
G01 Y44.4805
G01 Y44.5804
G01 Y44.6803
G01 Y44.7802
G01 Y44.8801
G01 Y44.9800
G01 Y45.0799
G01 Y45.1798
G01 Y45.2797
G01 Y45.3796
G01 Y45.4795
G01 Y45.5794
G01 Y45.6793
G01 Y45.7792
G01 Y45.8791
G01 Y45.9790
G01 Y46.0789
G01 Y46.1788
G01 Y46.2787
G01 Y46.3786
G01 Y46.4785
G01 Y46.5784
G01 Y46.6783
G01 Y46.7782
G01 Y46.8781
G01 Y46.9780
G01 Y47.0779
G01 Y47.1778
G01 Y47.2777
G01 Y47.3776
G01 Y47.4775
G01 Y47.5774
G01 Y47.6773
G01 Y47.7772
G01 Y47.8771
G01 Y47.9770
G01 Y48.0769
G01 Y48.1768
G01 Y48.2767
G01 Y48.3766
G01 X71.0572 Y48.4765 Z-2.5749
G01 X71.2570 Y48.6763 Z-2.3751
G01 X71.4568 Y48.8761 Z-2.1753
G01 X71.6566 Y49.0759 Z-1.9755
G01 X71.8564 Y49.2757 Z-1.7757
G01 X72.0562 Y49.4755 Z-1.5759
G01 X72.2560 Y49.6753 Z-1.3761
G01 X72.4558 Y49.8750 Z-1.1763
G01 X72.6056 Y50.0249 Z-1.0265
G01 X72.7240 Y50.1364 Z-0.9150
G01 X72.8373 Y50.2304 Z-0.8209
G01 X72.9398 Y50.3046 Z-0.7467
G01 X73.0335 Y50.3636 Z-0.6878
G01 X73.1203 Y50.4105 Z-0.6408
G01 X73.2017 Y50.4479 Z-0.6035
G01 X73.2787 Y50.4773 Z-0.5741
G01 X73.3475 Y50.4987 Z-0.5527
G01 X73.4139 Y50.5149 Z-0.5364
G01 X73.4741 Y50.5260 Z-0.5254
G01 X73.5333 Y50.5334 Z-0.5180
G01 X73.5873 Y50.5372 Z-0.5142
G01 X73.6817 Y50.5381 Z-0.5132
G01 X73.7808
G01 X73.8800
G01 X73.9791
G01 X74.0782
G01 X74.1774
G01 X74.2765
G01 X74.3757
G01 X74.4748
G01 X74.5740
G01 X74.6731
G01 X74.7722
G01 X74.8714
G01 X74.9705
G01 X75.0697
G01 X75.1688
G01 X75.2679
G01 X75.3671
G01 X75.4662
G01 X75.5654
G01 X75.6645
G01 X75.7636
G01 X75.8628
G01 X75.9619
G01 X76.0611
G01 X76.1602
G01 X76.2594
G01 X76.3585
G01 X76.4576
G01 X76.5568
G01 X76.6559
G01 X76.7551
G01 X76.8542
G01 X76.9533
G01 X77.0525
G01 X77.1516
G01 X77.2508 Y50.4710 Z-0.4461
G01 X77.4491 Y50.2727 Z-0.2479
G01 X77.5482 Y50.1736 Z-0.1487
G01 X77.6473 Y50.0745 Z-0.0496
G01 X77.6969 Y50.0249 Z0.0000
G01 X77.6456 Y50.0762 Z-0.0513
G01 X77.5429 Y50.1789 Z-0.1540
G01 X77.4403 Y50.2815 Z-0.2566
G01 X77.3376 Y50.3842 Z-0.3593
G01 X77.2350 Y50.4868 Z-0.4619
G01 Y50.5895
G01 X77.4403 Y50.7947 Z-0.2566
G01 X77.5429 Y50.8974 Z-0.1540
G01 X77.6456 Y51.0000 Z-0.0513
G01 X77.6969 Y51.0514 Z0.0000
G01 X77.6470 Y51.0014 Z-0.0499
G01 X77.5471 Y50.9015 Z-0.1498
G01 X77.4472 Y50.8016 Z-0.2497
G01 X77.3473 Y50.7018 Z-0.3496
G01 X77.2474 Y50.6019 Z-0.4495
G01 X77.1475 Y50.5381 Z-0.5132
G01 X77.0476
G01 X76.9477
G01 X76.8479
G01 X76.7480
G01 X76.6481
G01 X76.5482
G01 X76.4483
G01 X76.3484
G01 X76.2485
G01 X76.1486
G01 X76.0487
G01 X75.9489
G01 X75.8490
G01 X75.7491
G01 X75.6492
G01 X75.5493
G01 X75.4494
G01 X75.3495
G01 X75.2496
G01 X75.1497
G01 X75.0499
G01 X74.9500
G01 X74.8501
G01 X74.7502
G01 X74.6503
G01 X74.5504
G01 X74.4505
G01 X74.3506
G01 X74.2507
G01 X74.1509
G01 X74.0510
G01 X73.9511
G01 X73.8512
G01 X73.7513
G01 X73.6514
G01 X73.5515 Y50.5350 Z-0.5164
G01 X73.4516 Y50.5223 Z-0.5291
G01 X73.3518 Y50.4998 Z-0.5515
G01 X73.2519 Y50.4677 Z-0.5837
G01 X73.1520 Y50.4258 Z-0.6255
G01 X73.0521 Y50.3743 Z-0.6771
G01 X72.9522 Y50.3129 Z-0.7384
G01 X72.8523 Y50.2419 Z-0.8094
G01 X72.7524 Y50.1612 Z-0.8902
G01 X72.6525 Y50.0707 Z-0.9807
G01 X72.5526 Y49.9719 Z-1.0795
G01 X72.4528 Y49.8720 Z-1.1794
G01 X72.3529 Y49.7721 Z-1.2792
G01 X72.2530 Y49.6722 Z-1.3791
G01 X72.1531 Y49.5723 Z-1.4790
G01 X72.0532 Y49.4724 Z-1.5789
G01 X71.9533 Y49.3726 Z-1.6788
G01 X71.8534 Y49.2727 Z-1.7787
G01 X71.7535 Y49.1728 Z-1.8786
G01 X71.6536 Y49.0729 Z-1.9785
G01 X71.5538 Y48.9730 Z-2.0784
G01 X71.4539 Y48.8731 Z-2.1782
G01 X71.3540 Y48.7732 Z-2.2781
G01 X71.2541 Y48.6733 Z-2.3780
G01 X71.1542 Y48.5735 Z-2.4779
G01 X71.0543 Y48.4736 Z-2.5778
G01 X70.9544
G01 X70.7547 Y48.6733 Z-2.3780
G01 X70.5549 Y48.8731 Z-2.1782
G01 X70.3551 Y49.0729 Z-1.9785
G01 X70.1553 Y49.2727 Z-1.7787
G01 X69.9555 Y49.4724 Z-1.5789
G01 X69.7558 Y49.6722 Z-1.3791
G01 X69.5560 Y49.8720 Z-1.1794
G01 X69.3562 Y50.0707 Z-0.9807
G01 X69.1564 Y50.2419 Z-0.8094
G01 X69.0565 Y50.3129 Z-0.7384
G01 X68.9567 Y50.3742 Z-0.6771
G01 X68.8568 Y50.4258 Z-0.6255
G01 X68.7569 Y50.4677 Z-0.5837
G01 X68.6570 Y50.4998 Z-0.5515
G01 X68.5571 Y50.5223 Z-0.5291
G01 X68.4572 Y50.5350 Z-0.5164
G01 X68.3573 Y50.5381 Z-0.5132
G01 X68.2574
G01 X68.1576
G01 X68.0577
G01 X67.9578
G01 X67.8579
G01 X67.7580
G01 X67.6581
G01 X67.5582
G01 X67.4583
G01 X67.3584
G01 X67.2586
G01 X67.1587
G01 X67.0588
G01 X66.9589
G01 X66.8590
G01 X66.7591
G01 X66.6592
G01 X66.5593
G01 X66.4594
G01 X66.3596
G01 X66.2597
G01 X66.1598
G01 X66.0599
G01 X65.9600
G01 X65.8601
G01 X65.7602
G01 X65.6603
G01 X65.5604
G01 X65.4606
G01 X65.3607
G01 X65.2608
G01 X65.1609
G01 X65.0610
G01 X64.9611
G01 X64.8612
G01 X64.7613 Y50.6019 Z-0.4495
G01 X64.5616 Y50.8016 Z-0.2497
G01 X64.4617 Y50.9015 Z-0.1498
G01 X64.3618 Y51.0014 Z-0.0499
G01 X64.3118 Y51.0514 Z0.0000
G01 X64.3632 Y51.0000 Z-0.0513
G01 X64.4658 Y50.8974 Z-0.1540
G01 X64.5685 Y50.7947 Z-0.2566
G01 X64.6711 Y50.6921 Z-0.3593
G01 X64.7738 Y50.5895 Z-0.4619
G01 Y50.4868
G01 X64.5685 Y50.2815 Z-0.2566
G01 X64.4658 Y50.1789 Z-0.1540
G01 X64.3632 Y50.0762 Z-0.0513
G01 X64.3118 Y50.0249 Z0.0000
G00 Z5.0000
G00 X103.7644 Y36.8215
G01 Z-2.8164
G01 X103.7661 Y36.9159 Z-2.8162
G01 X103.7678 Y37.0103 Z-2.8160
G01 X103.7694 Y37.1047 Z-2.8158
G01 X103.7711 Y37.1991 Z-2.8156
G01 X103.7728 Y37.2935 Z-2.8154
G01 Y37.4011 Z-2.8138
G01 X103.7724 Y37.5001 Z-2.8127
G01 X103.7719 Y37.5992 Z-2.8116
G01 X103.7714 Y37.6982 Z-2.8105
G01 X103.7710 Y37.7972 Z-2.8094
G01 X103.7689 Y37.9021 Z-2.8066
G01 X103.7668 Y37.9995 Z-2.8040
G01 X103.7648 Y38.0968 Z-2.8013
G01 X103.7623 Y38.1942 Z-2.7991
G01 X103.7596 Y38.2915 Z-2.7971
G01 X103.7553 Y38.3905 Z-2.7934
G01 X103.7511 Y38.4862 Z-2.7899
G01 X103.7469 Y38.5820 Z-2.7863
G01 X103.7427 Y38.6778 Z-2.7827
G01 X103.7385 Y38.7735 Z-2.7791
G01 X103.7326 Y38.8671 Z-2.7741
G01 X103.7263 Y38.9613 Z-2.7696
G01 X103.7199 Y39.0555 Z-2.7650
G01 X103.7135 Y39.1497 Z-2.7605
G01 X103.6994 Y39.3325 Z-2.7501
G01 X103.6915 Y39.4254 Z-2.7440
G01 X103.6835 Y39.5182 Z-2.7379
G01 X103.6751 Y39.6110 Z-2.7322
G01 X103.6570 Y39.7880 Z-2.7202
G01 X103.6468 Y39.8794 Z-2.7131
G01 X103.6366 Y39.9709 Z-2.7060
G01 X103.6265 Y40.0623 Z-2.6990
G01 X103.6162 Y40.1532 Z-2.6919
G01 X103.6019 Y40.2615 Z-2.6817
G01 X103.5870 Y40.3697 Z-2.6721
G01 X103.5720 Y40.4778 Z-2.6625
G01 X103.5570 Y40.5860 Z-2.6530
G01 X103.5392 Y40.6994 Z-2.6408
G01 X103.5223 Y40.8063 Z-2.6292
G01 X103.5053 Y40.9131 Z-2.6178
G01 X103.4876 Y41.0198 Z-2.6072
G01 X103.4670 Y41.1305 Z-2.5940
G01 X103.4473 Y41.2360 Z-2.5813
G01 X103.4276 Y41.3415 Z-2.5686
G01 X103.4080 Y41.4470 Z-2.5560
G01 X103.3853 Y41.5560 Z-2.5409
G01 X103.3627 Y41.6602 Z-2.5272
G01 X103.3401 Y41.7644 Z-2.5134
G01 X103.3176 Y41.8686 Z-2.4997
G01 X103.2920 Y41.9765 Z-2.4833
G01 X103.2674 Y42.0799 Z-2.4674
G01 X103.2425 Y42.1832 Z-2.4520
G01 X103.2170 Y42.2862 Z-2.4372
G01 X103.1881 Y42.3938 Z-2.4195
G01 X103.1605 Y42.4960 Z-2.4026
G01 X103.1329 Y42.5983 Z-2.3857
G01 X103.1054 Y42.7006 Z-2.3688
G01 X103.0731 Y42.8089 Z-2.3493
G01 X103.0424 Y42.9101 Z-2.3314
G01 X103.0117 Y43.0114 Z-2.3135
G01 X102.9811 Y43.1126 Z-2.2955
G01 X102.9453 Y43.2225 Z-2.2737
G01 X102.9123 Y43.3233 Z-2.2538
G01 X102.8785 Y43.4235 Z-2.2348
G01 X102.8446 Y43.5237 Z-2.2159
G01 X102.8042 Y43.6358 Z-2.1924
G01 X102.7681 Y43.7357 Z-2.1712
G01 X102.7320 Y43.8356 Z-2.1501
G01 X102.6949 Y43.9350 Z-2.1300
G01 X102.6493 Y44.0497 Z-2.1046
G01 X102.6098 Y44.1488 Z-2.0825
G01 X102.5703 Y44.2478 Z-2.0604
G01 X102.5307 Y44.3469 Z-2.0383
G01 X102.4795 Y44.4651 Z-2.0106
G01 X102.4364 Y44.5632 Z-1.9876
G01 X102.3933 Y44.6614 Z-1.9647
G01 X102.3503 Y44.7596 Z-1.9417
G01 X102.2934 Y44.8822 Z-1.9106
G01 X102.2467 Y44.9795 Z-1.8869
G01 X102.1999 Y45.0767 Z-1.8632
G01 X102.1531 Y45.1740 Z-1.8394
G01 X102.0893 Y45.3009 Z-1.8057
G01 X102.0391 Y45.3976 Z-1.7808
G01 X101.9884 Y45.4938 Z-1.7564
G01 X101.9378 Y45.5901 Z-1.7321
G01 X101.8659 Y45.7212 Z-1.6961
G01 X101.8120 Y45.8171 Z-1.6701
G01 X101.7573 Y45.9123 Z-1.6453
G01 X101.7027 Y46.0075 Z-1.6205
G01 X101.6168 Y46.1525 Z-1.5802
G01 X101.5595 Y46.2465 Z-1.5548
G01 X101.5015 Y46.3398 Z-1.5303
G01 X101.4435 Y46.4331 Z-1.5058
G01 X101.3621 Y46.5584 Z-1.4697
G01 X101.3010 Y46.6492 Z-1.4443
G01 X101.2392 Y46.7394 Z-1.4198
G01 X101.1775 Y46.8296 Z-1.3953
G01 X101.0884 Y46.9542 Z-1.3581
G01 X101.0230 Y47.0414 Z-1.3334
G01 X100.9574 Y47.1284 Z-1.3090
G01 X100.8918 Y47.2153 Z-1.2845
G01 X100.7936 Y47.3385 Z-1.2474
G01 X100.7240 Y47.4220 Z-1.2232
G01 X100.6544 Y47.5056 Z-1.1991
G01 X100.5848 Y47.5891 Z-1.1750
G01 X100.4760 Y47.7095 Z-1.1392
G01 X100.4023 Y47.7893 Z-1.1156
G01 X100.3285 Y47.8691 Z-1.0920
G01 X100.2539 Y47.9478 Z-1.0699
G01 X100.1344 Y48.0649 Z-1.0355
G01 X100.0563 Y48.1408 Z-1.0127
G01 X99.9774 Y48.2153 Z-0.9915
G01 X99.8965 Y48.2865 Z-0.9742
G01 X99.8483 Y48.3278 Z-0.9634
G01 X99.7649 Y48.3976 Z-0.9437
G01 X99.6811 Y48.4668 Z-0.9247
G01 X99.5956 Y48.5330 Z-0.9091
G01 X99.5101 Y48.5991 Z-0.8937
G01 X99.4557 Y48.6402 Z-0.8832
G01 X99.3674 Y48.7042 Z-0.8661
G01 X99.2776 Y48.7653 Z-0.8522
G01 X99.1878 Y48.8265 Z-0.8383
G01 X99.0980 Y48.8876 Z-0.8244
G01 X99.0370 Y48.9266 Z-0.8157
G01 X98.9432 Y48.9829 Z-0.8031
G01 X98.8493 Y49.0392 Z-0.7906
G01 X98.7554 Y49.0954 Z-0.7781
G01 X98.6603 Y49.1490 Z-0.7685
G01 X98.5931 Y49.1853 Z-0.7615
G01 X98.4954 Y49.2368 Z-0.7501
G01 X98.3976 Y49.2881 Z-0.7389
G01 X98.2986 Y49.3366 Z-0.7308
G01 X98.1995 Y49.3849 Z-0.7229
G01 X98.1354 Y49.4154 Z-0.7172
G01 X98.0508 Y49.4544 Z-0.7086
G01 X97.9655 Y49.4912 Z-0.7023
G01 X97.8800 Y49.5276 Z-0.6964
G01 X97.7945 Y49.5641 Z-0.6905
G01 X97.7090 Y49.6005 Z-0.6846
G01 X97.6485 Y49.6250 Z-0.6803
G01 X97.5601 Y49.6578 Z-0.6749
G01 X97.4718 Y49.6905 Z-0.6696
G01 X97.3834 Y49.7233 Z-0.6642
G01 X97.2951 Y49.7560 Z-0.6588
G01 X97.2062 Y49.7870 Z-0.6554
G01 X97.1410 Y49.8085 Z-0.6525
G01 X97.0499 Y49.8377 Z-0.6476
G01 X96.9588 Y49.8669 Z-0.6426
G01 X96.8676 Y49.8959 Z-0.6378
G01 X96.7760 Y49.9230 Z-0.6350
G01 X96.6843 Y49.9500 Z-0.6323
G01 X96.6151 Y49.9697 Z-0.6295
G01 X96.5213 Y49.9954 Z-0.6248
G01 X96.4274 Y50.0205 Z-0.6207
G01 X96.3331 Y50.0442 Z-0.6181
G01 X96.2388 Y50.0679 Z-0.6155
G01 X96.1445 Y50.0916 Z-0.6129
G01 X96.0715 Y50.1092 Z-0.6101
G01 X95.9748 Y50.1307 Z-0.6064
G01 X95.8780 Y50.1511 Z-0.6038
G01 X95.7811 Y50.1715 Z-0.6013
G01 X95.6843 Y50.1919 Z-0.5987
G01 X95.5874 Y50.2123 Z-0.5961
G01 X95.5104 Y50.2270 Z-0.5942
G01 X95.4110 Y50.2442 Z-0.5916
G01 X95.3116 Y50.2614 Z-0.5890
G01 X95.2122 Y50.2786 Z-0.5864
G01 X95.1129 Y50.2958 Z-0.5838
G01 X95.0133 Y50.3119 Z-0.5823
G01 X94.9325 Y50.3238 Z-0.5808
G01 X94.8306 Y50.3379 Z-0.5781
G01 X94.7287 Y50.3520 Z-0.5753
G01 X94.6267 Y50.3661 Z-0.5726
G01 X94.5247 Y50.3793 Z-0.5708
G01 X94.4226 Y50.3918 Z-0.5696
G01 X94.3382 Y50.4014 Z-0.5679
G01 X94.2337 Y50.4125 Z-0.5650
G01 X94.1292 Y50.4235 Z-0.5621
G01 X94.0247 Y50.4339 Z-0.5598
G01 X93.9201 Y50.4435 Z-0.5584
G01 X93.8155 Y50.4530 Z-0.5569
G01 X93.7275 Y50.4604 Z-0.5550
G01 X93.6204 Y50.4684 Z-0.5518
G01 X93.5134 Y50.4762 Z-0.5489
G01 X93.4063 Y50.4828 Z-0.5472
G01 X93.2992 Y50.4895 Z-0.5454
G01 X93.1922 Y50.4961 Z-0.5436
G01 X93.1083 Y50.5007 Z-0.5417
G01 X93.0144 Y50.5051 Z-0.5387
G01 X92.9204 Y50.5087 Z-0.5364
G01 X92.8265 Y50.5120 Z-0.5346
G01 X92.7325 Y50.5152 Z-0.5327
G01 X92.6386 Y50.5184 Z-0.5309
G01 X92.5447 Y50.5217 Z-0.5291
G01 X92.4554 Y50.5244 Z-0.5270
G01 X92.3550 Y50.5265 Z-0.5248
G01 X92.2547 Y50.5281 Z-0.5233
G01 X92.1544 Y50.5297 Z-0.5217
G01 X92.0541 Y50.5312 Z-0.5201
G01 X91.9537 Y50.5328 Z-0.5186
G01 X91.8534 Y50.5343 Z-0.5170
G01 X91.7531 Y50.5353 Z-0.5160
G01 X91.6527 Y50.5358 Z-0.5155
G01 X91.5524 Y50.5363 Z-0.5150
G01 X91.4521 Y50.5368 Z-0.5145
G01 X91.3518 Y50.5373 Z-0.5140
G01 X91.2514 Y50.5378 Z-0.5135
G01 X91.1511 Y50.5381 Z-0.5132
G01 X91.0508
G01 X90.9504
G01 X90.8501
G01 X90.7498
G01 X90.6495
G01 X90.5491
G01 X90.4488
G01 X90.3485
G01 X90.2481
G01 X90.1478
G01 X90.0475
G01 X89.9472
G01 X89.8468
G01 X89.7465
G01 X89.6462
G01 X89.5458
G01 X89.4455
G01 X89.3452
G01 X89.2449 Y50.5333 Z-0.5180
G01 X89.1445 Y50.5187 Z-0.5326
G01 X89.0442 Y50.4943 Z-0.5570
G01 X88.9439 Y50.4601 Z-0.5912
G01 X88.8435 Y50.4161 Z-0.6352
G01 X88.7432 Y50.3623 Z-0.6891
G01 X88.6429 Y50.2987 Z-0.7527
G01 X88.5426 Y50.2252 Z-0.8261
G01 X88.4422 Y50.1420 Z-0.9094
G01 X88.3419 Y50.0489 Z-1.0024
G01 X88.2416 Y49.9489 Z-1.1025
G01 X88.1413 Y49.8486 Z-1.2028
G01 X88.0409 Y49.7482 Z-1.3031
G01 X87.9406 Y49.6479 Z-1.4034
G01 X87.8403 Y49.5476 Z-1.5038
G01 X87.7399 Y49.4473 Z-1.6041
G01 X87.6396 Y49.3469 Z-1.7044
G01 X87.5393 Y49.2466 Z-1.8048
G01 X87.4390 Y49.1463 Z-1.9051
G01 X87.3386 Y49.0460 Z-2.0054
G01 X87.2383 Y48.9456 Z-2.1057
G01 X87.1380 Y48.8453 Z-2.2061
G01 X87.0376 Y48.7450 Z-2.3064
G01 X86.9373 Y48.6446 Z-2.4067
G01 X86.8370 Y48.5443 Z-2.5071
G01 X86.7367 Y48.4443 Z-2.6070
G01 X86.5360 Y48.6450 Z-2.4064
G01 X86.3353 Y48.8456 Z-2.2057
G01 X86.1347 Y49.0463 Z-2.0051
G01 X85.9340 Y49.2469 Z-1.8044
G01 X85.7334 Y49.4476 Z-1.6038
G01 X85.5327 Y49.6483 Z-1.4031
G01 X85.3321 Y49.8489 Z-1.2025
G01 X85.1314 Y50.0493 Z-1.0021
G01 X84.9307 Y50.2255 Z-0.8259
G01 X84.8304 Y50.2989 Z-0.7525
G01 X84.7301 Y50.3625 Z-0.6889
G01 X84.6298 Y50.4163 Z-0.6351
G01 X84.5294 Y50.4603 Z-0.5911
G01 X84.4291 Y50.4944 Z-0.5569
G01 X84.3288 Y50.5188 Z-0.5326
G01 X84.2284 Y50.5334 Z-0.5180
G01 X84.1281 Y50.5381 Z-0.5132
G01 X84.0278
G01 X83.9275
G01 X83.8271
G01 X83.7268
G01 X83.6265
G01 X83.5261
G01 X83.4258
G01 X83.3255
G01 X83.2252
G01 X83.1248
G01 X83.0245
G01 X82.9242
G01 X82.8238
G01 X82.7235
G01 X82.6232
G01 X82.5229
G01 X82.4225
G01 X82.3222
G01 X82.2219
G01 X82.1216
G01 X82.0212
G01 X81.9209
G01 X81.8206
G01 X81.7202
G01 X81.6199
G01 X81.5196
G01 X81.4193
G01 X81.3189
G01 X81.2186
G01 X81.1183
G01 X81.0179
G01 X80.9176
G01 X80.8173
G01 X80.7170
G01 X80.6166
G01 X80.5163 Y50.5999 Z-0.4515
G01 X80.3156 Y50.8005 Z-0.2508
G01 X80.2153 Y50.9009 Z-0.1505
G01 X80.1150 Y51.0012 Z-0.0502
G01 X80.0648 Y51.0514 Z0.0000
G01 X80.1161 Y51.0000 Z-0.0513
G01 X80.2188 Y50.8974 Z-0.1540
G01 X80.3214 Y50.7947 Z-0.2566
G01 X80.4241 Y50.6921 Z-0.3593
G01 X80.5267 Y50.5895 Z-0.4619
G01 Y50.4868
G01 X80.3214 Y50.2815 Z-0.2566
G01 X80.2188 Y50.1789 Z-0.1540
G01 X80.1161 Y50.0762 Z-0.0513
G01 X80.0648 Y50.0249 Z0.0000
G01 X80.1144 Y50.0745 Z-0.0496
G01 X80.2135 Y50.1736 Z-0.1487
G01 X80.3127 Y50.2727 Z-0.2479
G01 X80.4118 Y50.3719 Z-0.3470
G01 X80.5110 Y50.4710 Z-0.4461
G01 X80.6101 Y50.5381 Z-0.5132
G01 X80.7092
G01 X80.8084
G01 X80.9075
G01 X81.0067
G01 X81.1058
G01 X81.2049
G01 X81.3041
G01 X81.4032
G01 X81.5024
G01 X81.6015
G01 X81.7006
G01 X81.7998
G01 X81.8989
G01 X81.9981
G01 X82.0972
G01 X82.1964
G01 X82.2955
G01 X82.3946
G01 X82.4938
G01 X82.5929
G01 X82.6921
G01 X82.7912
G01 X82.8903
G01 X82.9895
G01 X83.0886
G01 X83.1878
G01 X83.2869
G01 X83.3860
G01 X83.4852
G01 X83.5843
G01 X83.6835
G01 X83.7826
G01 X83.8818
G01 X83.9809
G01 X84.0800
G01 X84.1341
G01 X84.1834 Y50.5367 Z-0.5146
G01 X84.2330 Y50.5329 Z-0.5184
G01 X84.2784 Y50.5273 Z-0.5240
G01 X84.3245 Y50.5196 Z-0.5317
G01 X84.3666 Y50.5108 Z-0.5406
G01 X84.4095 Y50.5000 Z-0.5514
G01 X84.4483 Y50.4886 Z-0.5627
G01 X84.4881 Y50.4755 Z-0.5758
G01 X84.5236 Y50.4625 Z-0.5889
G01 X84.5600 Y50.4479 Z-0.6035
