(Project KidWallRuler5)
(Created by Estlcam version 11 build 11.029)
(Machining time about 00:00:39 hours)

(Required tools:)
(1/2" Chamfer)
G21
G90
G94
M03 S24000
G00 Z5.0000


(No. 1: Carve 1)
G00 X7.3583 Y47.2969
G01 Z-1.1683 F1270 S24000
G01 X7.2800 Y47.1713 Z-1.1320
G01 X7.2207 Y47.0755 Z-1.1045
G01 X7.1614 Y46.9796 Z-1.0771
G01 X7.0854 Y46.8561 Z-1.0420
G01 X7.0265 Y46.7595 Z-1.0147
G01 X6.9676 Y46.6629 Z-0.9875
G01 X6.8480 Y46.4885 Z-0.9317
G01 X6.7518 Y46.3712 Z-0.8864
G01 X6.6578 Y46.2573 Z-0.8420
G01 X6.5659 Y46.1470 Z-0.7986
G01 X6.4761 Y46.0402 Z-0.7561
G01 X6.3883 Y45.9370 Z-0.7147
G01 X6.3027 Y45.8372 Z-0.6741
G01 X6.2190 Y45.7408 Z-0.6345
G01 X6.1374 Y45.6479 Z-0.5959
G01 X6.0578 Y45.5584 Z-0.5582
G01 X5.9806 Y45.4695 Z-0.5199
G01 X5.9057 Y45.3808 Z-0.4810
G01 X5.8327 Y45.2933 Z-0.4419
G01 X5.7615 Y45.2060 Z-0.4022
G01 X5.6920 Y45.1186 Z-0.3616
G01 X5.6238 Y45.0299 Z-0.3196
G01 X5.5615 Y44.9436 Z-0.2780
G01 Z-0.5559
G01 X5.6238 Y45.0299 Z-0.6392
G01 X5.6920 Y45.1186 Z-0.7232
G01 X5.7615 Y45.2060 Z-0.8043
G01 X5.8327 Y45.2933 Z-0.8838
G01 X5.9057 Y45.3808 Z-0.9620
G01 X5.9806 Y45.4695 Z-1.0398
G01 X6.0578 Y45.5584 Z-1.1163
G01 X6.1374 Y45.6479 Z-1.1918
G01 X6.2190 Y45.7408 Z-1.2691
G01 X6.3027 Y45.8372 Z-1.3483
G01 X6.3883 Y45.9370 Z-1.4293
G01 X6.4761 Y46.0402 Z-1.5123
G01 X6.5659 Y46.1470 Z-1.5972
G01 X6.6578 Y46.2573 Z-1.6840
G01 X6.7518 Y46.3712 Z-1.7727
G01 X6.8480 Y46.4885 Z-1.8634
G01 X6.9676 Y46.6629 Z-1.9750
G01 X7.0265 Y46.7595 Z-2.0295
G01 X7.0854 Y46.8561 Z-2.0839
G01 X7.1614 Y46.9796 Z-2.1542
G01 X7.2207 Y47.0755 Z-2.2091
G01 X7.2800 Y47.1713 Z-2.2640
G01 X7.3583 Y47.2969 Z-2.3366
G00 Z5.0000
G00 X12.3913 Y79.0798
G01 Z-2.9606
G01 X12.2914 Y78.9843 Z-2.9128
G01 X12.1915 Y78.8888 Z-2.8651
G01 X12.0915 Y78.7933 Z-2.8173
G01 X11.9916 Y78.6978 Z-2.7696
G01 X11.8916 Y78.6023 Z-2.7218
G01 X11.7917 Y78.5068 Z-2.6741
G01 X11.6918 Y78.4113 Z-2.6263
G01 X11.5918 Y78.3158 Z-2.5786
G01 X11.4919 Y78.2203 Z-2.5308
G01 X11.3919 Y78.1248 Z-2.4831
G01 X11.2920 Y78.0293 Z-2.4353
G01 X11.1921 Y77.9338 Z-2.3876
G01 X11.0921 Y77.8383 Z-2.3398
G01 X10.9922 Y77.7428 Z-2.2921
G01 X10.8922 Y77.6473 Z-2.2443
G01 X10.7923 Y77.5518 Z-2.1966
G01 X10.6923 Y77.4563 Z-2.1488
G01 X10.5924 Y77.3608 Z-2.1011
G01 X10.4925 Y77.2653 Z-2.0533
G01 X10.3925 Y77.1698 Z-2.0056
G01 X10.2926 Y77.0743 Z-1.9578
G01 X10.1926 Y76.9788 Z-1.9101
G01 X10.0927 Y76.8833 Z-1.8623
G01 X9.9928 Y76.7878 Z-1.8146
G01 X9.8928 Y76.6923 Z-1.7668
G01 X9.8414 Y76.6432 Z-1.7423
G01 X9.8113 Y76.6142 Z-1.7279
G01 X9.7816 Y76.5855 Z-1.7137
G01 X9.7524 Y76.5570 Z-1.6998
G01 X9.7238 Y76.5287 Z-1.6861
G01 X9.6955 Y76.5007 Z-1.6726
G01 X9.6678 Y76.4728 Z-1.6594
G01 X9.6405 Y76.4452 Z-1.6464
G01 X9.6136 Y76.4178 Z-1.6336
G01 X9.5871 Y76.3905 Z-1.6210
G01 X9.5611 Y76.3635 Z-1.6086
G01 X9.5355 Y76.3367 Z-1.5964
G01 X9.5103 Y76.3100 Z-1.5844
G01 X9.4855 Y76.2836 Z-1.5726
G01 X9.4611 Y76.2573 Z-1.5610
G01 X9.4370 Y76.2312 Z-1.5496
G01 X9.4134 Y76.2053 Z-1.5384
G01 X9.3901 Y76.1796 Z-1.5274
G01 X9.3671 Y76.1541 Z-1.5165
G01 X9.3446 Y76.1287 Z-1.5058
G01 X9.3223 Y76.1035 Z-1.4952
G01 X9.3004 Y76.0784 Z-1.4849
G01 X9.2789 Y76.0536 Z-1.4747
G01 X9.2577 Y76.0289 Z-1.4646
G01 X9.2368 Y76.0043 Z-1.4547
G01 X9.2162 Y75.9799 Z-1.4450
G01 X9.1959 Y75.9557 Z-1.4354
G01 X9.1759 Y75.9316 Z-1.4260
G01 X9.1369 Y75.8838 Z-1.4076
G01 X9.0990 Y75.8367 Z-1.3897
G01 X9.0622 Y75.7901 Z-1.3724
G01 X9.0265 Y75.7441 Z-1.3556
G01 X8.9918 Y75.6986 Z-1.3394
G01 X8.9582 Y75.6536 Z-1.3236
G01 X8.9255 Y75.6091 Z-1.3083
G01 X8.8938 Y75.5651 Z-1.2934
G01 X8.8630 Y75.5215 Z-1.2790
G01 X8.8330 Y75.4784 Z-1.2650
G01 X8.8039 Y75.4358 Z-1.2515
G01 X8.7757 Y75.3936 Z-1.2383
G01 X8.7483 Y75.3518 Z-1.2256
G01 X8.7216 Y75.3104 Z-1.2132
G01 X8.6957 Y75.2694 Z-1.2012
G01 X8.6705 Y75.2288 Z-1.1895
G01 X8.6460 Y75.1885 Z-1.1782
G01 X8.6223 Y75.1486 Z-1.1672
G01 X8.5992 Y75.1091 Z-1.1566
G01 X8.5767 Y75.0698 Z-1.1463
G01 X8.5549 Y75.0310 Z-1.1363
G01 X8.5337 Y74.9924 Z-1.1266
G01 X8.5131 Y74.9541 Z-1.1171
G01 X8.4931 Y74.9162 Z-1.1080
G01 X8.4737 Y74.8785 Z-1.0992
G01 X8.4548 Y74.8411 Z-1.0906
G01 X8.4364 Y74.8040 Z-1.0823
G01 X8.4186 Y74.7671 Z-1.0742
G01 X8.4013 Y74.7305 Z-1.0664
G01 X8.3845 Y74.6941 Z-1.0588
G01 X8.3682 Y74.6580 Z-1.0515
G01 X8.3524 Y74.6221 Z-1.0444
G01 X8.3370 Y74.5864 Z-1.0375
G01 X8.3221 Y74.5510 Z-1.0309
G01 X8.3077 Y74.5157 Z-1.0245
G01 X8.2937 Y74.4806 Z-1.0183
G01 X8.2735 Y74.4284 Z-1.0094
G01 X8.2542 Y74.3766 Z-1.0009
G01 X8.2358 Y74.3252 Z-0.9929
G01 X8.2183 Y74.2742 Z-0.9853
G01 X8.2017 Y74.2235 Z-0.9782
G01 X8.1859 Y74.1731 Z-0.9714
G01 X8.1709 Y74.1230 Z-0.9651
G01 X8.1567 Y74.0732 Z-0.9591
G01 X8.1433 Y74.0237 Z-0.9535
G01 X8.1306 Y73.9745 Z-0.9483
G01 X8.1187 Y73.9254 Z-0.9435
G01 X8.1075 Y73.8766 Z-0.9390
G01 X8.0970 Y73.8280 Z-0.9349
G01 X8.0872 Y73.7795 Z-0.9311
G01 X8.0781 Y73.7312 Z-0.9276
G01 X8.0697 Y73.6831 Z-0.9245
G01 X8.0620 Y73.6350 Z-0.9218
G01 X8.0549 Y73.5871 Z-0.9193
G01 X8.0484 Y73.5393 Z-0.9172
G01 X8.0426 Y73.4915 Z-0.9154
G01 X8.0375 Y73.4438 Z-0.9139
G01 X8.0316 Y73.3803 Z-0.9124
G01 X8.0269 Y73.3168 Z-0.9114
G01 X8.0232 Y73.2532 Z-0.9111
G01 X8.0202 Y73.1874
G01 X8.0158 Y73.0876
G01 X8.0114 Y72.9877 Z-0.9112
G01 X8.0070 Y72.8878
G01 X8.0025 Y72.7879 Z-0.9113
G01 X7.9981 Y72.6881 Z-0.9114
G01 X7.9937 Y72.5882
G01 X7.9892 Y72.4883 Z-0.9115
G01 X7.9848 Y72.3885
G01 X7.9804 Y72.2886 Z-0.9116
G01 X7.9760 Y72.1887
G01 X7.9715 Y72.0889 Z-0.9117
G01 X7.9671 Y71.9890
G01 X7.9627 Y71.8891 Z-0.9118
G01 X7.9582 Y71.7892
G01 X7.9538 Y71.6894 Z-0.9119
G01 X7.9494 Y71.5895 Z-0.9120
G01 X7.9450 Y71.4896
G01 X7.9405 Y71.3898 Z-0.9121
G01 X7.9361 Y71.2899
G01 X7.9317 Y71.1900 Z-0.9122
G01 X7.9272 Y71.0901
G01 X7.9228 Y70.9903 Z-0.9123
G01 X7.9184 Y70.8904
G01 X7.9139 Y70.7905 Z-0.9124
G01 X7.9095 Y70.6907 Z-0.9125
G01 X7.9051 Y70.5908
G01 X7.9007 Y70.4909 Z-0.9126
G01 X7.8962 Y70.3911
G01 X7.8918 Y70.2912 Z-0.9127
G01 X7.8874 Y70.1913
G01 X7.8829 Y70.0914 Z-0.9128
G01 X7.8785 Y69.9916
G01 X7.8741 Y69.8917 Z-0.9129
G01 X7.8697 Y69.7918 Z-0.9130
G01 X7.8652 Y69.6920
G01 X7.8608 Y69.5921 Z-0.9131
G01 X7.8564 Y69.4922
G01 X7.8519 Y69.3924 Z-0.9132
G01 X7.8475 Y69.2925
G01 X7.8431 Y69.1926 Z-0.9133
G01 X7.8387 Y69.0927
G01 X7.8342 Y68.9929 Z-0.9134
G01 X7.8298 Y68.8930
G01 X7.8254 Y68.7931 Z-0.9135
G01 X7.8209 Y68.6933 Z-0.9136
G01 X7.8165 Y68.5934
G01 X7.8121 Y68.4935 Z-0.9137
G01 X7.8076 Y68.3936
G01 X7.8032 Y68.2938 Z-0.9138
G01 X7.7988 Y68.1939
G01 X7.7944 Y68.0940 Z-0.9139
G01 X7.7899 Y67.9942
G01 X7.7855 Y67.8943 Z-0.9140
G01 X7.7811 Y67.7944 Z-0.9141
G01 X7.7766 Y67.6946
G01 X7.7722 Y67.5947 Z-0.9142
G01 X7.7678 Y67.4948
G01 X7.7634 Y67.3949 Z-0.9143
G01 X7.7589 Y67.2951
G01 X7.7545 Y67.1952 Z-0.9144
G01 X7.7501 Y67.0953
G01 X7.7456 Y66.9955 Z-0.9145
G01 X7.7412 Y66.8956 Z-0.9146
G01 X7.7368 Y66.7957
G01 X7.7324 Y66.6959 Z-0.9147
G01 X7.7279 Y66.5960
G01 X7.7235 Y66.4961 Z-0.9148
G01 X7.7191 Y66.3962
G01 X7.7146 Y66.2964 Z-0.9149
G01 X7.7102 Y66.1965
G01 X7.7058 Y66.0966 Z-0.9150
G01 X7.7013 Y65.9968
G01 X7.6969 Y65.8969 Z-0.9151
G01 X7.6925 Y65.7970 Z-0.9152
G01 X7.6881 Y65.6971
G01 X7.6836 Y65.5973 Z-0.9153
G01 X7.6792 Y65.4974
G01 X7.6748 Y65.3975 Z-0.9154
G01 X7.6703 Y65.2977
G01 X7.6659 Y65.1978 Z-0.9155
G01 X7.6615 Y65.0979
G01 X7.6571 Y64.9981 Z-0.9156
G01 X7.6526 Y64.8982 Z-0.9157
G01 X7.6482 Y64.7983
G01 X7.6438 Y64.6984 Z-0.9158
G01 X7.6393 Y64.5986
G01 X7.6349 Y64.4987 Z-0.9159
G01 X7.6305 Y64.3988
G01 X7.6261 Y64.2990 Z-0.9160
G01 X7.6216 Y64.1991
G01 X7.6172 Y64.0992 Z-0.9161
G01 X7.6128 Y63.9994 Z-0.9162
G01 X7.6083 Y63.8995
G01 X7.6039 Y63.7996 Z-0.9163
G01 X7.5995 Y63.6997
G01 X7.5950 Y63.5999 Z-0.9164
G01 X7.5906 Y63.5000
G01 X7.5862 Y63.4001 Z-0.9165
G01 X7.5818 Y63.3003
G01 X7.5773 Y63.2004 Z-0.9166
G01 X7.5729 Y63.1005
G01 X7.5685 Y63.0006 Z-0.9167
G01 X7.5640 Y62.9008 Z-0.9168
G01 X7.5596 Y62.8009
G01 X7.5552 Y62.7010 Z-0.9169
G01 X7.5508 Y62.6012
G01 X7.5463 Y62.5013 Z-0.9170
G01 X7.5419 Y62.4014
G01 X7.5375 Y62.3016 Z-0.9171
G01 X7.5330 Y62.2017
G01 X7.5286 Y62.1018 Z-0.9172
G01 X7.5242 Y62.0019 Z-0.9173
G01 X7.5198 Y61.9021
G01 X7.5153 Y61.8022 Z-0.9174
G01 X7.5109 Y61.7023
G01 X7.5065 Y61.6025 Z-0.9175
G01 X7.5020 Y61.5026
G01 X7.4976 Y61.4027 Z-0.9176
G01 X7.4932 Y61.3029
G01 X7.4887 Y61.2030 Z-0.9177
G01 X7.4843 Y61.1031 Z-0.9178
G01 X7.4799 Y61.0032
G01 X7.4755 Y60.9034 Z-0.9179
G01 X7.4710 Y60.8035
G01 X7.4666 Y60.7036 Z-0.9180
G01 X7.4622 Y60.6038
G01 X7.4577 Y60.5039 Z-0.9181
G01 X7.4533 Y60.4040
G01 X7.4489 Y60.3042 Z-0.9182
G01 X7.4445 Y60.2043
G01 X7.4400 Y60.1044 Z-0.9183
G01 X7.4356 Y60.0045 Z-0.9184
G01 X7.4312 Y59.9047
G01 X7.4267 Y59.8048 Z-0.9185
G01 X7.4223 Y59.7049
G01 X7.4179 Y59.6051 Z-0.9186
G01 X7.4135 Y59.5052
G01 X7.4090 Y59.4053 Z-0.9187
G01 X7.4046 Y59.3054
G01 X7.4002 Y59.2056 Z-0.9188
G01 X7.3957 Y59.1057 Z-0.9189
G01 X7.3913 Y59.0058
G01 X7.3869 Y58.9060 Z-0.9190
G01 X7.3825 Y58.8061
G01 X7.3780 Y58.7062 Z-0.9191
G01 X7.3736 Y58.6064
G01 X7.3692 Y58.5065 Z-0.9192
G01 X7.3647 Y58.4066
G01 X7.3603 Y58.3067 Z-0.9193
G01 X7.3559 Y58.2069
G01 X7.3514 Y58.1070 Z-0.9194
G01 X7.3470 Y58.0071 Z-0.9195
G01 X7.3426 Y57.9073
G01 X7.3382 Y57.8074 Z-0.9196
G01 X7.3337 Y57.7075
G01 X7.3293 Y57.6077 Z-0.9197
G01 X7.3249 Y57.5078
G01 X7.3204 Y57.4079 Z-0.9198
G01 X7.3160 Y57.3080
G01 X7.3116 Y57.2082 Z-0.9199
G01 X7.3072 Y57.1083 Z-0.9200
G01 X7.3027 Y57.0084
G01 X7.2983 Y56.9086 Z-0.9201
G01 X7.2939 Y56.8087
G01 X7.2894 Y56.7088 Z-0.9202
G01 X7.2850 Y56.6089
G01 X7.2806 Y56.5091 Z-0.9203
G01 X7.2762 Y56.4092
G01 X7.2717 Y56.3093 Z-0.9204
G01 X7.2673 Y56.2095 Z-0.9205
G01 X7.2629 Y56.1096
G01 X7.2584 Y56.0097 Z-0.9206
G01 X7.2540 Y55.9099
G01 X7.2496 Y55.8100 Z-0.9207
G01 X7.2451 Y55.7101
G01 X7.2407 Y55.6102 Z-0.9208
G01 X7.2363 Y55.5104
G01 X7.2319 Y55.4105 Z-0.9209
G01 X7.2274 Y55.3106
G01 X7.2230 Y55.2108 Z-0.9210
G01 X7.2186 Y55.1109 Z-0.9211
G01 X7.2141 Y55.0110
G01 X7.2097 Y54.9112 Z-0.9212
G01 X7.2053 Y54.8113
G01 X7.2009 Y54.7114 Z-0.9213
G01 X7.1964 Y54.6115
G01 X7.1920 Y54.5117 Z-0.9214
G01 X7.1876 Y54.4118
G01 X7.1831 Y54.3119 Z-0.9215
G01 X7.1787 Y54.2121 Z-0.9216
G01 X7.1743 Y54.1122
G01 X7.1699 Y54.0123 Z-0.9217
G01 X7.1654 Y53.9124
G01 X7.1610 Y53.8126 Z-0.9218
G01 X7.1566 Y53.7127
G01 X7.1521 Y53.6128 Z-0.9219
G01 X7.1477 Y53.5130
G01 X7.1433 Y53.4131 Z-0.9220
G01 X7.1388 Y53.3132 Z-0.9221
G01 X7.1344 Y53.2134
G01 X7.1300 Y53.1135 Z-0.9222
G01 X7.1256 Y53.0136
G01 X7.1211 Y52.9137 Z-0.9223
G01 X7.1167 Y52.8139
G01 X7.1123 Y52.7140 Z-0.9224
G01 X7.1078 Y52.6141
G01 X7.1034 Y52.5143 Z-0.9225
G01 X7.0990 Y52.4144
G01 X7.0946 Y52.3145 Z-0.9226
G01 X7.0901 Y52.2147 Z-0.9227
G01 X7.0857 Y52.1148
G01 X7.0813 Y52.0149 Z-0.9228
G01 X7.0768 Y51.9150
G01 X7.0724 Y51.8152 Z-0.9229
G01 X7.0680 Y51.7153
G01 X7.0636 Y51.6154 Z-0.9230
G01 X7.0591 Y51.5156
G01 X7.0547 Y51.4157 Z-0.9231
G01 X7.0503 Y51.3158 Z-0.9232
G01 X7.0458 Y51.2159
G01 X7.0414 Y51.1161 Z-0.9233
G01 X7.0370 Y51.0162
G01 X7.0325 Y50.9163 Z-0.9234
G01 X7.0281 Y50.8165
G01 X7.0237 Y50.7166 Z-0.9235
G01 X7.0193 Y50.6167
G01 X7.0148 Y50.5169 Z-0.9236
G01 X7.0104 Y50.4170 Z-0.9237
G01 X7.0060 Y50.3171
G01 X7.0015 Y50.2172 Z-0.9238
G01 X6.9971 Y50.1174
G01 X6.9927 Y50.0175 Z-0.9239
G01 X6.9883 Y49.9176
G01 X6.9838 Y49.8178 Z-0.9240
G01 X6.9794 Y49.7179
G01 X6.9750 Y49.6180 Z-0.9241
G01 X6.9705 Y49.5182
G01 X6.9661 Y49.4183 Z-0.9242
G01 X6.9622 Y49.3238 Z-0.9244
G01 X6.9607 Y49.2593 Z-0.9251
G01 X6.9603 Y49.1946 Z-0.9264
G01 X6.9610 Y49.1297 Z-0.9282
G01 X6.9629 Y49.0647 Z-0.9306
G01 X6.9659 Y48.9994 Z-0.9336
G01 X6.9701 Y48.9339 Z-0.9372
G01 X6.9755 Y48.8680 Z-0.9414
G01 X6.9820 Y48.8017 Z-0.9461
G01 X6.9898 Y48.7351 Z-0.9515
G01 X6.9988 Y48.6680 Z-0.9576
G01 X7.0091 Y48.6004 Z-0.9642
G01 X7.0207 Y48.5322 Z-0.9716
G01 X7.0336 Y48.4634 Z-0.9796
G01 X7.0479 Y48.3940 Z-0.9883
G01 X7.0637 Y48.3239 Z-0.9978
G01 X7.0809 Y48.2530 Z-1.0080
G01 X7.0996 Y48.1814 Z-1.0190
G01 X7.1200 Y48.1088 Z-1.0308
G01 X7.1419 Y48.0353 Z-1.0434
G01 X7.1656 Y47.9609 Z-1.0569
G01 X7.1911 Y47.8854 Z-1.0714
G01 X7.2185 Y47.8087 Z-1.0868
G01 X7.2478 Y47.7309 Z-1.1032
G01 X7.2793 Y47.6517 Z-1.1207
G01 X7.3216 Y47.5509 Z-1.1442
G01 X7.3676 Y47.4478 Z-1.1695
G01 X7.4114 Y47.3693 Z-1.1876
G01 X7.4599 Y47.3662 Z-1.1747
G01 X7.5076 Y47.3636 Z-1.1622
G01 X7.5547 Y47.3614 Z-1.1501
G01 X7.6010 Y47.3597 Z-1.1384
G01 X7.6465 Y47.3582 Z-1.1271
G01 X7.6912 Y47.3570 Z-1.1162
G01 X7.7354 Y47.3562 Z-1.1057
G01 X7.7789 Y47.3558 Z-1.0954
G01 X7.8218 Z-1.0855
G01 X7.8642 Y47.3561 Z-1.0758
G01 X7.9060 Y47.3568 Z-1.0665
G01 X7.9473 Y47.3579 Z-1.0574
G01 X7.9880 Y47.3592 Z-1.0487
G01 X8.0281 Y47.3607 Z-1.0403
G01 X8.0677 Y47.3625 Z-1.0322
G01 X8.1068 Y47.3646 Z-1.0243
G01 X8.1455 Y47.3670 Z-1.0167
G01 X8.1837 Y47.3697 Z-1.0093
G01 X8.2215 Y47.3727 Z-1.0022
G01 X8.2588 Y47.3760 Z-0.9952
G01 X8.2958 Y47.3796 Z-0.9885
G01 X8.3504 Y47.3854 Z-0.9790
G01 X8.4042 Y47.3916 Z-0.9700
G01 X8.4571 Y47.3983 Z-0.9615
G01 X8.5092 Y47.4057 Z-0.9534
G01 X8.5607 Y47.4137 Z-0.9457
G01 X8.6114 Y47.4222 Z-0.9385
G01 X8.6614 Y47.4312 Z-0.9316
G01 X8.7107 Y47.4405 Z-0.9254
G01 X8.7595 Y47.4503 Z-0.9195
G01 X8.8076 Y47.4606 Z-0.9139
G01 X8.8552 Y47.4715 Z-0.9088
G01 X8.9023 Y47.4829 Z-0.9039
G01 X8.9488 Y47.4949 Z-0.8995
G01 X8.9949 Y47.5071 Z-0.8955
G01 X9.0405 Y47.5197 Z-0.8918
G01 X9.0857 Y47.5329 Z-0.8885
G01 X9.1305 Y47.5465 Z-0.8855
G01 X9.1749 Y47.5607 Z-0.8829
G01 X9.2189 Y47.5754 Z-0.8805
G01 X9.2771 Y47.5957 Z-0.8779
G01 X9.3347 Y47.6166 Z-0.8761
G01 X9.3919 Y47.6385 Z-0.8747
G01 X9.4452 Y47.6594 Z-0.8737
G01 X9.5520 Y47.7012 Z-0.8717
G01 X9.6590 Y47.7423 Z-0.8701
G01 X9.7442 Y47.7747 Z-0.8687
G01 X9.8521 Y47.8151 Z-0.8667
G01 X9.9602 Y47.8549 Z-0.8652
G01 X10.0468 Y47.8864 Z-0.8638
G01 X10.1559 Y47.9253 Z-0.8619
G01 X10.2651 Y47.9637 Z-0.8604
G01 X10.3531 Y47.9943 Z-0.8590
G01 X10.4634 Y48.0317 Z-0.8573
G01 X10.5738 Y48.0687 Z-0.8559
G01 X10.6493 Y48.0938 Z-0.8547
G01 X10.7329 Y48.1208 Z-0.8535
G01 X10.8165 Y48.1476 Z-0.8524
G01 X10.9002 Y48.1743 Z-0.8514
G01 X10.9630 Y48.1941 Z-0.8505
G01 X11.0475 Y48.2199 Z-0.8494
G01 X11.1320 Y48.2455 Z-0.8484
G01 X11.2165 Y48.2712 Z-0.8474
G01 X11.2805 Y48.2902 Z-0.8466
G01 X11.3659 Y48.3148 Z-0.8456
G01 X11.4513 Y48.3394 Z-0.8447
G01 X11.5366 Y48.3640 Z-0.8437
G01 X11.6018 Y48.3820 Z-0.8431
G01 X11.6880 Y48.4055 Z-0.8422
G01 X11.7743 Y48.4290 Z-0.8413
G01 X11.8606 Y48.4523 Z-0.8406
G01 X11.9268 Y48.4695 Z-0.8401
G01 X12.0140 Y48.4919 Z-0.8392
G01 X12.1011 Y48.5143 Z-0.8384
G01 X12.1883 Y48.5361 Z-0.8379
G01 X12.2557 Y48.5526 Z-0.8375
G01 X12.3437 Y48.5739 Z-0.8367
G01 X12.4317 Y48.5949 Z-0.8361
G01 X12.5202 Y48.6139 Z-0.8366
G01 X12.5891 Y48.6275 Z-0.8372
G01 X12.6785 Y48.6450 Z-0.8380
G01 X12.7679 Y48.6623 Z-0.8388
G01 X12.8574 Y48.6795 Z-0.8396
G01 X12.9271 Y48.6926 Z-0.8402
G01 X13.0173 Y48.7091 Z-0.8409
G01 X13.1075 Y48.7255 Z-0.8417
G01 X13.1978 Y48.7418 Z-0.8425
G01 X13.2685 Y48.7543 Z-0.8431
G01 X13.3594 Y48.7699 Z-0.8437
G01 X13.4504 Y48.7854 Z-0.8445
G01 X13.5414 Y48.8008 Z-0.8452
G01 X13.6131 Y48.8126 Z-0.8458
G01 X13.7048 Y48.8274 Z-0.8464
G01 X13.7966 Y48.8419 Z-0.8471
G01 X13.8884 Y48.8564 Z-0.8479
G01 X13.9609 Y48.8676 Z-0.8484
G01 X14.0535 Y48.8814 Z-0.8490
G01 X14.1460 Y48.8951 Z-0.8497
G01 X14.2386 Y48.9086 Z-0.8504
G01 X14.3121 Y48.9191 Z-0.8509
G01 X14.4054 Y48.9320 Z-0.8515
G01 X14.4988 Y48.9447 Z-0.8522
G01 X14.5921 Y48.9573 Z-0.8528
G01 X14.6666 Y48.9671 Z-0.8534
G01 X14.7607 Y48.9790 Z-0.8539
G01 X14.8549 Y48.9908 Z-0.8546
G01 X14.9490 Y49.0025 Z-0.8553
G01 X15.0245 Y49.0115 Z-0.8558
G01 X15.1194 Y49.0225 Z-0.8564
G01 X15.2143 Y49.0334 Z-0.8570
G01 X15.3093 Y49.0440 Z-0.8577
G01 X15.3857 Y49.0524 Z-0.8582
G01 X15.4812 Y49.0641 Z-0.8579
G01 X15.5766 Y49.0772 Z-0.8569
G01 X15.6719 Y49.0900 Z-0.8560
G01 X15.7492 Y49.1000 Z-0.8553
G01 X15.8454 Y49.1120 Z-0.8544
G01 X15.9416 Y49.1238 Z-0.8536
G01 X16.0378 Y49.1354 Z-0.8529
G01 X16.1903 Y49.1545 Z-0.8527
G01 X16.2809 Y49.1663 Z-0.8531
G01 X16.3649 Y49.1771 Z-0.8536
G01 X16.4558 Y49.1885 Z-0.8541
G01 X16.5403 Y49.1988 Z-0.8546
G01 X16.6315 Y49.2096 Z-0.8553
G01 X16.7163 Y49.2194 Z-0.8559
G01 X16.8080 Y49.2297 Z-0.8567
G01 X16.8931 Y49.2390 Z-0.8574
G01 X16.9851 Y49.2487 Z-0.8583
G01 X17.0706 Y49.2576 Z-0.8591
G01 X17.1629 Y49.2667 Z-0.8601
G01 X17.2488 Y49.2751 Z-0.8610
G01 X17.3415 Y49.2837 Z-0.8621
G01 X17.4277 Y49.2916 Z-0.8631
G01 X17.5207 Y49.2997 Z-0.8643
G01 X17.6073 Y49.3070 Z-0.8655
G01 X17.7007 Y49.3146 Z-0.8668
G01 X17.7876 Y49.3215 Z-0.8680
G01 X17.8813 Y49.3285 Z-0.8694
G01 X17.9686 Y49.3349 Z-0.8707
G01 X18.0626 Y49.3413 Z-0.8723
G01 X18.1503 Y49.3472 Z-0.8737
G01 X18.2446 Y49.3531 Z-0.8753
G01 X18.3326 Y49.3585 Z-0.8768
G01 X18.4273 Y49.3639 Z-0.8786
G01 X18.5156 Y49.3688 Z-0.8802
G01 X18.6106 Y49.3736 Z-0.8821
G01 X18.6993 Y49.3781 Z-0.8838
G01 X18.7946 Y49.3824 Z-0.8857
G01 X18.8836 Y49.3863 Z-0.8876
G01 X18.9793 Y49.3895 Z-0.8899
G01 X19.0687 Y49.3924 Z-0.8920
G01 X19.1647 Y49.3955 Z-0.8943
G01 X19.2544 Y49.3982 Z-0.8964
G01 X19.3507 Y49.4011 Z-0.8986
G01 X19.4407 Y49.4037 Z-0.9006
G01 X19.5373 Y49.4064 Z-0.9027
G01 X19.6276 Y49.4089 Z-0.9047
G01 X19.7244 Y49.4114 Z-0.9067
G01 X19.8151 Y49.4136 Z-0.9086
G01 X19.9123 Y49.4145 Z-0.9114
G01 X20.0033 Y49.4151 Z-0.9139
G01 X20.1009 Y49.4157 Z-0.9166
G01 X20.1922 Y49.4162 Z-0.9190
G01 X20.2901 Y49.4167 Z-0.9216
G01 X20.3817 Y49.4170 Z-0.9240
G01 X20.4799 Y49.4173 Z-0.9266
G01 X20.5718 Y49.4175 Z-0.9289
G01 X20.6703 Y49.4176 Z-0.9313
G01 X20.7625 Y49.4171 Z-0.9338
G01 X20.8614 Y49.4154 Z-0.9370
G01 X20.9539 Y49.4136 Z-0.9400
G01 X21.0531 Y49.4117 Z-0.9432
G01 X21.1460 Y49.4098 Z-0.9461
G01 X21.2454 Y49.4077 Z-0.9491
G01 X21.3386 Y49.4057 Z-0.9520
G01 X21.4383 Y49.4034 Z-0.9550
G01 X21.5318 Y49.4012 Z-0.9578
G01 X21.6318 Y49.3986 Z-0.9607
G01 X21.7257 Y49.3947 Z-0.9642
G01 X21.8260 Y49.3903 Z-0.9679
G01 X21.9202 Y49.3861 Z-0.9714
G01 X22.0208 Y49.3814 Z-0.9751
G01 X22.1152 Y49.3770 Z-0.9785
G01 X22.2162 Y49.3722 Z-0.9821
G01 X22.3109 Y49.3676 Z-0.9855
G01 X22.4122 Y49.3626 Z-0.9890
G01 X22.5072 Y49.3578 Z-0.9923
G01 X22.6088 Y49.3512 Z-0.9965
G01 X22.7041 Y49.3445 Z-1.0007
G01 X22.8060 Y49.3372 Z-1.0050
G01 X22.9015 Y49.3303 Z-1.0091
G01 X23.0037 Y49.3228 Z-1.0134
G01 X23.0996 Y49.3157 Z-1.0174
G01 X23.2021 Y49.3081 Z-1.0216
G01 X23.2982 Y49.3008 Z-1.0255
G01 X23.4010 Y49.2928 Z-1.0298
G01 X23.4975 Y49.2837 Z-1.0345
G01 X23.6005 Y49.2736 Z-1.0396
G01 X23.6701 Y49.2665 Z-1.0429
G01 X23.7712 Y49.2559 Z-1.0476
G01 X23.8723 Y49.2452 Z-1.0522
G01 X23.9734 Y49.2345 Z-1.0568
G01 X24.0745 Y49.2238 Z-1.0615
G01 X24.1756 Y49.2131 Z-1.0661
G01 X24.2767 Y49.2021 Z-1.0709
G01 X24.3778 Y49.1895 Z-1.0765
G01 X24.4788 Y49.1767 Z-1.0822
G01 X24.5799 Y49.1639 Z-1.0878
G01 X24.6810 Y49.1511 Z-1.0935
G01 X24.8187 Y49.1334 Z-1.1012
G01 X24.9177 Y49.1194 Z-1.1060
G01 X25.0167 Y49.1054 Z-1.1109
G01 X25.1157 Y49.0913 Z-1.1158
G01 X25.2146 Y49.0755 Z-1.1216
G01 X25.3135 Y49.0593 Z-1.1275
G01 X25.4124 Y49.0432 Z-1.1335
G01 X25.5112 Y49.0270 Z-1.1394
G01 X25.6101 Y49.0109 Z-1.1454
G01 X25.7090 Y48.9947 Z-1.1513
G01 X25.8079 Y48.9785 Z-1.1573
G01 X25.9356 Y48.9574 Z-1.1649
G01 X26.0324 Y48.9388 Z-1.1706
G01 X26.1290 Y48.9192 Z-1.1769
G01 X26.2257 Y48.8997 Z-1.1831
G01 X26.3224 Y48.8802 Z-1.1893
G01 X26.4190 Y48.8607 Z-1.1955
G01 X26.5157 Y48.8412 Z-1.2017
G01 X26.6124 Y48.8216 Z-1.2079
G01 X26.7091 Y48.8021 Z-1.2142
G01 X26.8057 Y48.7823 Z-1.2205
G01 X26.9022 Y48.7608 Z-1.2277
G01 X27.0191 Y48.7342 Z-1.2366
G01 X27.1135 Y48.7114 Z-1.2431
G01 X27.2079 Y48.6885 Z-1.2495
G01 X27.3023 Y48.6656 Z-1.2560
G01 X27.3967 Y48.6427 Z-1.2625
G01 X27.4911 Y48.6198 Z-1.2690
G01 X27.5855 Y48.5969 Z-1.2755
G01 X27.6798 Y48.5729 Z-1.2826
G01 X27.7739 Y48.5477 Z-1.2902
G01 X27.8681 Y48.5225 Z-1.2979
G01 X27.9623 Y48.4973 Z-1.3055
G01 X28.0720 Y48.4678 Z-1.3144
G01 X28.1725 Y48.4391 Z-1.3218
G01 X28.2729 Y48.4105 Z-1.3292
G01 X28.3734 Y48.3819 Z-1.3365
G01 X28.4738 Y48.3526 Z-1.3443
G01 X28.5739 Y48.3216 Z-1.3529
G01 X28.6740 Y48.2904 Z-1.3615
G01 X28.7741 Y48.2592 Z-1.3702
G01 X28.8743 Y48.2280 Z-1.3789
G01 X28.9744 Y48.1968 Z-1.3876
G01 X29.0849 Y48.1623 Z-1.3971
G01 X29.1828 Y48.1300 Z-1.4048
G01 X29.2806 Y48.0972 Z-1.4128
G01 X29.3781 Y48.0627 Z-1.4217
G01 X29.4755 Y48.0278 Z-1.4307
G01 X29.5730 Y47.9930 Z-1.4397
G01 X29.6704 Y47.9581 Z-1.4487
G01 X29.7679 Y47.9233 Z-1.4577
G01 X29.8653 Y47.8884 Z-1.4667
G01 X29.9627 Y47.8536 Z-1.4757
G01 X30.0609 Y47.8182 Z-1.4849
G01 X30.1558 Y47.7805 Z-1.4938
G01 X30.2505 Y47.7420 Z-1.5031
G01 X30.3452 Y47.7036 Z-1.5125
G01 X30.4399 Y47.6651 Z-1.5218
G01 X30.5347 Y47.6266 Z-1.5311
G01 X30.6294 Y47.5882 Z-1.5404
G01 X30.7241 Y47.5497 Z-1.5497
G01 X30.8188 Y47.5112 Z-1.5591
G01 X30.9133 Y47.4717 Z-1.5689
G01 X31.0904 Y47.3928 Z-1.5882
G01 X31.1824 Y47.3508 Z-1.5978
G01 X31.2743 Y47.3087 Z-1.6074
G01 X31.3663 Y47.2667 Z-1.6170
G01 X31.4582 Y47.2246 Z-1.6267
G01 X31.5502 Y47.1826 Z-1.6363
G01 X31.6421 Y47.1404 Z-1.6460
G01 X31.7337 Y47.0969 Z-1.6564
G01 X31.8250 Y47.0523 Z-1.6674
G01 X31.9866 Y46.9715 Z-1.6861
G01 X32.0757 Y46.9260 Z-1.6960
G01 X32.1648 Y46.8804 Z-1.7060
G01 X32.2540 Y46.8349 Z-1.7159
G01 X32.3431 Y46.7893 Z-1.7258
G01 X32.4322 Y46.7436 Z-1.7359
G01 X32.5209 Y46.6966 Z-1.7465
G01 X32.6093 Y46.6485 Z-1.7578
G01 X32.6978 Y46.6004 Z-1.7690
G01 X32.8440 Y46.5191 Z-1.7870
G01 X32.9303 Y46.4701 Z-1.7972
G01 X33.0166 Y46.4212 Z-1.8074
G01 X33.1028 Y46.3722 Z-1.8177
G01 X33.1891 Y46.3231 Z-1.8279
G01 X33.2750 Y46.2731 Z-1.8387
G01 X33.3606 Y46.2219 Z-1.8500
G01 X33.4461 Y46.1704 Z-1.8616
G01 X33.5315 Y46.1189 Z-1.8731
G01 X33.6628 Y46.0381 Z-1.8902
G01 X33.7462 Y45.9857 Z-1.9007
G01 X33.8296 Y45.9334 Z-1.9112
G01 X33.9130 Y45.8810 Z-1.9217
G01 X33.9962 Y45.8283 Z-1.9323
G01 X34.0791 Y45.7745 Z-1.9436
G01 X34.1616 Y45.7198 Z-1.9553
G01 X34.2441 Y45.6650 Z-1.9671
G01 X34.3266 Y45.6102 Z-1.9789
G01 X34.4556 Y45.5226 Z-1.9967
G01 X34.5441 Y45.4614 Z-2.0085
G01 X34.6326 Y45.4001 Z-2.0203
G01 X34.7211 Y45.3389 Z-2.0321
G01 X34.8092 Y45.2767 Z-2.0445
G01 X34.8968 Y45.2132 Z-2.0575
G01 X34.9843 Y45.1494 Z-2.0707
G01 X35.0717 Y45.0855 Z-2.0839
G01 X35.1985 Y44.9912 Z-2.1025
G01 X35.2838 Y44.9264 Z-2.1146
G01 X35.3691 Y44.8616 Z-2.1266
G01 X35.4543 Y44.7969 Z-2.1387
G01 X35.5393 Y44.7315 Z-2.1511
G01 X35.6238 Y44.6649 Z-2.1642
G01 X35.7080 Y44.5979 Z-2.1775
G01 X35.7923 Y44.5310 Z-2.1907
G01 X35.9057 Y44.4391 Z-2.2081
G01 X35.9879 Y44.3712 Z-2.2202
G01 X36.0700 Y44.3032 Z-2.2324
G01 X36.1522 Y44.2353 Z-2.2445
G01 X36.2343 Y44.1672 Z-2.2568
G01 X36.3158 Y44.0981 Z-2.2696
G01 X36.3970 Y44.0281 Z-2.2829
G01 X36.4781 Y43.9580 Z-2.2962
G01 X36.5792 Y43.8690 Z-2.3124
G01 X36.6582 Y43.7980 Z-2.3246
G01 X36.7373 Y43.7269 Z-2.3368
G01 X36.8163 Y43.6559 Z-2.3490
G01 X36.8954 Y43.5849 Z-2.3612
G01 X36.9742 Y43.5135 Z-2.3737
G01 X37.0525 Y43.4410 Z-2.3867
G01 X37.1304 Y43.3679 Z-2.4001
G01 X37.2204 Y43.2819 Z-2.4151
G01 X37.2964 Y43.2078 Z-2.4274
G01 X37.3724 Y43.1337 Z-2.4397
G01 X37.4483 Y43.0596 Z-2.4520
G01 X37.5243 Y42.9856 Z-2.4642
G01 X37.6003 Y42.9115 Z-2.4765
G01 X37.6760 Y42.8370 Z-2.4891
G01 X37.7511 Y42.7615 Z-2.5022
G01 X37.8312 Y42.6784 Z-2.5162
G01 X37.9041 Y42.6013 Z-2.5285
G01 X37.9770 Y42.5242 Z-2.5408
G01 X38.0499 Y42.4471 Z-2.5532
G01 X38.1228 Y42.3701 Z-2.5655
G01 X38.1957 Y42.2930 Z-2.5779
G01 X38.2685 Y42.2159 Z-2.5902
G01 X38.3412 Y42.1385 Z-2.6027
G01 X38.4132 Y42.0588 Z-2.6154
G01 X38.4831 Y41.9788 Z-2.6277
G01 X38.5529 Y41.8988 Z-2.6401
G01 X38.6228 Y41.8187 Z-2.6525
G01 X38.6926 Y41.7387 Z-2.6649
G01 X38.7624 Y41.6587 Z-2.6773
G01 X38.8322 Y41.5786 Z-2.6897
G01 X38.9021 Y41.4986 Z-2.7021
G01 X38.9674 Y41.4221 Z-2.7134
G01 X39.0349 Y41.3401 Z-2.7252
G01 X39.1019 Y41.2574 Z-2.7375
G01 X39.1687 Y41.1744 Z-2.7500
G01 X39.2355 Y41.0915 Z-2.7624
G01 X39.3023 Y41.0085 Z-2.7749
G01 X39.3691 Y40.9255 Z-2.7873
G01 X39.4359 Y40.8426 Z-2.7998
G01 X39.4949 Y40.7678 Z-2.8104
G01 X39.5600 Y40.6835 Z-2.8219
G01 X39.6250 Y40.5991 Z-2.8335
G01 X39.6893 Y40.5139 Z-2.8455
G01 X39.7531 Y40.4281 Z-2.8580
G01 X39.8169 Y40.3422 Z-2.8705
G01 X39.8807 Y40.2564 Z-2.8830
G01 X39.9445 Y40.1705 Z-2.8955
G01 X40.0234 Y40.0626 Z-2.9106
G01 X40.0849 Y39.9771 Z-2.9221
G01 X40.1463 Y39.8917 Z-2.9336
G01 X40.2077 Y39.8062 Z-2.9451
G01 X40.2686 Y39.7201 Z-2.9571
G01 X40.3289 Y39.6333 Z-2.9695
G01 X40.3890 Y39.5464 Z-2.9820
G01 X40.4771 Y39.4179 Z-3.0002
G01 X40.5343 Y39.3312 Z-3.0114
G01 X40.5915 Y39.2445 Z-3.0226
G01 X40.6487 Y39.1579 Z-3.0338
G01 X40.7059 Y39.0712 Z-3.0450
G01 X40.7631 Y38.9845 Z-3.0562
G01 X40.8200 Y38.8975 Z-3.0677
G01 X40.8934 Y38.7824 Z-3.0832
G01 X40.9464 Y38.6945 Z-3.0940
G01 X40.9994 Y38.6067 Z-3.1049
G01 X41.0525 Y38.5188 Z-3.1158
G01 X41.1055 Y38.4309 Z-3.1267
G01 X41.1586 Y38.3431 Z-3.1376
G01 X41.2116 Y38.2552 Z-3.1485
G01 X41.2729 Y38.1534 Z-3.1610
G01 X41.3233 Y38.0655 Z-3.1706
G01 X41.3816 Y37.9846 Z-3.1750
G01 X41.4465 Y37.9094
G01 X41.5115 Y37.8342
G01 X41.5764 Y37.7590
G01 X41.6413 Y37.6837
G01 X41.7111 Y37.6027
G01 X41.7721 Y37.5252
G01 X41.8331 Y37.4477
G01 X41.8941 Y37.3701
G01 X41.9550 Y37.2926
G01 X42.0160 Y37.2150
G01 X42.0770 Y37.1375
G01 X42.1393 Y37.0583
G01 X42.1964 Y36.9784
G01 X42.2534 Y36.8985
G01 X42.3105 Y36.8187
G01 X42.3676 Y36.7388
G01 X42.4246 Y36.6589
G01 X42.4817 Y36.5791
G01 X42.5727 Y36.5229 Z-3.1543
G01 X42.5910 Y36.4182 Z-3.1750
G01 X42.6442 Y36.3360
G01 X42.6973 Y36.2538
G01 X42.7504 Y36.1717
G01 X42.8036 Y36.0895
G01 X42.8567 Y36.0073
G01 X42.9690 Y35.9632 Z-3.1398
G01 X42.9573 Y35.8433 Z-3.1750
G01 X43.0065 Y35.7588
G01 X43.0557 Y35.6742
G01 X43.1049 Y35.5897
G01 X43.1541 Y35.5052
G01 X43.2033 Y35.4207
G01 X43.3027 Y35.3657 Z-3.1459
G01 X43.2963 Y35.2519 Z-3.1750
G01 X43.3416 Y35.1651
G01 X43.3869 Y35.0782
G01 X43.4321 Y34.9914
G01 X43.4774 Y34.9046
G01 X43.5226 Y34.8177
G01 X43.5719 Y34.7336 Z-3.1726
G01 X43.6089 Y34.6424 Z-3.1750
G01 X43.6502 Y34.5532
G01 X43.6915 Y34.4641
G01 X43.7328 Y34.3749
G01 X43.7741 Y34.2858
G01 X43.8155 Y34.1966
G01 X43.8581 Y34.1044
G01 X43.8955 Y34.0129
G01 X43.9329 Y33.9214
G01 X43.9702 Y33.8300
G01 X44.0076 Y33.7385
G01 X44.0450 Y33.6470
G01 X44.0824 Y33.5555
G01 X44.1230 Y33.4555
G01 X44.1565 Y33.3617
G01 X44.1899 Y33.2679
G01 X44.2234 Y33.1741
G01 X44.2568 Y33.0803
G01 X44.2903 Y32.9865
G01 X44.3237 Y32.8927
G01 X44.3624 Y32.7830
G01 X44.3919 Y32.6868
G01 X44.4215 Y32.5907
G01 X44.4510 Y32.4946
G01 X44.4805 Y32.3985
G01 X44.5100 Y32.3023
G01 X44.5395 Y32.2062
G01 X44.5760 Y32.0852
G01 X44.6016 Y31.9867
G01 X44.6272 Y31.8883
G01 X44.6528 Y31.7898
G01 X44.6784 Y31.6914
G01 X44.7039 Y31.5929
G01 X44.7295 Y31.4945
G01 X44.7635 Y31.3606
G01 X44.7851 Y31.2599
G01 X44.8068 Y31.1591
G01 X44.8284 Y31.0583
G01 X44.8500 Y30.9575
G01 X44.8717 Y30.8568
G01 X44.8933 Y30.7560
G01 X44.9241 Y30.6079
G01 X44.9418 Y30.5048
G01 X44.9595 Y30.4017
G01 X44.9772 Y30.2986
G01 X44.9949 Y30.1955
G01 X45.0126 Y30.0924
G01 X45.0303 Y29.9893
G01 X45.0552 Y29.8402
G01 X45.0678 Y29.7444
G01 X45.0803 Y29.6485
G01 X45.0928 Y29.5527
G01 X45.1053 Y29.4569
G01 X45.1178 Y29.3610
G01 X45.1304 Y29.2652
G01 X45.1429 Y29.1694
G01 X45.1604 Y29.0281
G01 X45.1693 Y28.9302
G01 X45.1783 Y28.8322
G01 X45.1872 Y28.7343
G01 X45.1962 Y28.6363
G01 X45.2051 Y28.5384
G01 X45.2141 Y28.4404
G01 X45.2230 Y28.3425
G01 X45.2320 Y28.2446
G01 X45.2362 Y28.1849
G01 X45.2416 Y28.0849
G01 X45.2470 Y27.9848
G01 X45.2523 Y27.8848
G01 X45.2577 Y27.7847
G01 X45.2631 Y27.6847
G01 X45.2684 Y27.5846
G01 X45.2738 Y27.4845
G01 X45.2791 Y27.3845
G01 X45.2817 Y27.3101
G01 X45.2835 Y27.2079
G01 X45.2853 Y27.1058
G01 X45.2871 Y27.0036
G01 X45.2889 Y26.9014
G01 X45.2907 Y26.7993
G01 X45.2925 Y26.6971
G01 X45.2943 Y26.5949
G01 X45.2961 Y26.4928
G01 Y26.4019
G01 X45.2943 Y26.2987
G01 X45.2926 Y26.1956
G01 X45.2909 Y26.0924
G01 X45.2892 Y25.9893
G01 X45.2875 Y25.8862
G01 X45.2857 Y25.7830
G01 X45.2840 Y25.6799
G01 X45.2823 Y25.5767
G01 X45.2806 Y25.4736
G01 X45.2777 Y25.3863
G01 X45.2725 Y25.2855
G01 X45.2674 Y25.1847
G01 X45.2622 Y25.0839
G01 X45.2570 Y24.9830
G01 X45.2519 Y24.8822
G01 X45.2467 Y24.7814
G01 X45.2416 Y24.6805
G01 X45.2364 Y24.5797
G01 X45.2312 Y24.4789
G01 X45.2263 Y24.4076
G01 X45.2177 Y24.3091
G01 X45.2091 Y24.2106
G01 X45.2005 Y24.1120
G01 X45.1919 Y24.0135
G01 X45.1833 Y23.9150
G01 X45.1747 Y23.8165
G01 X45.1661 Y23.7180
G01 X45.1575 Y23.6194
G01 X45.1489 Y23.5209
G01 X45.1431 Y23.4652
G01 X45.1310 Y23.3690
G01 X45.1190 Y23.2728
G01 X45.1069 Y23.1766
G01 X45.0949 Y23.0804
G01 X45.0829 Y22.9842
G01 X45.0708 Y22.8880
G01 X45.0588 Y22.7918
G01 X45.0467 Y22.6956
G01 X45.0347 Y22.5994
G01 X45.0267 Y22.5459
G01 X45.0098 Y22.4434
G01 X44.9929 Y22.3410
G01 X44.9761 Y22.2386
G01 X44.9592 Y22.1362
G01 X44.9423 Y22.0337
G01 X44.9254 Y21.9313
G01 X44.9085 Y21.8289
G01 X44.8916 Y21.7264
G01 X44.8821 Y21.6747
G01 X44.8614 Y21.5748
G01 X44.8408 Y21.4749
G01 X44.8201 Y21.3750
G01 X44.7995 Y21.2751
G01 X44.7788 Y21.1752
G01 X44.7582 Y21.0753
G01 X44.7375 Y20.9754
G01 X44.7083 Y20.8377
G01 X44.6839 Y20.7403
G01 X44.6595 Y20.6429
G01 X44.6351 Y20.5455
G01 X44.6107 Y20.4482
G01 X44.5863 Y20.3508
G01 X44.5619 Y20.2534
G01 X44.5375 Y20.1560
G01 X44.5064 Y20.0336
G01 X44.4782 Y19.9387
G01 X44.4500 Y19.8439
G01 X44.4219 Y19.7490
G01 X44.3937 Y19.6541
G01 X44.3656 Y19.5593
G01 X44.3374 Y19.4644
G01 X44.3093 Y19.3695
G01 X44.2768 Y19.2610
G01 X44.2449 Y19.1687
G01 X44.2130 Y19.0763
G01 X44.1811 Y18.9840
G01 X44.1492 Y18.8917
G01 X44.1173 Y18.7993
G01 X44.0854 Y18.7070
G01 X44.0535 Y18.6146
G01 X44.0202 Y18.5184
G01 X43.9845 Y18.4286
G01 X43.9488 Y18.3388
G01 X43.9132 Y18.2489
G01 X43.8775 Y18.1591
G01 X43.8419 Y18.0693
G01 X43.8062 Y17.9795
G01 X43.7705 Y17.8897
G01 X43.6973 Y17.7167
G01 X43.6578 Y17.6294
G01 X43.6184 Y17.5421
G01 X43.5790 Y17.4548
G01 X43.5396 Y17.3675
G01 X43.5002 Y17.2802
G01 X43.4608 Y17.1929
G01 X43.4198 Y17.1031
G01 X43.3724 Y17.0099
G01 X43.3249 Y16.9166
G01 X43.2774 Y16.8233
G01 X43.2299 Y16.7301
G01 X43.1824 Y16.6368
G01 X43.1350 Y16.5436
G01 X43.0818 Y16.4397
G01 X43.0302 Y16.3493
G01 X42.9786 Y16.2588
G01 X42.9269 Y16.1683
G01 X42.8753 Y16.0778
G01 X42.8237 Y15.9873
G01 X42.7721 Y15.8968
G01 X42.7160 Y15.7988
G01 X42.6602 Y15.7111
G01 X42.6045 Y15.6234
G01 X42.5487 Y15.5357
G01 X42.4930 Y15.4480
G01 X42.4373 Y15.3603
G01 X42.3815 Y15.2726
G01 X42.3215 Y15.1785
G01 X42.2616 Y15.0935
G01 X42.2018 Y15.0086
G01 X42.1419 Y14.9237
G01 X42.0820 Y14.8387
G01 X42.0222 Y14.7538
G01 X41.9623 Y14.6689
G01 X41.8972 Y14.5770
G01 X41.8332 Y14.4948
G01 X41.7739 Y14.4090 Z-3.1721
G01 X41.7272 Y14.3134 Z-3.1611
G01 X41.6806 Y14.2177 Z-3.1501
G01 X41.6339 Y14.1220 Z-3.1391
G01 X41.5872 Y14.0264 Z-3.1281
G01 X41.5326 Y13.9148 Z-3.1152
G01 X41.4832 Y13.8194 Z-3.1028
G01 X41.4338 Y13.7239 Z-3.0905
G01 X41.3842 Y13.6286 Z-3.0783
G01 X41.3339 Y13.5339 Z-3.0665
G01 X41.2833 Y13.4395 Z-3.0550
G01 X41.2326 Y13.3452 Z-3.0435
G01 X41.1741 Y13.2363 Z-3.0302
G01 X41.1254 Y13.1506 Z-3.0185
G01 X41.0768 Y13.0649 Z-3.0068
G01 X41.0281 Y12.9792 Z-2.9951
G01 X40.9795 Y12.8935 Z-2.9834
G01 X40.9308 Y12.8078 Z-2.9717
G01 X40.8822 Y12.7221 Z-2.9600
G01 X40.8330 Y12.6368 Z-2.9486
G01 X40.7743 Y12.5371 Z-2.9356
G01 X40.7217 Y12.4525 Z-2.9234
G01 X40.6692 Y12.3679 Z-2.9112
G01 X40.6167 Y12.2832 Z-2.8991
G01 X40.5642 Y12.1986 Z-2.8869
G01 X40.5117 Y12.1140 Z-2.8747
G01 X40.4591 Y12.0293 Z-2.8626
G01 X40.4066 Y11.9447 Z-2.8504
G01 X40.3350 Y11.8302 Z-2.8337
G01 X40.2794 Y11.7457 Z-2.8204
G01 X40.2231 Y11.6620 Z-2.8076
G01 X40.1666 Y11.5784 Z-2.7950
G01 X40.1101 Y11.4949 Z-2.7824
G01 X40.0536 Y11.4114 Z-2.7698
G01 X39.9971 Y11.3279 Z-2.7572
G01 X39.9406 Y11.2444 Z-2.7446
G01 X39.8733 Y11.1455 Z-2.7295
G01 X39.8134 Y11.0616 Z-2.7153
G01 X39.7534 Y10.9777 Z-2.7012
G01 X39.6933 Y10.8940 Z-2.6872
G01 X39.6326 Y10.8111 Z-2.6737
G01 X39.5715 Y10.7287 Z-2.6605
G01 X39.5104 Y10.6462 Z-2.6472
G01 X39.4493 Y10.5638 Z-2.6340
G01 X39.3882 Y10.4813 Z-2.6208
G01 X39.3377 Y10.4147 Z-2.6096
G01 X39.2745 Y10.3329 Z-2.5953
G01 X39.2112 Y10.2512 Z-2.5809
G01 X39.1479 Y10.1694 Z-2.5666
G01 X39.0846 Y10.0878 Z-2.5523
G01 X39.0207 Y10.0068 Z-2.5385
G01 X38.9563 Y9.9266 Z-2.5251
G01 X38.8918 Y9.8464 Z-2.5117
G01 X38.8274 Y9.7662 Z-2.4983
G01 X38.7663 Y9.6919 Z-2.4853
G01 X38.6997 Y9.6123 Z-2.4708
G01 X38.6330 Y9.5327 Z-2.4563
G01 X38.5663 Y9.4531 Z-2.4418
G01 X38.4996 Y9.3736 Z-2.4272
G01 X38.4328 Y9.2942 Z-2.4128
G01 X38.3655 Y9.2156 Z-2.3989
G01 X38.2976 Y9.1377 Z-2.3854
G01 X38.2298 Y9.0598 Z-2.3719
G01 X38.1565 Y8.9774 Z-2.3569
G01 X38.0863 Y8.9001 Z-2.3422
G01 X38.0161 Y8.8228 Z-2.3275
G01 X37.9460 Y8.7455 Z-2.3129
G01 X37.8758 Y8.6682 Z-2.2982
G01 X37.8056 Y8.5909 Z-2.2835
G01 X37.7351 Y8.5141 Z-2.2691
G01 X37.6641 Y8.4384 Z-2.2553
G01 X37.5928 Y8.3629 Z-2.2417
G01 X37.5056 Y8.2725 Z-2.2247
G01 X37.4318 Y8.1975 Z-2.2099
G01 X37.3581 Y8.1226 Z-2.1951
G01 X37.2844 Y8.0477 Z-2.1803
G01 X37.2107 Y7.9727 Z-2.1655
G01 X37.1370 Y7.8978 Z-2.1507
G01 X37.0630 Y7.8232 Z-2.1361
G01 X36.9885 Y7.7498 Z-2.1222
G01 X36.9137 Y7.6768 Z-2.1085
G01 X36.8111 Y7.5787 Z-2.0892
G01 X36.7338 Y7.5063 Z-2.0744
G01 X36.6564 Y7.4338 Z-2.0595
G01 X36.5791 Y7.3613 Z-2.0446
G01 X36.5018 Y7.2888 Z-2.0297
G01 X36.4245 Y7.2164 Z-2.0149
G01 X36.3468 Y7.1445 Z-2.0003
G01 X36.2686 Y7.0739 Z-1.9865
G01 X36.1902 Y7.0035 Z-1.9728
G01 X36.0709 Y6.8984 Z-1.9513
G01 X35.9899 Y6.8285 Z-1.9364
G01 X35.9089 Y6.7586 Z-1.9215
G01 X35.8279 Y6.6888 Z-1.9065
G01 X35.7470 Y6.6189 Z-1.8916
G01 X35.6659 Y6.5492 Z-1.8768
G01 X35.5842 Y6.4808 Z-1.8627
G01 X35.5022 Y6.4131 Z-1.8490
G01 X35.4203 Y6.3454 Z-1.8353
G01 X35.2830 Y6.2343 Z-1.8117
G01 X35.1984 Y6.1671 Z-1.7967
G01 X35.1138 Y6.0999 Z-1.7818
G01 X35.0291 Y6.0326 Z-1.7668
G01 X34.9443 Y5.9659 Z-1.7522
G01 X34.8588 Y5.9006 Z-1.7383
G01 X34.7730 Y5.8362 Z-1.7248
G01 X34.6872 Y5.7717 Z-1.7114
G01 X34.6015 Y5.7073 Z-1.6979
G01 X34.4562 Y5.6001 Z-1.6746
G01 X34.3751 Y5.5415 Z-1.6611
G01 X34.2940 Y5.4829 Z-1.6477
G01 X34.2127 Y5.4247 Z-1.6344
G01 X34.1309 Y5.3678 Z-1.6219
G01 X34.0488 Y5.3118 Z-1.6099
G01 X33.9666 Y5.2559 Z-1.5978
G01 X33.8845 Y5.1999 Z-1.5858
G01 X33.8024 Y5.1439 Z-1.5738
G01 X33.7203 Y5.0880 Z-1.5617
G01 X33.5672 Y4.9857 Z-1.5386
G01 X33.4824 Y4.9304 Z-1.5256
G01 X33.3972 Y4.8766 Z-1.5133
G01 X33.3117 Y4.8238 Z-1.5016
G01 X33.2261 Y4.7711 Z-1.4899
G01 X33.1405 Y4.7184 Z-1.4782
G01 X33.0550 Y4.6657 Z-1.4665
G01 X32.9694 Y4.6130 Z-1.4548
G01 X32.8838 Y4.5603 Z-1.4431
G01 X32.7982 Y4.5075 Z-1.4314
G01 X32.7254 Y4.4183 Z-1.4003
G01 X32.6256 Y4.4062 Z-1.4084
G01 X32.5366 Y4.3569 Z-1.3971
G01 X32.4476 Y4.3076 Z-1.3857
G01 X32.3586 Y4.2582 Z-1.3744
G01 X32.2696 Y4.2089 Z-1.3631
G01 X32.1806 Y4.1595 Z-1.3518
G01 X32.0917 Y4.1102 Z-1.3404
G01 X32.0027 Y4.0609 Z-1.3291
G01 X31.9133 Y4.0127 Z-1.3184
G01 X31.8236 Y3.9660 Z-1.3085
G01 X31.7239 Y3.9145 Z-1.2975
G01 X31.6315 Y3.8687 Z-1.2865
G01 X31.5392 Y3.8228 Z-1.2756
G01 X31.4468 Y3.7769 Z-1.2647
G01 X31.3545 Y3.7311 Z-1.2538
G01 X31.2621 Y3.6852 Z-1.2428
G01 X31.1695 Y3.6401 Z-1.2323
G01 X31.0765 Y3.5969 Z-1.2227
G01 X30.9834 Y3.5539 Z-1.2133
G01 X30.8904 Y3.5109 Z-1.2038
G01 X30.7973 Y3.4679 Z-1.1944
G01 X30.6829 Y3.4153 Z-1.1827
G01 X30.5873 Y3.3730 Z-1.1722
G01 X30.4916 Y3.3307 Z-1.1617
G01 X30.3957 Y3.2893 Z-1.1517
G01 X30.2995 Y3.2498 Z-1.1426
G01 X30.2032 Y3.2104 Z-1.1336
G01 X30.1069 Y3.1710 Z-1.1246
G01 X30.0106 Y3.1317 Z-1.1156
G01 X29.9143 Y3.0923 Z-1.1065
G01 X29.8180 Y3.0529 Z-1.0975
G01 X29.7217 Y3.0135 Z-1.0885
G01 X29.5967 Y2.9643 Z-1.0776
G01 X29.5049 Y2.9314 Z-1.0697
G01 X29.4131 Y2.8984 Z-1.0618
G01 X29.3213 Y2.8654 Z-1.0539
G01 X29.2295 Y2.8325 Z-1.0459
G01 X29.1377 Y2.7995 Z-1.0380
G01 X29.0459 Y2.7666 Z-1.0301
G01 X28.9541 Y2.7336 Z-1.0222
G01 X28.8622 Y2.7012 Z-1.0146
G01 X28.7700 Y2.6706 Z-1.0079
G01 X28.6777 Y2.6402 Z-1.0013
G01 X28.5854 Y2.6098 Z-0.9947
G01 X28.4586 Y2.5684 Z-0.9856
G01 X28.3639 Y2.5389 Z-0.9781
G01 X28.2693 Y2.5094 Z-0.9706
G01 X28.1746 Y2.4799 Z-0.9631
G01 X28.0799 Y2.4508 Z-0.9559
G01 X27.9849 Y2.4236 Z-0.9496
G01 X27.8899 Y2.3967 Z-0.9434
G01 X27.7948 Y2.3697 Z-0.9373
G01 X27.6998 Y2.3428 Z-0.9311
G01 X27.6048 Y2.3159 Z-0.9249
G01 X27.5097 Y2.2889 Z-0.9187
G01 X27.4147 Y2.2620 Z-0.9126
G01 X27.3196 Y2.2351 Z-0.9064
G01 X27.2760 Y2.2236 Z-0.9037
G01 X27.1783 Y2.2000 Z-0.8979
G01 X27.0805 Y2.1765 Z-0.8921
G01 X26.9828 Y2.1530 Z-0.8864
G01 X26.8851 Y2.1295 Z-0.8806
G01 X26.7873 Y2.1060 Z-0.8749
G01 X26.6896 Y2.0825 Z-0.8691
G01 X26.5918 Y2.0591 Z-0.8633
G01 X26.4941 Y2.0358 Z-0.8577
G01 X26.3961 Y2.0144 Z-0.8530
G01 X26.2981 Y1.9934 Z-0.8485
G01 X26.2000 Y1.9723 Z-0.8439
G01 X26.1020 Y1.9513 Z-0.8394
G01 X26.0503 Y1.9405 Z-0.8368
G01 X25.9499 Y1.9205 Z-0.8315
G01 X25.8495 Y1.9005 Z-0.8261
G01 X25.7491 Y1.8804 Z-0.8208
G01 X25.6487 Y1.8610 Z-0.8157
G01 X25.5481 Y1.8433 Z-0.8116
G01 X25.4475 Y1.8257 Z-0.8074
G01 X25.3469 Y1.8080 Z-0.8033
G01 X25.2463 Y1.7904 Z-0.7991
G01 X25.1457 Y1.7727 Z-0.7950
G01 X25.0451 Y1.7551 Z-0.7908
G01 X24.9445 Y1.7374 Z-0.7866
G01 X24.8439 Y1.7200 Z-0.7826
G01 X24.7849 Y1.7113 Z-0.7806
G01 X24.6818 Y1.6970 Z-0.7768
G01 X24.5787 Y1.6828 Z-0.7730
G01 X24.4756 Y1.6685 Z-0.7692
G01 X24.3725 Y1.6543 Z-0.7654
G01 X24.2694 Y1.6400 Z-0.7616
G01 X24.1663 Y1.6257 Z-0.7578
G01 X24.0632 Y1.6115 Z-0.7540
G01 X23.9600 Y1.5982 Z-0.7507
G01 X23.8568 Y1.5861 Z-0.7481
G01 X23.7535 Y1.5741 Z-0.7454
G01 X23.6503 Y1.5621 Z-0.7427
G01 X23.5470 Y1.5500 Z-0.7400
G01 X23.4856 Y1.5433 Z-0.7383
G01 X23.3875 Y1.5332 Z-0.7351
G01 X23.2895 Y1.5231 Z-0.7319
G01 X23.1915 Y1.5129 Z-0.7287
G01 X23.0934 Y1.5039 Z-0.7260
G01 X22.9953 Y1.4958 Z-0.7238
G01 X22.8972 Y1.4877 Z-0.7217
G01 X22.7991 Y1.4796 Z-0.7195
G01 X22.7010 Y1.4715 Z-0.7173
G01 X22.6029 Y1.4634 Z-0.7151
G01 X22.5048 Y1.4553 Z-0.7129
G01 X22.4067 Y1.4472 Z-0.7107
G01 X22.3086 Y1.4391 Z-0.7086
G01 X22.2105 Y1.4321 Z-0.7069
G01 X22.1473 Y1.4286 Z-0.7059
G01 X22.0470 Y1.4235 Z-0.7040
G01 X21.9467 Y1.4185 Z-0.7021
G01 X21.8464 Y1.4134 Z-0.7002
G01 X21.7461 Y1.4084 Z-0.6983
G01 X21.6458 Y1.4033 Z-0.6964
G01 X21.5455 Y1.3983 Z-0.6945
G01 X21.4452 Y1.3933 Z-0.6926
G01 X21.3449 Y1.3887 Z-0.6910
G01 X21.2446 Y1.3855 Z-0.6900
G01 X21.1443 Y1.3823 Z-0.6890
G01 X21.0440 Y1.3791 Z-0.6881
G01 X20.9437 Y1.3759 Z-0.6871
G01 X20.8434 Y1.3727 Z-0.6861
G01 X20.7722 Y1.3709 Z-0.6852
G01 X20.6672 Y1.3687 Z-0.6836
G01 X20.5622 Y1.3666 Z-0.6819
G01 X20.4572 Y1.3645 Z-0.6804
G01 X20.3522 Y1.3641 Z-0.6796
G01 X20.2472 Y1.3638 Z-0.6789
G01 X20.1422 Y1.3635 Z-0.6782
G01 X20.0372 Y1.3632 Z-0.6775
G01 X19.9322 Y1.3628 Z-0.6767
G01 X19.8578 Y1.3630 Z-0.6760
G01 X19.7550 Y1.3638 Z-0.6748
G01 X19.6522 Y1.3646 Z-0.6735
G01 X19.5493 Y1.3655 Z-0.6722
G01 X19.4465 Y1.3672 Z-0.6715
G01 X19.3437 Y1.3693 Z-0.6708
G01 X19.2409 Y1.3714 Z-0.6702
G01 X19.1381 Y1.3735 Z-0.6696
G01 X19.0353 Y1.3758 Z-0.6691
G01 X18.9641 Y1.3782 Z-0.6687
G01 X18.8635 Y1.3822 Z-0.6680
G01 X18.7629 Y1.3863 Z-0.6672
G01 X18.6623 Y1.3903 Z-0.6664
G01 X18.5617 Y1.3947 Z-0.6659
G01 X18.4611 Y1.3996 Z-0.6655
G01 X18.3605 Y1.4044 Z-0.6652
G01 X18.2599 Y1.4093 Z-0.6648
G01 X18.1594 Y1.4142 Z-0.6645
G01 X18.0914 Y1.4184 Z-0.6643
G01 X17.9930 Y1.4252 Z-0.6638
G01 X17.8946 Y1.4320 Z-0.6633
G01 X17.7962 Y1.4388 Z-0.6628
G01 X17.6979 Y1.4457 Z-0.6624
G01 X17.5995 Y1.4533 Z-0.6623
G01 X17.5012 Y1.4609
G01 X17.4029 Y1.4686 Z-0.6622
G01 X17.3046 Y1.4762 Z-0.6621
G01 X17.2400 Y1.4819 Z-0.6620
G01 X17.1438 Y1.4915 Z-0.6618
G01 X17.0477 Y1.5010 Z-0.6616
G01 X16.9516 Y1.5105 Z-0.6613
G01 X16.8554 Y1.5201 Z-0.6611
G01 X16.7594 Y1.5303 Z-0.6612
G01 X16.6633 Y1.5407 Z-0.6614
G01 X16.5673 Y1.5511 Z-0.6616
G01 X16.4712 Y1.5615 Z-0.6618
G01 X16.4101 Y1.5685 Z-0.6617
G01 X16.3162 Y1.5807
G01 X16.2224 Y1.5930
G01 X16.1285 Y1.6052 Z-0.6618
G01 X16.0347 Y1.6175
G01 X15.9408 Y1.6301 Z-0.6620
G01 X15.8471 Y1.6432 Z-0.6625
G01 X15.7533 Y1.6564 Z-0.6629
G01 X15.6596 Y1.6696 Z-0.6634
G01 X15.5964 Y1.6789 Z-0.6635
G01 X15.4933 Y1.6953 Z-0.6636
G01 X15.3903 Y1.7122 Z-0.6639
G01 X15.2873 Y1.7291 Z-0.6642
G01 X15.1843 Y1.7460 Z-0.6645
G01 X15.0814 Y1.7633 Z-0.6651
G01 X14.9785 Y1.7812 Z-0.6659
G01 X14.8757 Y1.7990 Z-0.6667
G01 X14.8107 Y1.8108 Z-0.6670
G01 X14.7101 Y1.8298 Z-0.6671
G01 X14.6097 Y1.8497 Z-0.6677
G01 X14.5093 Y1.8696 Z-0.6683
G01 X14.4090 Y1.8895 Z-0.6689
G01 X14.3086 Y1.9095 Z-0.6695
G01 X14.2084 Y1.9303 Z-0.6706
G01 X14.1082 Y1.9512 Z-0.6717
G01 X14.0473 Y1.9644 Z-0.6721
G01 X13.9493 Y1.9864 Z-0.6725
G01 X13.8514 Y2.0086 Z-0.6730
G01 X13.7537 Y2.0316 Z-0.6739
G01 X13.6560 Y2.0546 Z-0.6748
G01 X13.5583 Y2.0776 Z-0.6757
G01 X13.4606 Y2.1007 Z-0.6766
G01 X13.3631 Y2.1247 Z-0.6780
G01 X13.3064 Y2.1391 Z-0.6786
G01 X13.2111 Y2.1640 Z-0.6793
G01 X13.1158 Y2.1890 Z-0.6799
G01 X13.0206 Y2.2145 Z-0.6808
G01 X12.9255 Y2.2405 Z-0.6819
G01 X12.8305 Y2.2664 Z-0.6831
G01 X12.7354 Y2.2924 Z-0.6842
G01 X12.6405 Y2.3187 Z-0.6855
G01 X12.5880 Y2.3341 Z-0.6863
G01 X12.4954 Y2.3620 Z-0.6871
G01 X12.4028 Y2.3900 Z-0.6880
G01 X12.3101 Y2.4179 Z-0.6889
G01 X12.2177 Y2.4465 Z-0.6901
G01 X12.1254 Y2.4754 Z-0.6915
G01 X12.0330 Y2.5044 Z-0.6929
G01 X11.8923 Y2.5489 Z-0.6948
G01 X11.8024 Y2.5797 Z-0.6959
G01 X11.7124 Y2.6106 Z-0.6970
G01 X11.6225 Y2.6415 Z-0.6981
G01 X11.5326 Y2.6723 Z-0.6992
G01 X11.4429 Y2.7038 Z-0.7007
G01 X11.3532 Y2.7357 Z-0.7023
G01 X11.2636 Y2.7675 Z-0.7040
G01 X11.2133 Y2.7860 Z-0.7046
G01 X11.1130 Y2.8230 Z-0.7053
G01 X11.0125 Y2.8591 Z-0.7055
G01 X10.9119 Y2.8952 Z-0.7057
G01 X10.8114 Y2.9315 Z-0.7060
G01 X10.7115 Y2.9693 Z-0.7071
G01 X10.6115 Y3.0071 Z-0.7082
G01 X10.5586 Y3.0276 Z-0.7086
G01 X10.4609 Y3.0666 Z-0.7088
G01 X10.3638 Y3.1072 Z-0.7099
G01 X10.2669 Y3.1479 Z-0.7110
G01 X10.1699 Y3.1885 Z-0.7122
G01 X10.0732 Y3.2300 Z-0.7137
G01 X9.9769 Y3.2726 Z-0.7159
G01 X9.9285 Y3.2946 Z-0.7167
G01 X9.8345 Y3.3382 Z-0.7180
G01 X9.7409 Y3.3827 Z-0.7196
G01 X9.6477 Y3.4284 Z-0.7219
G01 X9.5546 Y3.4740 Z-0.7242
G01 X9.4615 Y3.5198 Z-0.7266
G01 X9.3258 Y3.5905 Z-0.7314
G01 X9.2359 Y3.6393 Z-0.7340
G01 X9.1460 Y3.6883 Z-0.7366
G01 X9.0571 Y3.7392 Z-0.7402
G01 X8.9683 Y3.7903 Z-0.7440
G01 X8.8794 Y3.8414 Z-0.7478
G01 X8.7532 Y3.9176 Z-0.7544
G01 X8.6679 Y3.9721 Z-0.7586
G01 X8.5825 Y4.0267 Z-0.7627
G01 X8.4978 Y4.0825 Z-0.7677
G01 X8.4139 Y4.1396 Z-0.7733
G01 X8.3299 Y4.1968 Z-0.7790
G01 X8.2139 Y4.2779 Z-0.7874
G01 X8.1337 Y4.3386 Z-0.7936
G01 X8.0535 Y4.3993 Z-0.7998
G01 X7.9735 Y4.4604 Z-0.8061
G01 X7.8948 Y4.5236 Z-0.8138
G01 X7.8163 Y4.5872 Z-0.8217
G01 X7.7117 Y4.6728 Z-0.8322
G01 X7.6368 Y4.7393 Z-0.8403
G01 X7.5624 Y4.8067 Z-0.8489
G01 X7.4881 Y4.8741 Z-0.8575
G01 X7.4143 Y4.9424 Z-0.8666
G01 X7.3418 Y5.0128 Z-0.8770
G01 X7.2500 Y5.1028 Z-0.8902
G01 X7.1802 Y5.1743 Z-0.8998
G01 X7.1118 Y5.2478 Z-0.9106
G01 X7.0440 Y5.3222 Z-0.9219
G01 X6.9763 Y5.3966 Z-0.9333
G01 X6.9090 Y5.4718 Z-0.9451
G01 X6.8153 Y5.5830 Z-0.9638
G01 X6.7395 Y5.6763 Z-0.9787
G01 X6.6643 Y5.7704 Z-0.9941
G01 X6.6150 Y5.8358 Z-1.0053
G01 X6.5440 Y5.9326 Z-1.0220
G01 X6.4730 Y6.0295 Z-1.0387
G01 X6.4276 Y6.0937 Z-1.0500
G01 X6.3609 Y6.1934 Z-1.0680
G01 X6.2948 Y6.2938 Z-1.0865
G01 X6.2536 Y6.3568 Z-1.0979
G01 X6.1903 Y6.4579 Z-1.1164
G01 X6.0924 Y6.6236 Z-1.1484
G01 X6.0329 Y6.7266 Z-1.1678
G01 X5.9424 Y6.8918 Z-1.2003
G01 X5.8880 Y6.9979 Z-1.2215
G01 X5.8045 Y7.1620 Z-1.2541
G01 X5.7537 Y7.2696 Z-1.2759
G01 X5.6792 Y7.4343 Z-1.3101
G01 X5.6314 Y7.5425 Z-1.3320
G01 X5.5636 Y7.7055 Z-1.3662
G01 X5.5215 Y7.8170 Z-1.3902
G01 X5.4619 Y7.9793 Z-1.4254
G01 X5.4240 Y8.0924 Z-1.4503
G01 X5.3738 Y8.2549 Z-1.4874
G01 X5.3411 Y8.3704 Z-1.5139
G01 X5.2976 Y8.5303 Z-1.5509
G01 X5.2694 Y8.6474 Z-1.5784
G01 X5.2345 Y8.8063 Z-1.6169
G01 X5.2106 Y8.9247 Z-1.6453
G01 X5.1813 Y9.0799 Z-1.6831
G01 X5.1622 Y9.1998 Z-1.7127
G01 X5.1403 Y9.3528 Z-1.7513
G01 X5.1248 Y9.4732 Z-1.7812
G01 X5.1077 Y9.6219 Z-1.8189
G01 X5.0969 Y9.7436 Z-1.8500
G01 X5.0859 Y9.8892 Z-1.8878
G01 X5.0783 Y10.0109 Z-1.9190
G01 X5.0712 Y10.1518 Z-1.9557
G01 X5.0681 Y10.2745 Z-1.9879
G01 X5.0660 Y10.4118 Z-2.0244
G01 X5.0657 Y10.5342 Z-2.0564
G01 X5.0668 Y10.6668 Z-2.0917
G01 X5.0707 Y10.7898 Z-2.1245
G01 X5.0780 Y10.9270 Z-2.1610
G01 X5.0945 Y11.1442 Z-2.2174
G01 X5.1181 Y11.3572 Z-2.2731
G01 X5.1459 Y11.5655 Z-2.3270
G01 X5.1793 Y11.7705 Z-2.3800
G01 X5.2328 Y12.0494 Z-2.4520
G01 X5.2602 Y12.1720 Z-2.4831
G01 X5.2892 Y12.2951 Z-2.5150
G01 X5.2776 Y12.2478 Z-2.5028
G01 X5.3087 Y12.3702 Z-2.5340
G01 X5.3398 Y12.4926 Z-2.5652
G01 X5.3274 Y12.4452 Z-2.5532
G01 X5.3605 Y12.5670 Z-2.5837
G01 X5.3951 Y12.6891 Z-2.6149
G01 X5.3813 Y12.6420 Z-2.6029
G01 X5.4184 Y12.7636 Z-2.6337
G01 X5.4558 Y12.8853 Z-2.6645
G01 X5.4412 Y12.8391 Z-2.6529
G01 X5.4804 Y12.9602 Z-2.6830
G01 X5.5205 Y13.0815 Z-2.7135
G01 X5.5051 Y13.0365 Z-2.7022
G01 X5.5479 Y13.1575 Z-2.7325
G01 X5.5913 Y13.2786 Z-2.7630
G01 X5.5754 Y13.2353 Z-2.7522
G01 X5.6206 Y13.3560 Z-2.7820
G01 X5.6662 Y13.4768 Z-2.8120
G01 X5.6501 Y13.4354 Z-2.8018
G01 X5.6984 Y13.5560 Z-2.8315
G01 X5.7476 Y13.6767 Z-2.8618
G01 X5.7250 Y13.6225 Z-2.8484
G01 X5.7633 Y13.7129 Z-2.8705
G01 X5.8016 Y13.8032 Z-2.8927
G01 X5.8401 Y13.8936 Z-2.9150
G01 X5.8111 Y13.8270 Z-2.8987
G01 X5.8512 Y13.9173 Z-2.9206
G01 X5.8922 Y14.0076 Z-2.9430
G01 X5.9334 Y14.0979 Z-2.9655
G01 X5.9038 Y14.0340 Z-2.9497
G01 X5.9464 Y14.1244 Z-2.9718
G01 X5.9890 Y14.2147 Z-2.9938
G01 X6.0317 Y14.3050 Z-3.0159
G01 X6.0024 Y14.2441 Z-3.0011
G01 X6.0467 Y14.3344 Z-3.0229
G01 X6.0919 Y14.4247 Z-3.0451
G01 X6.1373 Y14.5150 Z-3.0674
G01 X6.1078 Y14.4572 Z-3.0532
G01 X6.1547 Y14.5476 Z-3.0751
G01 X6.2015 Y14.6380 Z-3.0970
G01 X6.2485 Y14.7284 Z-3.1190
G01 X6.2197 Y14.6738 Z-3.1058
G01 X6.2684 Y14.7643 Z-3.1276
G01 X6.3179 Y14.8548 Z-3.1497
G01 X6.3729 Y14.9552 Z-3.1743
G01 X6.3813 Y15.0526 Z-3.1750
G01 X6.3882 Y15.1500
G01 X6.3951 Y15.2475
G01 X6.4020 Y15.3450
G01 X6.4089 Y15.4425
G01 X6.4163 Y15.5424
G01 X6.4289 Y15.6481
G01 X6.4415 Y15.7538
G01 X6.4541 Y15.8595
G01 X6.4805 Y16.0429
G01 X6.4977 Y16.1429
G01 X6.5150 Y16.2429
G01 X6.5401 Y16.3682
G01 X6.5621 Y16.4624
G01 X6.5840 Y16.5567
G01 X6.6128 Y16.6609
G01 X6.6439 Y16.7642
G01 X6.6715 Y16.8467
G01 X6.7081 Y16.9433
G01 X6.6702 Y16.9913 Z-3.1484
G01 X6.5237 Y17.1695 Z-3.0443
G01 X6.3556 Y17.2575 Z-2.9495
G01 X6.2629 Y17.4871 Z-2.8490
G01 X6.7251 Y16.9482 Z-3.1750
G01 X6.8275 Y16.9648
G01 X6.8808 Y16.9726
G01 X6.9733 Y16.9811
G01 X7.0658 Y16.9897
G01 X7.1406 Y16.9939
G01 X7.2378 Y16.9968
G01 X7.3350 Y16.9996
G01 X7.4322 Y17.0025
G01 X7.5462 Y17.0040
G01 X7.6494
G01 X7.7526
G01 X7.8663 Y17.0022
G01 X7.9714 Y17.0055 Z-3.1717
G01 X8.0807 Y17.1415 Z-3.1020
G01 X8.1901 Y17.2777 Z-3.0307
G01 X8.3048 Y17.4206 Z-2.9540
G01 X8.3752 Y17.5081 Z-2.9060
G01 X8.5006 Y17.6643 Z-2.8183
G01 X8.1917 Y17.2797 Z-3.0296
G01 X7.9733 Y17.0078 Z-3.1705
G01 X7.9894 Y16.8980 Z-3.1750
G01 X8.0070 Y16.8053
G01 X8.0247 Y16.7125
G01 X8.0456 Y16.5813
G01 X8.0587 Y16.4829
G01 X8.0718 Y16.3845
G01 X8.0921 Y16.1945
G01 X8.1007 Y16.0905
G01 X8.2669 Y15.9995 Z-3.0959
G01 X8.4354 Y15.9087 Z-3.0157
G01 X8.4823 Y15.8831 Z-2.9932
G01 X8.6409 Y15.7929 Z-2.9157
G01 X8.8036 Y15.7030 Z-2.8361
G01 X8.9735 Y15.6133 Z-2.7528
G01 X9.1269 Y15.5367 Z-2.6776
G01 X8.6876 Y15.7664 Z-2.8928
G01 X8.3935 Y15.9313 Z-3.0356
G01 X7.8728 Y15.9504 Z-3.1750
G01 X7.7763 Y15.8907
G01 X7.6799 Y15.8310
G01 X7.5024 Y15.7194
G01 X7.4109 Y15.6608
G01 X7.3194 Y15.6021
G01 X7.1402 Y15.4853
G01 X7.0537 Y15.4277
G01 X6.9671 Y15.3702
G01 X6.7855 Y15.2471
G01 X6.7039 Y15.1906
G01 X6.6222 Y15.1342
G01 Z-6.3500
G01 X6.7039 Y15.1906
G01 X6.7855 Y15.2471
G01 X6.9671 Y15.3702
G01 X7.0537 Y15.4277
G01 X7.1402 Y15.4853
G01 X7.3194 Y15.6021
G01 X7.4109 Y15.6608
G01 X7.5024 Y15.7194
G01 X7.6799 Y15.8310
G01 X7.7763 Y15.8907
G01 X7.8728 Y15.9504
G01 X8.3935 Y15.9313 Z-6.0713
G01 X8.6876 Y15.7664 Z-5.7856
G01 X9.1269 Y15.5367 Z-5.3552
G01 X8.9735 Y15.6133 Z-5.5056
G01 X8.8036 Y15.7030 Z-5.6721
G01 X8.6409 Y15.7929 Z-5.8313
G01 X8.4823 Y15.8831 Z-5.9864
G01 X8.4354 Y15.9087 Z-6.0314
G01 X8.2669 Y15.9995 Z-6.1919
G01 X8.1007 Y16.0905 Z-6.3500
G01 X8.0921 Y16.1945
G01 X8.0718 Y16.3845
G01 X8.0587 Y16.4829
G01 X8.0456 Y16.5813
G01 X8.0247 Y16.7125
G01 X8.0070 Y16.8053
G01 X7.9894 Y16.8980
G01 X7.9733 Y17.0078 Z-6.3411
G01 X8.1917 Y17.2797 Z-6.0592
G01 X8.5006 Y17.6643 Z-5.6367
G01 X8.3752 Y17.5081 Z-5.8120
G01 X8.3048 Y17.4206 Z-5.9080
G01 X8.1901 Y17.2777 Z-6.0614
G01 X8.0807 Y17.1415 Z-6.2041
G01 X7.9714 Y17.0055 Z-6.3435
G01 X7.8663 Y17.0022 Z-6.3500
G01 X7.7526 Y17.0040
G01 X7.6494
G01 X7.5462
G01 X7.4322 Y17.0025
G01 X7.3350 Y16.9996
G01 X7.2378 Y16.9968
G01 X7.1406 Y16.9939
G01 X7.0658 Y16.9897
G01 X6.9733 Y16.9811
G01 X6.8808 Y16.9726
G01 X6.8275 Y16.9648
G01 X6.7251 Y16.9482
G01 X6.2629 Y17.4871 Z-5.6980
G01 X6.3556 Y17.2575 Z-5.8990
G01 X6.5237 Y17.1695 Z-6.0886
G01 X6.6702 Y16.9913 Z-6.2968
G01 X6.7081 Y16.9433 Z-6.3500
G01 X6.6715 Y16.8467
G01 X6.6439 Y16.7642
G01 X6.6128 Y16.6609
G01 X6.5840 Y16.5567
G01 X6.5621 Y16.4624
G01 X6.5401 Y16.3682
G01 X6.5150 Y16.2429
G01 X6.4977 Y16.1429
G01 X6.4805 Y16.0429
G01 X6.4541 Y15.8595
G01 X6.4415 Y15.7538
G01 X6.4289 Y15.6481
G01 X6.4163 Y15.5424
G01 X6.4089 Y15.4425
G01 X6.4020 Y15.3450
G01 X6.3951 Y15.2475
G01 X6.3882 Y15.1500
G01 X6.3813 Y15.0526
G01 X6.3729 Y14.9552 Z-6.3485
G01 X6.3179 Y14.8548 Z-6.2994
G01 X6.2684 Y14.7643 Z-6.2552
G01 X6.2197 Y14.6738 Z-6.2117
G01 X6.2485 Y14.7284 Z-6.2380
G01 X6.2015 Y14.6380 Z-6.1941
G01 X6.1547 Y14.5476 Z-6.1503
G01 X6.1078 Y14.4572 Z-6.1065
G01 X6.1373 Y14.5150 Z-6.1348
G01 X6.0919 Y14.4247 Z-6.0901
G01 X6.0467 Y14.3344 Z-6.0458
G01 X6.0024 Y14.2441 Z-6.0022
G01 X6.0317 Y14.3050 Z-6.0318
G01 X5.9890 Y14.2147 Z-5.9876
G01 X5.9464 Y14.1244 Z-5.9435
G01 X5.9038 Y14.0340 Z-5.8994
G01 X5.9334 Y14.0979 Z-5.9309
G01 X5.8922 Y14.0076 Z-5.8860
G01 X5.8512 Y13.9173 Z-5.8413
G01 X5.8111 Y13.8270 Z-5.7974
G01 X5.8401 Y13.8936 Z-5.8301
G01 X5.8016 Y13.8032 Z-5.7855
G01 X5.7633 Y13.7129 Z-5.7411
G01 X5.7250 Y13.6225 Z-5.6967
G01 X5.7476 Y13.6767 Z-5.7235
G01 X5.6984 Y13.5560 Z-5.6630
G01 X5.6501 Y13.4354 Z-5.6035
G01 X5.6662 Y13.4768 Z-5.6240
G01 X5.6206 Y13.3560 Z-5.5640
G01 X5.5754 Y13.2353 Z-5.5044
G01 X5.5913 Y13.2786 Z-5.5260
G01 X5.5479 Y13.1575 Z-5.4649
G01 X5.5051 Y13.0365 Z-5.4045
G01 X5.5205 Y13.0815 Z-5.4270
G01 X5.4804 Y12.9602 Z-5.3660
G01 X5.4412 Y12.8391 Z-5.3058
G01 X5.4558 Y12.8853 Z-5.3291
G01 X5.4184 Y12.7636 Z-5.2673
G01 X5.3813 Y12.6420 Z-5.2058
G01 X5.3951 Y12.6891 Z-5.2298
G01 X5.3605 Y12.5670 Z-5.1674
G01 X5.3274 Y12.4452 Z-5.1065
G01 X5.3398 Y12.4926 Z-5.1304
G01 X5.3087 Y12.3702 Z-5.0680
G01 X5.2776 Y12.2478 Z-5.0057
G01 X5.2892 Y12.2951 Z-5.0300
G01 X5.2602 Y12.1720 Z-4.9662
G01 X5.2328 Y12.0494 Z-4.9040
G01 X5.1793 Y11.7705 Z-4.7600
G01 X5.1459 Y11.5655 Z-4.6540
G01 X5.1181 Y11.3572 Z-4.5462
G01 X5.0945 Y11.1442 Z-4.4347
G01 X5.0780 Y10.9270 Z-4.3219
G01 X5.0707 Y10.7898 Z-4.2490
G01 X5.0668 Y10.6668 Z-4.1834
G01 X5.0657 Y10.5342 Z-4.1129
G01 X5.0660 Y10.4118 Z-4.0488
G01 X5.0681 Y10.2745 Z-3.9757
G01 X5.0712 Y10.1518 Z-3.9115
G01 X5.0783 Y10.0109 Z-3.8380
G01 X5.0859 Y9.8892 Z-3.7757
G01 X5.0969 Y9.7436 Z-3.7000
G01 X5.1077 Y9.6219 Z-3.6379
G01 X5.1248 Y9.4732 Z-3.5625
G01 X5.1403 Y9.3528 Z-3.5026
G01 X5.1622 Y9.1998 Z-3.4254
G01 X5.1813 Y9.0799 Z-3.3663
G01 X5.2106 Y8.9247 Z-3.2905
G01 X5.2345 Y8.8063 Z-3.2338
G01 X5.2694 Y8.6474 Z-3.1568
G01 X5.2976 Y8.5303 Z-3.1018
G01 X5.3411 Y8.3704 Z-3.0277
G01 X5.3738 Y8.2549 Z-2.9748
G01 X5.4240 Y8.0924 Z-2.9006
G01 X5.4619 Y7.9793 Z-2.8509
G01 X5.5215 Y7.8170 Z-2.7804
G01 X5.5636 Y7.7055 Z-2.7325
G01 X5.6314 Y7.5425 Z-2.6640
G01 X5.6792 Y7.4343 Z-2.6201
G01 X5.7537 Y7.2696 Z-2.5517
G01 X5.8045 Y7.1620 Z-2.5082
G01 X5.8880 Y6.9979 Z-2.4429
G01 X5.9424 Y6.8918 Z-2.4006
G01 X6.0329 Y6.7266 Z-2.3357
G01 X6.0924 Y6.6236 Z-2.2968
G01 X6.1903 Y6.4579 Z-2.2329
G01 X6.2536 Y6.3568 Z-2.1958
G01 X6.2948 Y6.2938 Z-2.1730
G01 X6.3609 Y6.1934 Z-2.1360
G01 X6.4276 Y6.0937 Z-2.0999
G01 X6.4730 Y6.0295 Z-2.0775
G01 X6.5440 Y5.9326 Z-2.0441
G01 X6.6150 Y5.8358 Z-2.0107
G01 X6.6643 Y5.7704 Z-1.9883
G01 X6.7395 Y5.6763 Z-1.9575
G01 X6.8153 Y5.5830 Z-1.9277
G01 X6.9090 Y5.4718 Z-1.8903
G01 X6.9763 Y5.3966 Z-1.8666
G01 X7.0440 Y5.3222 Z-1.8439
G01 X7.1118 Y5.2478 Z-1.8211
G01 X7.1802 Y5.1743 Z-1.7995
G01 X7.2500 Y5.1028 Z-1.7804
G01 X7.3418 Y5.0128 Z-1.7539
G01 X7.4143 Y4.9424 Z-1.7332
G01 X7.4881 Y4.8741 Z-1.7149
G01 X7.5624 Y4.8067 Z-1.6977
G01 X7.6368 Y4.7393 Z-1.6805
G01 X7.7117 Y4.6728 Z-1.6643
G01 X7.8163 Y4.5872 Z-1.6433
G01 X7.8948 Y4.5236 Z-1.6276
G01 X7.9735 Y4.4604 Z-1.6123
G01 X8.0535 Y4.3993 Z-1.5995
G01 X8.1337 Y4.3386 Z-1.5871
G01 X8.2139 Y4.2779 Z-1.5747
G01 X8.3299 Y4.1968 Z-1.5579
G01 X8.4139 Y4.1396 Z-1.5466
G01 X8.4978 Y4.0825 Z-1.5353
G01 X8.5825 Y4.0267 Z-1.5255
G01 X8.6679 Y3.9721 Z-1.5171
G01 X8.7532 Y3.9176 Z-1.5088
G01 X8.8794 Y3.8414 Z-1.4957
G01 X8.9683 Y3.7903 Z-1.4880
G01 X9.0571 Y3.7392 Z-1.4804
G01 X9.1460 Y3.6883 Z-1.4731
G01 X9.2359 Y3.6393 Z-1.4679
G01 X9.3258 Y3.5905 Z-1.4629
G01 X9.4615 Y3.5198 Z-1.4532
G01 X9.5546 Y3.4740 Z-1.4485
G01 X9.6477 Y3.4284 Z-1.4439
G01 X9.7409 Y3.3827 Z-1.4392
G01 X9.8345 Y3.3382 Z-1.4359
G01 X9.9285 Y3.2946 Z-1.4335
G01 X9.9769 Y3.2726 Z-1.4318
G01 X10.0732 Y3.2300 Z-1.4274
G01 X10.1699 Y3.1885 Z-1.4243
G01 X10.2669 Y3.1479 Z-1.4220
G01 X10.3638 Y3.1072 Z-1.4198
G01 X10.4609 Y3.0666 Z-1.4176
G01 X10.5586 Y3.0276 Z-1.4172
G01 X10.6115 Y3.0071 Z-1.4165
G01 X10.7115 Y2.9693 Z-1.4142
G01 X10.8114 Y2.9315 Z-1.4121
G01 X10.9119 Y2.8952 Z-1.4115
G01 X11.0125 Y2.8591 Z-1.4111
G01 X11.1130 Y2.8230 Z-1.4106
G01 X11.2133 Y2.7860 Z-1.4093
G01 X11.2636 Y2.7675 Z-1.4079
G01 X11.3532 Y2.7357 Z-1.4047
G01 X11.4429 Y2.7038 Z-1.4014
G01 X11.5326 Y2.6723 Z-1.3985
G01 X11.6225 Y2.6415 Z-1.3963
G01 X11.7124 Y2.6106 Z-1.3940
G01 X11.8024 Y2.5797 Z-1.3918
G01 X11.8923 Y2.5489 Z-1.3897
G01 X12.0330 Y2.5044 Z-1.3858
G01 X12.1254 Y2.4754 Z-1.3830
G01 X12.2177 Y2.4465 Z-1.3802
G01 X12.3101 Y2.4179 Z-1.3778
G01 X12.4028 Y2.3900 Z-1.3760
G01 X12.4954 Y2.3620 Z-1.3743
G01 X12.5880 Y2.3341 Z-1.3725
G01 X12.6405 Y2.3187 Z-1.3711
G01 X12.7354 Y2.2924 Z-1.3684
G01 X12.8305 Y2.2664 Z-1.3662
G01 X12.9255 Y2.2405 Z-1.3639
G01 X13.0206 Y2.2145 Z-1.3616
G01 X13.1158 Y2.1890 Z-1.3598
G01 X13.2111 Y2.1640 Z-1.3585
G01 X13.3064 Y2.1391 Z-1.3572
G01 X13.3631 Y2.1247 Z-1.3560
G01 X13.4606 Y2.1007 Z-1.3533
G01 X13.5583 Y2.0776 Z-1.3513
G01 X13.6560 Y2.0546 Z-1.3496
G01 X13.7537 Y2.0316 Z-1.3478
G01 X13.8514 Y2.0086 Z-1.3461
G01 X13.9493 Y1.9864 Z-1.3450
G01 X14.0473 Y1.9644 Z-1.3443
G01 X14.1082 Y1.9512 Z-1.3434
G01 X14.2084 Y1.9303 Z-1.3411
G01 X14.3086 Y1.9095 Z-1.3391
G01 X14.4090 Y1.8895 Z-1.3378
G01 X14.5093 Y1.8696 Z-1.3366
G01 X14.6097 Y1.8497 Z-1.3354
G01 X14.7101 Y1.8298 Z-1.3343
G01 X14.8107 Y1.8108 Z-1.3341
G01 X14.8757 Y1.7990 Z-1.3335
G01 X14.9785 Y1.7812 Z-1.3318
G01 X15.0814 Y1.7633 Z-1.3301
G01 X15.1843 Y1.7460 Z-1.3291
G01 X15.2873 Y1.7291 Z-1.3284
G01 X15.3903 Y1.7122 Z-1.3278
G01 X15.4933 Y1.6953 Z-1.3271
G01 X15.5964 Y1.6789 Z-1.3270
G01 X15.6596 Y1.6696 Z-1.3268
G01 X15.7533 Y1.6564 Z-1.3259
G01 X15.8471 Y1.6432 Z-1.3249
G01 X15.9408 Y1.6301 Z-1.3240
G01 X16.0347 Y1.6175 Z-1.3236
G01 X16.1285 Y1.6052
G01 X16.2224 Y1.5930 Z-1.3235
G01 X16.3162 Y1.5807 Z-1.3234
G01 X16.4101 Y1.5685 Z-1.3235
G01 X16.4712 Y1.5615 Z-1.3236
G01 X16.5673 Y1.5511 Z-1.3232
G01 X16.6633 Y1.5407 Z-1.3228
G01 X16.7594 Y1.5303 Z-1.3224
G01 X16.8554 Y1.5201 Z-1.3222
G01 X16.9516 Y1.5105 Z-1.3226
G01 X17.0477 Y1.5010 Z-1.3231
G01 X17.1438 Y1.4915 Z-1.3236
G01 X17.2400 Y1.4819 Z-1.3240
G01 X17.3046 Y1.4762 Z-1.3242
G01 X17.4029 Y1.4686 Z-1.3244
G01 X17.5012 Y1.4609 Z-1.3245
G01 X17.5995 Y1.4533 Z-1.3247
G01 X17.6979 Y1.4457 Z-1.3248
G01 X17.7962 Y1.4388 Z-1.3257
G01 X17.8946 Y1.4320 Z-1.3267
G01 X17.9930 Y1.4252 Z-1.3277
G01 X18.0914 Y1.4184 Z-1.3287
G01 X18.1594 Y1.4142 Z-1.3290
G01 X18.2599 Y1.4093 Z-1.3297
G01 X18.3605 Y1.4044 Z-1.3303
G01 X18.4611 Y1.3996 Z-1.3310
G01 X18.5617 Y1.3947 Z-1.3317
G01 X18.6623 Y1.3903 Z-1.3329
G01 X18.7629 Y1.3863 Z-1.3344
G01 X18.8635 Y1.3822 Z-1.3360
G01 X18.9641 Y1.3782 Z-1.3375
G01 X19.0353 Y1.3758 Z-1.3382
G01 X19.1381 Y1.3735 Z-1.3392
G01 X19.2409 Y1.3714 Z-1.3405
G01 X19.3437 Y1.3693 Z-1.3417
G01 X19.4465 Y1.3672 Z-1.3429
G01 X19.5493 Y1.3655 Z-1.3445
G01 X19.6522 Y1.3646 Z-1.3470
G01 X19.7550 Y1.3638 Z-1.3495
G01 X19.8578 Y1.3630 Z-1.3521
G01 X19.9322 Y1.3628 Z-1.3535
G01 X20.0372 Y1.3632 Z-1.3549
G01 X20.1422 Y1.3635 Z-1.3563
G01 X20.2472 Y1.3638 Z-1.3578
G01 X20.3522 Y1.3641 Z-1.3592
G01 X20.4572 Y1.3645 Z-1.3607
G01 X20.5622 Y1.3666 Z-1.3639
G01 X20.6672 Y1.3687 Z-1.3671
G01 X20.7722 Y1.3709 Z-1.3704
G01 X20.8434 Y1.3727 Z-1.3722
G01 X20.9437 Y1.3759 Z-1.3742
G01 X21.0440 Y1.3791 Z-1.3761
G01 X21.1443 Y1.3823 Z-1.3781
G01 X21.2446 Y1.3855 Z-1.3800
G01 X21.3449 Y1.3887 Z-1.3820
G01 X21.4452 Y1.3933 Z-1.3853
G01 X21.5455 Y1.3983 Z-1.3891
G01 X21.6458 Y1.4033 Z-1.3929
G01 X21.7461 Y1.4084 Z-1.3967
G01 X21.8464 Y1.4134 Z-1.4005
G01 X21.9467 Y1.4185 Z-1.4043
G01 X22.0470 Y1.4235 Z-1.4081
G01 X22.1473 Y1.4286 Z-1.4119
G01 X22.2105 Y1.4321 Z-1.4139
G01 X22.3086 Y1.4391 Z-1.4171
G01 X22.4067 Y1.4472 Z-1.4215
G01 X22.5048 Y1.4553 Z-1.4259
G01 X22.6029 Y1.4634 Z-1.4302
G01 X22.7010 Y1.4715 Z-1.4346
G01 X22.7991 Y1.4796 Z-1.4390
G01 X22.8972 Y1.4877 Z-1.4433
G01 X22.9953 Y1.4958 Z-1.4477
G01 X23.0934 Y1.5039 Z-1.4521
G01 X23.1915 Y1.5129 Z-1.4574
G01 X23.2895 Y1.5231 Z-1.4638
G01 X23.3875 Y1.5332 Z-1.4701
G01 X23.4856 Y1.5433 Z-1.4765
G01 X23.5470 Y1.5500 Z-1.4801
G01 X23.6503 Y1.5621 Z-1.4854
G01 X23.7535 Y1.5741 Z-1.4908
G01 X23.8568 Y1.5861 Z-1.4961
G01 X23.9600 Y1.5982 Z-1.5015
G01 X24.0632 Y1.6115 Z-1.5081
G01 X24.1663 Y1.6257 Z-1.5157
G01 X24.2694 Y1.6400 Z-1.5232
G01 X24.3725 Y1.6543 Z-1.5308
G01 X24.4756 Y1.6685 Z-1.5384
G01 X24.5787 Y1.6828 Z-1.5460
G01 X24.6818 Y1.6970 Z-1.5535
G01 X24.7849 Y1.7113 Z-1.5611
G01 X24.8439 Y1.7200 Z-1.5652
G01 X24.9445 Y1.7374 Z-1.5733
G01 X25.0451 Y1.7551 Z-1.5816
G01 X25.1457 Y1.7727 Z-1.5899
G01 X25.2463 Y1.7904 Z-1.5982
G01 X25.3469 Y1.8080 Z-1.6065
G01 X25.4475 Y1.8257 Z-1.6148
G01 X25.5481 Y1.8433 Z-1.6231
G01 X25.6487 Y1.8610 Z-1.6315
G01 X25.7491 Y1.8804 Z-1.6415
G01 X25.8495 Y1.9005 Z-1.6522
G01 X25.9499 Y1.9205 Z-1.6629
G01 X26.0503 Y1.9405 Z-1.6737
G01 X26.1020 Y1.9513 Z-1.6788
G01 X26.2000 Y1.9723 Z-1.6879
G01 X26.2981 Y1.9934 Z-1.6969
G01 X26.3961 Y2.0144 Z-1.7060
G01 X26.4941 Y2.0358 Z-1.7154
G01 X26.5918 Y2.0591 Z-1.7267
G01 X26.6896 Y2.0825 Z-1.7382
G01 X26.7873 Y2.1060 Z-1.7497
G01 X26.8851 Y2.1295 Z-1.7612
G01 X26.9828 Y2.1530 Z-1.7728
G01 X27.0805 Y2.1765 Z-1.7843
G01 X27.1783 Y2.2000 Z-1.7958
G01 X27.2760 Y2.2236 Z-1.8074
G01 X27.3196 Y2.2351 Z-1.8129
G01 X27.4147 Y2.2620 Z-1.8252
G01 X27.5097 Y2.2889 Z-1.8375
G01 X27.6048 Y2.3159 Z-1.8498
G01 X27.6998 Y2.3428 Z-1.8622
G01 X27.7948 Y2.3697 Z-1.8745
G01 X27.8899 Y2.3967 Z-1.8869
G01 X27.9849 Y2.4236 Z-1.8992
G01 X28.0799 Y2.4508 Z-1.9118
G01 X28.1746 Y2.4799 Z-1.9263
G01 X28.2693 Y2.5094 Z-1.9412
G01 X28.3639 Y2.5389 Z-1.9562
G01 X28.4586 Y2.5684 Z-1.9711
G01 X28.5854 Y2.6098 Z-1.9895
G01 X28.6777 Y2.6402 Z-2.0026
G01 X28.7700 Y2.6706 Z-2.0158
G01 X28.8622 Y2.7012 Z-2.0292
G01 X28.9541 Y2.7336 Z-2.0445
G01 X29.0459 Y2.7666 Z-2.0603
G01 X29.1377 Y2.7995 Z-2.0761
G01 X29.2295 Y2.8325 Z-2.0919
G01 X29.3213 Y2.8654 Z-2.1077
G01 X29.4131 Y2.8984 Z-2.1235
G01 X29.5049 Y2.9314 Z-2.1393
G01 X29.5967 Y2.9643 Z-2.1551
G01 X29.7217 Y3.0135 Z-2.1770
G01 X29.8180 Y3.0529 Z-2.1951
G01 X29.9143 Y3.0923 Z-2.2131
G01 X30.0106 Y3.1317 Z-2.2311
G01 X30.1069 Y3.1710 Z-2.2491
G01 X30.2032 Y3.2104 Z-2.2672
G01 X30.2995 Y3.2498 Z-2.2852
G01 X30.3957 Y3.2893 Z-2.3034
G01 X30.4916 Y3.3307 Z-2.3234
G01 X30.5873 Y3.3730 Z-2.3444
G01 X30.6829 Y3.4153 Z-2.3654
G01 X30.7973 Y3.4679 Z-2.3888
G01 X30.8904 Y3.5109 Z-2.4077
G01 X30.9834 Y3.5539 Z-2.4266
G01 X31.0765 Y3.5969 Z-2.4455
G01 X31.1695 Y3.6401 Z-2.4646
G01 X31.2621 Y3.6852 Z-2.4857
G01 X31.3545 Y3.7311 Z-2.5075
G01 X31.4468 Y3.7769 Z-2.5294
G01 X31.5392 Y3.8228 Z-2.5512
G01 X31.6315 Y3.8687 Z-2.5731
G01 X31.7239 Y3.9145 Z-2.5949
G01 X31.8236 Y3.9660 Z-2.6169
G01 X31.9133 Y4.0127 Z-2.6368
G01 X32.0027 Y4.0609 Z-2.6582
G01 X32.0917 Y4.1102 Z-2.6809
G01 X32.1806 Y4.1595 Z-2.7035
G01 X32.2696 Y4.2089 Z-2.7262
G01 X32.3586 Y4.2582 Z-2.7488
G01 X32.4476 Y4.3076 Z-2.7715
G01 X32.5366 Y4.3569 Z-2.7941
G01 X32.6256 Y4.4062 Z-2.8168
G01 X32.7254 Y4.4183 Z-2.8007
G01 X32.7982 Y4.5075 Z-2.8627
G01 X32.8838 Y4.5603 Z-2.8861
G01 X32.9694 Y4.6130 Z-2.9095
G01 X33.0550 Y4.6657 Z-2.9329
G01 X33.1405 Y4.7184 Z-2.9563
G01 X33.2261 Y4.7711 Z-2.9797
G01 X33.3117 Y4.8238 Z-3.0031
G01 X33.3972 Y4.8766 Z-3.0265
G01 X33.4824 Y4.9304 Z-3.0511
G01 X33.5672 Y4.9857 Z-3.0772
G01 X33.7203 Y5.0880 Z-3.1235
G01 X33.8024 Y5.1439 Z-3.1475
G01 X33.8845 Y5.1999 Z-3.1716
G01 X33.9666 Y5.2559 Z-3.1957
G01 X34.0488 Y5.3118 Z-3.2197
G01 X34.1309 Y5.3678 Z-3.2438
G01 X34.2127 Y5.4247 Z-3.2688
G01 X34.2940 Y5.4829 Z-3.2953
G01 X34.3751 Y5.5415 Z-3.3222
G01 X34.4562 Y5.6001 Z-3.3491
G01 X34.6015 Y5.7073 Z-3.3959
G01 X34.6872 Y5.7717 Z-3.4228
G01 X34.7730 Y5.8362 Z-3.4497
G01 X34.8588 Y5.9006 Z-3.4766
G01 X34.9443 Y5.9659 Z-3.5043
G01 X35.0291 Y6.0326 Z-3.5337
G01 X35.1138 Y6.0999 Z-3.5636
G01 X35.1984 Y6.1671 Z-3.5935
G01 X35.2830 Y6.2343 Z-3.6234
G01 X35.4203 Y6.3454 Z-3.6706
G01 X35.5022 Y6.4131 Z-3.6981
G01 X35.5842 Y6.4808 Z-3.7255
G01 X35.6659 Y6.5492 Z-3.7537
G01 X35.7470 Y6.6189 Z-3.7832
G01 X35.8279 Y6.6888 Z-3.8131
G01 X35.9089 Y6.7586 Z-3.8429
G01 X35.9899 Y6.8285 Z-3.8728
G01 X36.0709 Y6.8984 Z-3.9026
G01 X36.1902 Y7.0035 Z-3.9455
G01 X36.2686 Y7.0739 Z-3.9729
G01 X36.3468 Y7.1445 Z-4.0007
G01 X36.4245 Y7.2164 Z-4.0297
G01 X36.5018 Y7.2888 Z-4.0595
G01 X36.5791 Y7.3613 Z-4.0892
G01 X36.6564 Y7.4338 Z-4.1190
G01 X36.7338 Y7.5063 Z-4.1487
G01 X36.8111 Y7.5787 Z-4.1785
G01 X36.9137 Y7.6768 Z-4.2170
G01 X36.9885 Y7.7498 Z-4.2443
G01 X37.0630 Y7.8232 Z-4.2723
G01 X37.1370 Y7.8978 Z-4.3014
G01 X37.2107 Y7.9727 Z-4.3310
G01 X37.2844 Y8.0477 Z-4.3606
G01 X37.3581 Y8.1226 Z-4.3902
G01 X37.4318 Y8.1975 Z-4.4198
G01 X37.5056 Y8.2725 Z-4.4493
G01 X37.5928 Y8.3629 Z-4.4835
G01 X37.6641 Y8.4384 Z-4.5107
G01 X37.7351 Y8.5141 Z-4.5383
G01 X37.8056 Y8.5909 Z-4.5670
G01 X37.8758 Y8.6682 Z-4.5964
G01 X37.9460 Y8.7455 Z-4.6257
G01 X38.0161 Y8.8228 Z-4.6551
G01 X38.0863 Y8.9001 Z-4.6844
G01 X38.1565 Y8.9774 Z-4.7138
G01 X38.2298 Y9.0598 Z-4.7437
G01 X38.2976 Y9.1377 Z-4.7707
G01 X38.3655 Y9.2156 Z-4.7977
G01 X38.4328 Y9.2942 Z-4.8256
G01 X38.4996 Y9.3736 Z-4.8545
G01 X38.5663 Y9.4531 Z-4.8835
G01 X38.6330 Y9.5327 Z-4.9126
G01 X38.6997 Y9.6123 Z-4.9416
G01 X38.7663 Y9.6919 Z-4.9707
G01 X38.8274 Y9.7662 Z-4.9967
G01 X38.8918 Y9.8464 Z-5.0234
G01 X38.9563 Y9.9266 Z-5.0501
G01 X39.0207 Y10.0068 Z-5.0769
G01 X39.0846 Y10.0878 Z-5.1046
G01 X39.1479 Y10.1694 Z-5.1331
G01 X39.2112 Y10.2512 Z-5.1618
G01 X39.2745 Y10.3329 Z-5.1905
G01 X39.3377 Y10.4147 Z-5.2192
G01 X39.3882 Y10.4813 Z-5.2416
G01 X39.4493 Y10.5638 Z-5.2681
G01 X39.5104 Y10.6462 Z-5.2945
G01 X39.5715 Y10.7287 Z-5.3209
G01 X39.6326 Y10.8111 Z-5.3474
G01 X39.6933 Y10.8940 Z-5.3744
G01 X39.7534 Y10.9777 Z-5.4024
G01 X39.8134 Y11.0616 Z-5.4307
G01 X39.8733 Y11.1455 Z-5.4590
G01 X39.9406 Y11.2444 Z-5.4892
G01 X39.9971 Y11.3279 Z-5.5144
G01 X40.0536 Y11.4114 Z-5.5396
G01 X40.1101 Y11.4949 Z-5.5648
G01 X40.1666 Y11.5784 Z-5.5900
G01 X40.2231 Y11.6620 Z-5.6153
G01 X40.2794 Y11.7457 Z-5.6409
G01 X40.3350 Y11.8302 Z-5.6674
G01 X40.4066 Y11.9447 Z-5.7008
G01 X40.4591 Y12.0293 Z-5.7251
G01 X40.5117 Y12.1140 Z-5.7494
G01 X40.5642 Y12.1986 Z-5.7738
G01 X40.6167 Y12.2832 Z-5.7981
G01 X40.6692 Y12.3679 Z-5.8225
G01 X40.7217 Y12.4525 Z-5.8468
G01 X40.7743 Y12.5371 Z-5.8712
G01 X40.8330 Y12.6368 Z-5.8973
G01 X40.8822 Y12.7221 Z-5.9200
G01 X40.9308 Y12.8078 Z-5.9434
G01 X40.9795 Y12.8935 Z-5.9668
G01 X41.0281 Y12.9792 Z-5.9902
G01 X41.0768 Y13.0649 Z-6.0136
G01 X41.1254 Y13.1506 Z-6.0371
G01 X41.1741 Y13.2363 Z-6.0605
G01 X41.2326 Y13.3452 Z-6.0870
G01 X41.2833 Y13.4395 Z-6.1100
G01 X41.3339 Y13.5339 Z-6.1330
G01 X41.3842 Y13.6286 Z-6.1566
G01 X41.4338 Y13.7239 Z-6.1810
G01 X41.4832 Y13.8194 Z-6.2057
G01 X41.5326 Y13.9148 Z-6.2304
G01 X41.5872 Y14.0264 Z-6.2562
G01 X41.6339 Y14.1220 Z-6.2782
G01 X41.6806 Y14.2177 Z-6.3002
G01 X41.7272 Y14.3134 Z-6.3221
G01 X41.7739 Y14.4090 Z-6.3441
G01 X41.8332 Y14.4948 Z-6.3500
G01 X41.8972 Y14.5770
G01 X41.9623 Y14.6689
G01 X42.0222 Y14.7538
G01 X42.0820 Y14.8387
G01 X42.1419 Y14.9237
G01 X42.2018 Y15.0086
G01 X42.2616 Y15.0935
G01 X42.3215 Y15.1785
G01 X42.3815 Y15.2726
G01 X42.4373 Y15.3603
G01 X42.4930 Y15.4480
G01 X42.5487 Y15.5357
G01 X42.6045 Y15.6234
G01 X42.6602 Y15.7111
G01 X42.7160 Y15.7988
G01 X42.7721 Y15.8968
G01 X42.8237 Y15.9873
G01 X42.8753 Y16.0778
G01 X42.9269 Y16.1683
G01 X42.9786 Y16.2588
G01 X43.0302 Y16.3493
G01 X43.0818 Y16.4397
G01 X43.1350 Y16.5436
G01 X43.1824 Y16.6368
G01 X43.2299 Y16.7301
G01 X43.2774 Y16.8233
G01 X43.3249 Y16.9166
G01 X43.3724 Y17.0099
G01 X43.4198 Y17.1031
G01 X43.4608 Y17.1929
G01 X43.5002 Y17.2802
G01 X43.5396 Y17.3675
G01 X43.5790 Y17.4548
G01 X43.6184 Y17.5421
G01 X43.6578 Y17.6294
G01 X43.6973 Y17.7167
G01 X43.7705 Y17.8897
G01 X43.8062 Y17.9795
G01 X43.8419 Y18.0693
G01 X43.8775 Y18.1591
G01 X43.9132 Y18.2489
G01 X43.9488 Y18.3388
G01 X43.9845 Y18.4286
G01 X44.0202 Y18.5184
G01 X44.0535 Y18.6146
G01 X44.0854 Y18.7070
G01 X44.1173 Y18.7993
G01 X44.1492 Y18.8917
G01 X44.1811 Y18.9840
G01 X44.2130 Y19.0763
G01 X44.2449 Y19.1687
G01 X44.2768 Y19.2610
G01 X44.3093 Y19.3695
G01 X44.3374 Y19.4644
G01 X44.3656 Y19.5593
G01 X44.3937 Y19.6541
G01 X44.4219 Y19.7490
G01 X44.4500 Y19.8439
G01 X44.4782 Y19.9387
G01 X44.5064 Y20.0336
G01 X44.5375 Y20.1560
G01 X44.5619 Y20.2534
G01 X44.5863 Y20.3508
G01 X44.6107 Y20.4482
G01 X44.6351 Y20.5455
G01 X44.6595 Y20.6429
G01 X44.6839 Y20.7403
G01 X44.7083 Y20.8377
G01 X44.7375 Y20.9754
G01 X44.7582 Y21.0753
G01 X44.7788 Y21.1752
G01 X44.7995 Y21.2751
G01 X44.8201 Y21.3750
G01 X44.8408 Y21.4749
G01 X44.8614 Y21.5748
G01 X44.8821 Y21.6747
G01 X44.8916 Y21.7264
G01 X44.9085 Y21.8289
G01 X44.9254 Y21.9313
G01 X44.9423 Y22.0337
G01 X44.9592 Y22.1362
G01 X44.9761 Y22.2386
G01 X44.9929 Y22.3410
G01 X45.0098 Y22.4434
G01 X45.0267 Y22.5459
G01 X45.0347 Y22.5994
G01 X45.0467 Y22.6956
G01 X45.0588 Y22.7918
G01 X45.0708 Y22.8880
G01 X45.0829 Y22.9842
G01 X45.0949 Y23.0804
G01 X45.1069 Y23.1766
G01 X45.1190 Y23.2728
G01 X45.1310 Y23.3690
G01 X45.1431 Y23.4652
G01 X45.1489 Y23.5209
G01 X45.1575 Y23.6194
G01 X45.1661 Y23.7180
G01 X45.1747 Y23.8165
G01 X45.1833 Y23.9150
G01 X45.1919 Y24.0135
G01 X45.2005 Y24.1120
G01 X45.2091 Y24.2106
G01 X45.2177 Y24.3091
G01 X45.2263 Y24.4076
G01 X45.2312 Y24.4789
G01 X45.2364 Y24.5797
G01 X45.2416 Y24.6805
G01 X45.2467 Y24.7814
G01 X45.2519 Y24.8822
G01 X45.2570 Y24.9830
G01 X45.2622 Y25.0839
G01 X45.2674 Y25.1847
G01 X45.2725 Y25.2855
G01 X45.2777 Y25.3863
G01 X45.2806 Y25.4736
G01 X45.2823 Y25.5767
G01 X45.2840 Y25.6799
G01 X45.2857 Y25.7830
G01 X45.2875 Y25.8862
G01 X45.2892 Y25.9893
G01 X45.2909 Y26.0924
G01 X45.2926 Y26.1956
G01 X45.2943 Y26.2987
G01 X45.2961 Y26.4019
G01 Y26.4928
G01 X45.2943 Y26.5949
G01 X45.2925 Y26.6971
G01 X45.2907 Y26.7993
G01 X45.2889 Y26.9014
G01 X45.2871 Y27.0036
G01 X45.2853 Y27.1058
G01 X45.2835 Y27.2079
G01 X45.2817 Y27.3101
G01 X45.2791 Y27.3845
G01 X45.2738 Y27.4845
G01 X45.2684 Y27.5846
G01 X45.2631 Y27.6847
G01 X45.2577 Y27.7847
G01 X45.2523 Y27.8848
G01 X45.2470 Y27.9848
G01 X45.2416 Y28.0849
G01 X45.2362 Y28.1849
G01 X45.2320 Y28.2446
G01 X45.2230 Y28.3425
G01 X45.2141 Y28.4404
G01 X45.2051 Y28.5384
G01 X45.1962 Y28.6363
G01 X45.1872 Y28.7343
G01 X45.1783 Y28.8322
G01 X45.1693 Y28.9302
G01 X45.1604 Y29.0281
G01 X45.1429 Y29.1694
G01 X45.1304 Y29.2652
G01 X45.1178 Y29.3610
G01 X45.1053 Y29.4569
G01 X45.0928 Y29.5527
G01 X45.0803 Y29.6485
G01 X45.0678 Y29.7444
G01 X45.0552 Y29.8402
G01 X45.0303 Y29.9893
G01 X45.0126 Y30.0924
G01 X44.9949 Y30.1955
G01 X44.9772 Y30.2986
G01 X44.9595 Y30.4017
G01 X44.9418 Y30.5048
G01 X44.9241 Y30.6079
G01 X44.8933 Y30.7560
G01 X44.8717 Y30.8568
G01 X44.8500 Y30.9575
G01 X44.8284 Y31.0583
G01 X44.8068 Y31.1591
G01 X44.7851 Y31.2599
G01 X44.7635 Y31.3606
G01 X44.7295 Y31.4945
G01 X44.7039 Y31.5929
G01 X44.6784 Y31.6914
G01 X44.6528 Y31.7898
G01 X44.6272 Y31.8883
G01 X44.6016 Y31.9867
G01 X44.5760 Y32.0852
G01 X44.5395 Y32.2062
G01 X44.5100 Y32.3023
G01 X44.4805 Y32.3985
G01 X44.4510 Y32.4946
G01 X44.4215 Y32.5907
G01 X44.3919 Y32.6868
G01 X44.3624 Y32.7830
G01 X44.3237 Y32.8927
G01 X44.2903 Y32.9865
G01 X44.2568 Y33.0803
G01 X44.2234 Y33.1741
G01 X44.1899 Y33.2679
G01 X44.1565 Y33.3617
G01 X44.1230 Y33.4555
G01 X44.0824 Y33.5555
G01 X44.0450 Y33.6470
G01 X44.0076 Y33.7385
G01 X43.9702 Y33.8300
G01 X43.9329 Y33.9214
G01 X43.8955 Y34.0129
G01 X43.8581 Y34.1044
G01 X43.8155 Y34.1966
G01 X43.7741 Y34.2858
G01 X43.7328 Y34.3749
G01 X43.6915 Y34.4641
G01 X43.6502 Y34.5532
G01 X43.6089 Y34.6424
G01 X43.5719 Y34.7336 Z-6.3452
G01 X43.5226 Y34.8177 Z-6.3500
G01 X43.4774 Y34.9046
G01 X43.4321 Y34.9914
G01 X43.3869 Y35.0782
G01 X43.3416 Y35.1651
G01 X43.2963 Y35.2519
G01 X43.3027 Y35.3657 Z-6.2918
G01 X43.2033 Y35.4207 Z-6.3500
G01 X43.1541 Y35.5052
G01 X43.1049 Y35.5897
G01 X43.0557 Y35.6742
G01 X43.0065 Y35.7588
G01 X42.9573 Y35.8433
G01 X42.9690 Y35.9632 Z-6.2796
G01 X42.8567 Y36.0073 Z-6.3500
G01 X42.8036 Y36.0895
G01 X42.7504 Y36.1717
G01 X42.6973 Y36.2538
G01 X42.6442 Y36.3360
G01 X42.5910 Y36.4182
G01 X42.5727 Y36.5229 Z-6.3086
G01 X42.4817 Y36.5791 Z-6.3500
G01 X42.4246 Y36.6589
G01 X42.3676 Y36.7388
G01 X42.3105 Y36.8187
G01 X42.2534 Y36.8985
G01 X42.1964 Y36.9784
G01 X42.1393 Y37.0583
G01 X42.0770 Y37.1375
G01 X42.0160 Y37.2150
G01 X41.9550 Y37.2926
G01 X41.8941 Y37.3701
G01 X41.8331 Y37.4477
G01 X41.7721 Y37.5252
G01 X41.7111 Y37.6027
G01 X41.6413 Y37.6837
G01 X41.5764 Y37.7590
G01 X41.5115 Y37.8342
G01 X41.4465 Y37.9094
G01 X41.3816 Y37.9846
G01 X41.3233 Y38.0655 Z-6.3413
G01 X41.2729 Y38.1534 Z-6.3220
G01 X41.2116 Y38.2552 Z-6.2970
G01 X41.1586 Y38.3431 Z-6.2752
G01 X41.1055 Y38.4309 Z-6.2534
G01 X41.0525 Y38.5188 Z-6.2316
G01 X40.9994 Y38.6067 Z-6.2099
G01 X40.9464 Y38.6945 Z-6.1881
G01 X40.8934 Y38.7824 Z-6.1663
G01 X40.8200 Y38.8975 Z-6.1353
G01 X40.7631 Y38.9845 Z-6.1125
G01 X40.7059 Y39.0712 Z-6.0901
G01 X40.6487 Y39.1579 Z-6.0676
G01 X40.5915 Y39.2445 Z-6.0452
G01 X40.5343 Y39.3312 Z-6.0228
G01 X40.4771 Y39.4179 Z-6.0004
G01 X40.3890 Y39.5464 Z-5.9640
G01 X40.3289 Y39.6333 Z-5.9390
G01 X40.2686 Y39.7201 Z-5.9142
G01 X40.2077 Y39.8062 Z-5.8903
G01 X40.1463 Y39.8917 Z-5.8672
G01 X40.0849 Y39.9771 Z-5.8442
G01 X40.0234 Y40.0626 Z-5.8212
G01 X39.9445 Y40.1705 Z-5.7910
G01 X39.8807 Y40.2564 Z-5.7660
G01 X39.8169 Y40.3422 Z-5.7410
G01 X39.7531 Y40.4281 Z-5.7160
G01 X39.6893 Y40.5139 Z-5.6911
G01 X39.6250 Y40.5991 Z-5.6669
G01 X39.5600 Y40.6835 Z-5.6437
G01 X39.4949 Y40.7678 Z-5.6209
G01 X39.4359 Y40.8426 Z-5.5995
G01 X39.3691 Y40.9255 Z-5.5746
G01 X39.3023 Y41.0085 Z-5.5497
G01 X39.2355 Y41.0915 Z-5.5248
G01 X39.1687 Y41.1744 Z-5.5000
G01 X39.1019 Y41.2574 Z-5.4751
G01 X39.0349 Y41.3401 Z-5.4504
G01 X38.9674 Y41.4221 Z-5.4268
G01 X38.9021 Y41.4986 Z-5.4042
G01 X38.8322 Y41.5786 Z-5.3794
G01 X38.7624 Y41.6587 Z-5.3547
G01 X38.6926 Y41.7387 Z-5.3299
G01 X38.6228 Y41.8187 Z-5.3051
G01 X38.5529 Y41.8988 Z-5.2803
G01 X38.4831 Y41.9788 Z-5.2555
G01 X38.4132 Y42.0588 Z-5.2307
G01 X38.3412 Y42.1385 Z-5.2054
G01 X38.2685 Y42.2159 Z-5.1804
G01 X38.1957 Y42.2930 Z-5.1557
G01 X38.1228 Y42.3701 Z-5.1310
G01 X38.0499 Y42.4471 Z-5.1064
G01 X37.9770 Y42.5242 Z-5.0817
G01 X37.9041 Y42.6013 Z-5.0570
G01 X37.8312 Y42.6784 Z-5.0323
G01 X37.7511 Y42.7615 Z-5.0043
G01 X37.6760 Y42.8370 Z-4.9781
G01 X37.6003 Y42.9115 Z-4.9531
G01 X37.5243 Y42.9856 Z-4.9285
G01 X37.4483 Y43.0596 Z-4.9039
G01 X37.3724 Y43.1337 Z-4.8794
G01 X37.2964 Y43.2078 Z-4.8548
G01 X37.2204 Y43.2819 Z-4.8302
G01 X37.1304 Y43.3679 Z-4.8002
G01 X37.0525 Y43.4410 Z-4.7735
G01 X36.9742 Y43.5135 Z-4.7474
G01 X36.8954 Y43.5849 Z-4.7224
G01 X36.8163 Y43.6559 Z-4.6980
G01 X36.7373 Y43.7269 Z-4.6736
G01 X36.6582 Y43.7980 Z-4.6491
G01 X36.5792 Y43.8690 Z-4.6247
G01 X36.4781 Y43.9580 Z-4.5925
G01 X36.3970 Y44.0281 Z-4.5658
G01 X36.3158 Y44.0981 Z-4.5392
G01 X36.2343 Y44.1672 Z-4.5135
G01 X36.1522 Y44.2353 Z-4.4890
G01 X36.0700 Y44.3032 Z-4.4647
G01 X35.9879 Y44.3712 Z-4.4404
G01 X35.9057 Y44.4391 Z-4.4161
G01 X35.7923 Y44.5310 Z-4.3815
G01 X35.7080 Y44.5979 Z-4.3549
G01 X35.6238 Y44.6649 Z-4.3284
G01 X35.5393 Y44.7315 Z-4.3022
G01 X35.4543 Y44.7969 Z-4.2774
G01 X35.3691 Y44.8616 Z-4.2533
G01 X35.2838 Y44.9264 Z-4.2291
G01 X35.1985 Y44.9912 Z-4.2050
G01 X35.0717 Y45.0855 Z-4.1679
G01 X34.9843 Y45.1494 Z-4.1414
G01 X34.8968 Y45.2132 Z-4.1150
G01 X34.8092 Y45.2767 Z-4.0890
G01 X34.7211 Y45.3389 Z-4.0643
G01 X34.6326 Y45.4001 Z-4.0406
G01 X34.5441 Y45.4614 Z-4.0170
G01 X34.4556 Y45.5226 Z-3.9934
G01 X34.3266 Y45.6102 Z-3.9578
G01 X34.2441 Y45.6650 Z-3.9342
G01 X34.1616 Y45.7198 Z-3.9107
G01 X34.0791 Y45.7745 Z-3.8872
G01 X33.9962 Y45.8283 Z-3.8647
G01 X33.9130 Y45.8810 Z-3.8434
G01 X33.8296 Y45.9334 Z-3.8224
G01 X33.7462 Y45.9857 Z-3.8014
G01 X33.6628 Y46.0381 Z-3.7805
G01 X33.5315 Y46.1189 Z-3.7462
G01 X33.4461 Y46.1704 Z-3.7231
G01 X33.3606 Y46.2219 Z-3.7001
G01 X33.2750 Y46.2731 Z-3.6773
G01 X33.1891 Y46.3231 Z-3.6558
G01 X33.1028 Y46.3722 Z-3.6353
G01 X33.0166 Y46.4212 Z-3.6149
G01 X32.9303 Y46.4701 Z-3.5945
G01 X32.8440 Y46.5191 Z-3.5740
G01 X32.6978 Y46.6004 Z-3.5381
G01 X32.6093 Y46.6485 Z-3.5155
G01 X32.5209 Y46.6966 Z-3.4931
G01 X32.4322 Y46.7436 Z-3.4717
G01 X32.3431 Y46.7893 Z-3.4516
G01 X32.2540 Y46.8349 Z-3.4318
G01 X32.1648 Y46.8804 Z-3.4119
G01 X32.0757 Y46.9260 Z-3.3920
G01 X31.9866 Y46.9715 Z-3.3722
G01 X31.8250 Y47.0523 Z-3.3348
G01 X31.7337 Y47.0969 Z-3.3129
G01 X31.6421 Y47.1404 Z-3.2921
G01 X31.5502 Y47.1826 Z-3.2726
G01 X31.4582 Y47.2246 Z-3.2534
G01 X31.3663 Y47.2667 Z-3.2341
G01 X31.2743 Y47.3087 Z-3.2148
G01 X31.1824 Y47.3508 Z-3.1956
G01 X31.0904 Y47.3928 Z-3.1763
G01 X30.9133 Y47.4717 Z-3.1379
G01 X30.8188 Y47.5112 Z-3.1181
G01 X30.7241 Y47.5497 Z-3.0995
G01 X30.6294 Y47.5882 Z-3.0808
G01 X30.5347 Y47.6266 Z-3.0622
G01 X30.4399 Y47.6651 Z-3.0436
G01 X30.3452 Y47.7036 Z-3.0249
G01 X30.2505 Y47.7420 Z-3.0063
G01 X30.1558 Y47.7805 Z-2.9876
G01 X30.0609 Y47.8182 Z-2.9698
G01 X29.9627 Y47.8536 Z-2.9513
G01 X29.8653 Y47.8884 Z-2.9333
G01 X29.7679 Y47.9233 Z-2.9153
G01 X29.6704 Y47.9581 Z-2.8973
G01 X29.5730 Y47.9930 Z-2.8793
G01 X29.4755 Y48.0278 Z-2.8613
G01 X29.3781 Y48.0627 Z-2.8433
G01 X29.2806 Y48.0972 Z-2.8256
G01 X29.1828 Y48.1300 Z-2.8096
G01 X29.0849 Y48.1623 Z-2.7942
G01 X28.9744 Y48.1968 Z-2.7752
G01 X28.8743 Y48.2280 Z-2.7578
G01 X28.7741 Y48.2592 Z-2.7404
G01 X28.6740 Y48.2904 Z-2.7231
G01 X28.5739 Y48.3216 Z-2.7057
G01 X28.4738 Y48.3526 Z-2.6886
G01 X28.3734 Y48.3819 Z-2.6731
G01 X28.2729 Y48.4105 Z-2.6583
G01 X28.1725 Y48.4391 Z-2.6436
G01 X28.0720 Y48.4678 Z-2.6288
G01 X27.9623 Y48.4973 Z-2.6111
G01 X27.8681 Y48.5225 Z-2.5957
G01 X27.7739 Y48.5477 Z-2.5804
G01 X27.6798 Y48.5729 Z-2.5651
G01 X27.5855 Y48.5969 Z-2.5510
G01 X27.4911 Y48.6198 Z-2.5380
G01 X27.3967 Y48.6427 Z-2.5250
G01 X27.3023 Y48.6656 Z-2.5121
G01 X27.2079 Y48.6885 Z-2.4991
G01 X27.1135 Y48.7114 Z-2.4861
G01 X27.0191 Y48.7342 Z-2.4731
G01 X26.9022 Y48.7608 Z-2.4554
G01 X26.8057 Y48.7823 Z-2.4411
G01 X26.7091 Y48.8021 Z-2.4283
G01 X26.6124 Y48.8216 Z-2.4159
G01 X26.5157 Y48.8412 Z-2.4034
G01 X26.4190 Y48.8607 Z-2.3910
G01 X26.3224 Y48.8802 Z-2.3786
G01 X26.2257 Y48.8997 Z-2.3662
G01 X26.1290 Y48.9192 Z-2.3537
G01 X26.0324 Y48.9388 Z-2.3413
G01 X25.9356 Y48.9574 Z-2.3297
G01 X25.8079 Y48.9785 Z-2.3145
G01 X25.7090 Y48.9947 Z-2.3026
G01 X25.6101 Y49.0109 Z-2.2907
G01 X25.5112 Y49.0270 Z-2.2788
G01 X25.4124 Y49.0432 Z-2.2669
G01 X25.3135 Y49.0593 Z-2.2551
G01 X25.2146 Y49.0755 Z-2.2432
G01 X25.1157 Y49.0913 Z-2.2317
G01 X25.0167 Y49.1054 Z-2.2218
G01 X24.9177 Y49.1194 Z-2.2120
G01 X24.8187 Y49.1334 Z-2.2023
G01 X24.6810 Y49.1511 Z-2.1871
G01 X24.5799 Y49.1639 Z-2.1757
G01 X24.4788 Y49.1767 Z-2.1643
G01 X24.3778 Y49.1895 Z-2.1529
G01 X24.2767 Y49.2021 Z-2.1417
G01 X24.1756 Y49.2131 Z-2.1322
G01 X24.0745 Y49.2238 Z-2.1229
G01 X23.9734 Y49.2345 Z-2.1136
G01 X23.8723 Y49.2452 Z-2.1044
G01 X23.7712 Y49.2559 Z-2.0951
G01 X23.6701 Y49.2665 Z-2.0859
G01 X23.6005 Y49.2736 Z-2.0792
G01 X23.4975 Y49.2837 Z-2.0690
G01 X23.4010 Y49.2928 Z-2.0596
G01 X23.2982 Y49.3008 Z-2.0511
G01 X23.2021 Y49.3081 Z-2.0432
G01 X23.0996 Y49.3157 Z-2.0348
G01 X23.0037 Y49.3228 Z-2.0268
G01 X22.9015 Y49.3303 Z-2.0182
G01 X22.8060 Y49.3372 Z-2.0101
G01 X22.7041 Y49.3445 Z-2.0013
G01 X22.6088 Y49.3512 Z-1.9931
G01 X22.5072 Y49.3578 Z-1.9846
G01 X22.4122 Y49.3626 Z-1.9780
G01 X22.3109 Y49.3676 Z-1.9710
G01 X22.2162 Y49.3722 Z-1.9643
G01 X22.1152 Y49.3770 Z-1.9570
G01 X22.0208 Y49.3814 Z-1.9502
G01 X21.9202 Y49.3861 Z-1.9428
G01 X21.8260 Y49.3903 Z-1.9359
G01 X21.7257 Y49.3947 Z-1.9283
G01 X21.6318 Y49.3986 Z-1.9215
G01 X21.5318 Y49.4012 Z-1.9155
G01 X21.4383 Y49.4034 Z-1.9100
G01 X21.3386 Y49.4057 Z-1.9040
G01 X21.2454 Y49.4077 Z-1.8983
G01 X21.1460 Y49.4098 Z-1.8922
G01 X21.0531 Y49.4117 Z-1.8863
G01 X20.9539 Y49.4136 Z-1.8800
G01 X20.8614 Y49.4154 Z-1.8741
G01 X20.7625 Y49.4171 Z-1.8677
G01 X20.6703 Y49.4176 Z-1.8626
G01 X20.5718 Y49.4175 Z-1.8577
G01 X20.4799 Y49.4173 Z-1.8531
G01 X20.3817 Y49.4170 Z-1.8481
G01 X20.2901 Y49.4167 Z-1.8433
G01 X20.1922 Y49.4162 Z-1.8381
G01 X20.1009 Y49.4157 Z-1.8331
G01 X20.0033 Y49.4151 Z-1.8278
G01 X19.9123 Y49.4145 Z-1.8227
G01 X19.8151 Y49.4136 Z-1.8173
G01 X19.7244 Y49.4114 Z-1.8134
G01 X19.6276 Y49.4089 Z-1.8093
G01 X19.5373 Y49.4064 Z-1.8055
G01 X19.4407 Y49.4037 Z-1.8012
G01 X19.3507 Y49.4011 Z-1.7972
G01 X19.2544 Y49.3982 Z-1.7928
G01 X19.1647 Y49.3955 Z-1.7886
G01 X19.0687 Y49.3924 Z-1.7841
G01 X18.9793 Y49.3895 Z-1.7798
G01 X18.8836 Y49.3863 Z-1.7751
G01 X18.7946 Y49.3824 Z-1.7715
G01 X18.6993 Y49.3781 Z-1.7675
G01 X18.6106 Y49.3736 Z-1.7641
G01 X18.5156 Y49.3688 Z-1.7604
G01 X18.4273 Y49.3639 Z-1.7572
G01 X18.3326 Y49.3585 Z-1.7537
G01 X18.2446 Y49.3531 Z-1.7506
G01 X18.1503 Y49.3472 Z-1.7473
G01 X18.0626 Y49.3413 Z-1.7445
G01 X17.9686 Y49.3349 Z-1.7414
G01 X17.8813 Y49.3285 Z-1.7388
G01 X17.7876 Y49.3215 Z-1.7360
G01 X17.7007 Y49.3146 Z-1.7335
G01 X17.6073 Y49.3070 Z-1.7309
G01 X17.5207 Y49.2997 Z-1.7287
G01 X17.4277 Y49.2916 Z-1.7263
G01 X17.3415 Y49.2837 Z-1.7242
G01 X17.2488 Y49.2751 Z-1.7220
G01 X17.1629 Y49.2667 Z-1.7202
G01 X17.0706 Y49.2576 Z-1.7182
G01 X16.9851 Y49.2487 Z-1.7166
G01 X16.8931 Y49.2390 Z-1.7148
G01 X16.8080 Y49.2297 Z-1.7134
G01 X16.7163 Y49.2194 Z-1.7118
G01 X16.6315 Y49.2096 Z-1.7106
G01 X16.5403 Y49.1988 Z-1.7093
G01 X16.4558 Y49.1885 Z-1.7082
G01 X16.3649 Y49.1771 Z-1.7071
G01 X16.2809 Y49.1663 Z-1.7063
G01 X16.1903 Y49.1545 Z-1.7054
G01 X16.0378 Y49.1354 Z-1.7057
G01 X15.9416 Y49.1238 Z-1.7072
G01 X15.8454 Y49.1120 Z-1.7088
G01 X15.7492 Y49.1000 Z-1.7106
G01 X15.6719 Y49.0900 Z-1.7121
G01 X15.5766 Y49.0772 Z-1.7138
G01 X15.4812 Y49.0641 Z-1.7158
G01 X15.3857 Y49.0524 Z-1.7164
G01 X15.3093 Y49.0440 Z-1.7154
G01 X15.2143 Y49.0334 Z-1.7140
G01 X15.1194 Y49.0225 Z-1.7127
G01 X15.0245 Y49.0115 Z-1.7116
G01 X14.9490 Y49.0025 Z-1.7106
G01 X14.8549 Y48.9908 Z-1.7092
G01 X14.7607 Y48.9790 Z-1.7079
G01 X14.6666 Y48.9671 Z-1.7068
G01 X14.5921 Y48.9573 Z-1.7057
G01 X14.4988 Y48.9447 Z-1.7043
G01 X14.4054 Y48.9320 Z-1.7030
G01 X14.3121 Y48.9191 Z-1.7018
G01 X14.2386 Y48.9086 Z-1.7008
G01 X14.1460 Y48.8951 Z-1.6993
G01 X14.0535 Y48.8814 Z-1.6980
G01 X13.9609 Y48.8676 Z-1.6968
G01 X13.8884 Y48.8564 Z-1.6957
G01 X13.7966 Y48.8419 Z-1.6942
G01 X13.7048 Y48.8274 Z-1.6928
G01 X13.6131 Y48.8126 Z-1.6916
G01 X13.5414 Y48.8008 Z-1.6905
G01 X13.4504 Y48.7854 Z-1.6889
G01 X13.3594 Y48.7699 Z-1.6875
G01 X13.2685 Y48.7543 Z-1.6861
G01 X13.1978 Y48.7418 Z-1.6850
G01 X13.1075 Y48.7255 Z-1.6833
G01 X13.0173 Y48.7091 Z-1.6818
G01 X12.9271 Y48.6926 Z-1.6804
G01 X12.8574 Y48.6795 Z-1.6792
G01 X12.7679 Y48.6623 Z-1.6775
G01 X12.6785 Y48.6450 Z-1.6759
G01 X12.5891 Y48.6275 Z-1.6744
G01 X12.5202 Y48.6139 Z-1.6731
G01 X12.4317 Y48.5949 Z-1.6723
G01 X12.3437 Y48.5739 Z-1.6735
G01 X12.2557 Y48.5526 Z-1.6749
G01 X12.1883 Y48.5361 Z-1.6758
G01 X12.1011 Y48.5143 Z-1.6769
G01 X12.0140 Y48.4919 Z-1.6785
G01 X11.9268 Y48.4695 Z-1.6801
G01 X11.8606 Y48.4523 Z-1.6811
G01 X11.7743 Y48.4290 Z-1.6827
G01 X11.6880 Y48.4055 Z-1.6845
G01 X11.6018 Y48.3820 Z-1.6862
G01 X11.5366 Y48.3640 Z-1.6874
G01 X11.4513 Y48.3394 Z-1.6894
G01 X11.3659 Y48.3148 Z-1.6913
G01 X11.2805 Y48.2902 Z-1.6932
G01 X11.2165 Y48.2712 Z-1.6948
G01 X11.1320 Y48.2455 Z-1.6968
G01 X11.0475 Y48.2199 Z-1.6988
G01 X10.9630 Y48.1941 Z-1.7009
G01 X10.9002 Y48.1743 Z-1.7028
G01 X10.8165 Y48.1476 Z-1.7049
G01 X10.7329 Y48.1208 Z-1.7070
G01 X10.6493 Y48.0938 Z-1.7095
G01 X10.5738 Y48.0687 Z-1.7117
G01 X10.4634 Y48.0317 Z-1.7147
G01 X10.3531 Y47.9943 Z-1.7181
G01 X10.2651 Y47.9637 Z-1.7208
G01 X10.1559 Y47.9253 Z-1.7239
G01 X10.0468 Y47.8864 Z-1.7275
G01 X9.9602 Y47.8549 Z-1.7303
G01 X9.8521 Y47.8151 Z-1.7335
G01 X9.7442 Y47.7747 Z-1.7373
G01 X9.6590 Y47.7423 Z-1.7402
G01 X9.5520 Y47.7012 Z-1.7434
G01 X9.4452 Y47.6594 Z-1.7474
G01 X9.3919 Y47.6385 Z-1.7494
G01 X9.3347 Y47.6166 Z-1.7521
G01 X9.2771 Y47.5957 Z-1.7559
G01 X9.2189 Y47.5754 Z-1.7610
G01 X9.1749 Y47.5607 Z-1.7658
G01 X9.1305 Y47.5465 Z-1.7711
G01 X9.0857 Y47.5329 Z-1.7770
G01 X9.0405 Y47.5197 Z-1.7837
G01 X8.9949 Y47.5071 Z-1.7909
G01 X8.9488 Y47.4949 Z-1.7989
G01 X8.9023 Y47.4829 Z-1.8079
G01 X8.8552 Y47.4715 Z-1.8175
G01 X8.8076 Y47.4606 Z-1.8279
G01 X8.7595 Y47.4503 Z-1.8389
G01 X8.7107 Y47.4405 Z-1.8507
G01 X8.6614 Y47.4312 Z-1.8633
G01 X8.6114 Y47.4222 Z-1.8769
G01 X8.5607 Y47.4137 Z-1.8914
G01 X8.5092 Y47.4057 Z-1.9068
G01 X8.4571 Y47.3983 Z-1.9229
G01 X8.4042 Y47.3916 Z-1.9400
G01 X8.3504 Y47.3854 Z-1.9579
G01 X8.2958 Y47.3796 Z-1.9771
G01 X8.2588 Y47.3760 Z-1.9905
G01 X8.2215 Y47.3727 Z-2.0043
G01 X8.1837 Y47.3697 Z-2.0186
G01 X8.1455 Y47.3670 Z-2.0334
G01 X8.1068 Y47.3646 Z-2.0486
G01 X8.0677 Y47.3625 Z-2.0644
G01 X8.0281 Y47.3607 Z-2.0806
G01 X7.9880 Y47.3592 Z-2.0973
G01 X7.9473 Y47.3579 Z-2.1149
G01 X7.9060 Y47.3568 Z-2.1330
G01 X7.8642 Y47.3561 Z-2.1517
G01 X7.8218 Y47.3558 Z-2.1710
G01 X7.7789 Z-2.1908
G01 X7.7354 Y47.3562 Z-2.2113
G01 X7.6912 Y47.3570 Z-2.2324
G01 X7.6465 Y47.3582 Z-2.2542
G01 X7.6010 Y47.3597 Z-2.2768
G01 X7.5547 Y47.3614 Z-2.3002
G01 X7.5076 Y47.3636 Z-2.3244
G01 X7.4599 Y47.3662 Z-2.3494
G01 X7.4114 Y47.3693 Z-2.3751
G01 X7.3676 Y47.4478 Z-2.3390
G01 X7.3216 Y47.5509 Z-2.2883
G01 X7.2793 Y47.6517 Z-2.2415
G01 X7.2478 Y47.7309 Z-2.2065
G01 X7.2185 Y47.8087 Z-2.1736
G01 X7.1911 Y47.8854 Z-2.1428
G01 X7.1656 Y47.9609 Z-2.1139
G01 X7.1419 Y48.0353 Z-2.0868
G01 X7.1200 Y48.1088 Z-2.0616
G01 X7.0996 Y48.1814 Z-2.0380
G01 X7.0809 Y48.2530 Z-2.0160
G01 X7.0637 Y48.3239 Z-1.9956
G01 X7.0479 Y48.3940 Z-1.9767
G01 X7.0336 Y48.4634 Z-1.9592
G01 X7.0207 Y48.5322 Z-1.9432
G01 X7.0091 Y48.6004 Z-1.9285
G01 X6.9988 Y48.6680 Z-1.9151
G01 X6.9898 Y48.7351 Z-1.9031
G01 X6.9820 Y48.8017 Z-1.8923
G01 X6.9755 Y48.8680 Z-1.8827
G01 X6.9701 Y48.9339 Z-1.8744
G01 X6.9659 Y48.9994 Z-1.8672
G01 X6.9629 Y49.0647 Z-1.8612
G01 X6.9610 Y49.1297 Z-1.8564
G01 X6.9603 Y49.1946 Z-1.8527
G01 X6.9607 Y49.2593 Z-1.8502
G01 X6.9622 Y49.3238 Z-1.8488
G01 X6.9661 Y49.4183 Z-1.8484
G01 X6.9705 Y49.5182 Z-1.8483
G01 X6.9750 Y49.6180 Z-1.8482
G01 X6.9794 Y49.7179 Z-1.8481
G01 X6.9838 Y49.8178 Z-1.8480
G01 X6.9883 Y49.9176 Z-1.8479
G01 X6.9927 Y50.0175 Z-1.8477
G01 X6.9971 Y50.1174 Z-1.8476
G01 X7.0015 Y50.2172 Z-1.8475
G01 X7.0060 Y50.3171 Z-1.8474
G01 X7.0104 Y50.4170 Z-1.8473
G01 X7.0148 Y50.5169 Z-1.8472
G01 X7.0193 Y50.6167 Z-1.8471
G01 X7.0237 Y50.7166 Z-1.8470
G01 X7.0281 Y50.8165 Z-1.8469
G01 X7.0325 Y50.9163 Z-1.8468
G01 X7.0370 Y51.0162 Z-1.8466
G01 X7.0414 Y51.1161 Z-1.8465
G01 X7.0458 Y51.2159 Z-1.8464
G01 X7.0503 Y51.3158 Z-1.8463
G01 X7.0547 Y51.4157 Z-1.8462
G01 X7.0591 Y51.5156 Z-1.8461
G01 X7.0636 Y51.6154 Z-1.8460
G01 X7.0680 Y51.7153 Z-1.8459
G01 X7.0724 Y51.8152 Z-1.8458
G01 X7.0768 Y51.9150 Z-1.8457
G01 X7.0813 Y52.0149 Z-1.8455
G01 X7.0857 Y52.1148 Z-1.8454
G01 X7.0901 Y52.2147 Z-1.8453
G01 X7.0946 Y52.3145 Z-1.8452
G01 X7.0990 Y52.4144 Z-1.8451
G01 X7.1034 Y52.5143 Z-1.8450
G01 X7.1078 Y52.6141 Z-1.8449
G01 X7.1123 Y52.7140 Z-1.8448
G01 X7.1167 Y52.8139 Z-1.8447
G01 X7.1211 Y52.9137 Z-1.8445
G01 X7.1256 Y53.0136 Z-1.8444
G01 X7.1300 Y53.1135 Z-1.8443
G01 X7.1344 Y53.2134 Z-1.8442
G01 X7.1388 Y53.3132 Z-1.8441
G01 X7.1433 Y53.4131 Z-1.8440
G01 X7.1477 Y53.5130 Z-1.8439
G01 X7.1521 Y53.6128 Z-1.8438
G01 X7.1566 Y53.7127 Z-1.8437
G01 X7.1610 Y53.8126 Z-1.8436
G01 X7.1654 Y53.9124 Z-1.8434
G01 X7.1699 Y54.0123 Z-1.8433
G01 X7.1743 Y54.1122 Z-1.8432
G01 X7.1787 Y54.2121 Z-1.8431
G01 X7.1831 Y54.3119 Z-1.8430
G01 X7.1876 Y54.4118 Z-1.8429
G01 X7.1920 Y54.5117 Z-1.8428
G01 X7.1964 Y54.6115 Z-1.8427
G01 X7.2009 Y54.7114 Z-1.8426
G01 X7.2053 Y54.8113 Z-1.8425
G01 X7.2097 Y54.9112 Z-1.8423
G01 X7.2141 Y55.0110 Z-1.8422
G01 X7.2186 Y55.1109 Z-1.8421
G01 X7.2230 Y55.2108 Z-1.8420
G01 X7.2274 Y55.3106 Z-1.8419
G01 X7.2319 Y55.4105 Z-1.8418
G01 X7.2363 Y55.5104 Z-1.8417
G01 X7.2407 Y55.6102 Z-1.8416
G01 X7.2451 Y55.7101 Z-1.8415
G01 X7.2496 Y55.8100 Z-1.8413
G01 X7.2540 Y55.9099 Z-1.8412
G01 X7.2584 Y56.0097 Z-1.8411
G01 X7.2629 Y56.1096 Z-1.8410
G01 X7.2673 Y56.2095 Z-1.8409
G01 X7.2717 Y56.3093 Z-1.8408
G01 X7.2762 Y56.4092 Z-1.8407
G01 X7.2806 Y56.5091 Z-1.8406
G01 X7.2850 Y56.6089 Z-1.8405
G01 X7.2894 Y56.7088 Z-1.8404
G01 X7.2939 Y56.8087 Z-1.8402
G01 X7.2983 Y56.9086 Z-1.8401
G01 X7.3027 Y57.0084 Z-1.8400
G01 X7.3072 Y57.1083 Z-1.8399
G01 X7.3116 Y57.2082 Z-1.8398
G01 X7.3160 Y57.3080 Z-1.8397
G01 X7.3204 Y57.4079 Z-1.8396
G01 X7.3249 Y57.5078 Z-1.8395
G01 X7.3293 Y57.6077 Z-1.8394
G01 X7.3337 Y57.7075 Z-1.8393
G01 X7.3382 Y57.8074 Z-1.8391
G01 X7.3426 Y57.9073 Z-1.8390
G01 X7.3470 Y58.0071 Z-1.8389
G01 X7.3514 Y58.1070 Z-1.8388
G01 X7.3559 Y58.2069 Z-1.8387
G01 X7.3603 Y58.3067 Z-1.8386
G01 X7.3647 Y58.4066 Z-1.8385
G01 X7.3692 Y58.5065 Z-1.8384
G01 X7.3736 Y58.6064 Z-1.8383
G01 X7.3780 Y58.7062 Z-1.8381
G01 X7.3825 Y58.8061 Z-1.8380
G01 X7.3869 Y58.9060 Z-1.8379
G01 X7.3913 Y59.0058 Z-1.8378
G01 X7.3957 Y59.1057 Z-1.8377
G01 X7.4002 Y59.2056 Z-1.8376
G01 X7.4046 Y59.3054 Z-1.8375
G01 X7.4090 Y59.4053 Z-1.8374
G01 X7.4135 Y59.5052 Z-1.8373
G01 X7.4179 Y59.6051 Z-1.8372
G01 X7.4223 Y59.7049 Z-1.8370
G01 X7.4267 Y59.8048 Z-1.8369
G01 X7.4312 Y59.9047 Z-1.8368
G01 X7.4356 Y60.0045 Z-1.8367
G01 X7.4400 Y60.1044 Z-1.8366
G01 X7.4445 Y60.2043 Z-1.8365
G01 X7.4489 Y60.3042 Z-1.8364
G01 X7.4533 Y60.4040 Z-1.8363
G01 X7.4577 Y60.5039 Z-1.8362
G01 X7.4622 Y60.6038 Z-1.8361
G01 X7.4666 Y60.7036 Z-1.8359
G01 X7.4710 Y60.8035 Z-1.8358
G01 X7.4755 Y60.9034 Z-1.8357
G01 X7.4799 Y61.0032 Z-1.8356
G01 X7.4843 Y61.1031 Z-1.8355
G01 X7.4887 Y61.2030 Z-1.8354
G01 X7.4932 Y61.3029 Z-1.8353
G01 X7.4976 Y61.4027 Z-1.8352
G01 X7.5020 Y61.5026 Z-1.8351
G01 X7.5065 Y61.6025 Z-1.8349
G01 X7.5109 Y61.7023 Z-1.8348
G01 X7.5153 Y61.8022 Z-1.8347
G01 X7.5198 Y61.9021 Z-1.8346
G01 X7.5242 Y62.0019 Z-1.8345
G01 X7.5286 Y62.1018 Z-1.8344
G01 X7.5330 Y62.2017 Z-1.8343
G01 X7.5375 Y62.3016 Z-1.8342
G01 X7.5419 Y62.4014 Z-1.8341
G01 X7.5463 Y62.5013 Z-1.8340
G01 X7.5508 Y62.6012 Z-1.8338
G01 X7.5552 Y62.7010 Z-1.8337
G01 X7.5596 Y62.8009 Z-1.8336
G01 X7.5640 Y62.9008 Z-1.8335
G01 X7.5685 Y63.0006 Z-1.8334
G01 X7.5729 Y63.1005 Z-1.8333
G01 X7.5773 Y63.2004 Z-1.8332
G01 X7.5818 Y63.3003 Z-1.8331
G01 X7.5862 Y63.4001 Z-1.8330
G01 X7.5906 Y63.5000 Z-1.8329
G01 X7.5950 Y63.5999 Z-1.8327
G01 X7.5995 Y63.6997 Z-1.8326
G01 X7.6039 Y63.7996 Z-1.8325
G01 X7.6083 Y63.8995 Z-1.8324
G01 X7.6128 Y63.9994 Z-1.8323
G01 X7.6172 Y64.0992 Z-1.8322
G01 X7.6216 Y64.1991 Z-1.8321
G01 X7.6261 Y64.2990 Z-1.8320
G01 X7.6305 Y64.3988 Z-1.8319
G01 X7.6349 Y64.4987 Z-1.8317
G01 X7.6393 Y64.5986 Z-1.8316
G01 X7.6438 Y64.6984 Z-1.8315
G01 X7.6482 Y64.7983 Z-1.8314
G01 X7.6526 Y64.8982 Z-1.8313
G01 X7.6571 Y64.9981 Z-1.8312
G01 X7.6615 Y65.0979 Z-1.8311
G01 X7.6659 Y65.1978 Z-1.8310
G01 X7.6703 Y65.2977 Z-1.8309
G01 X7.6748 Y65.3975 Z-1.8308
G01 X7.6792 Y65.4974 Z-1.8306
G01 X7.6836 Y65.5973 Z-1.8305
G01 X7.6881 Y65.6971 Z-1.8304
G01 X7.6925 Y65.7970 Z-1.8303
G01 X7.6969 Y65.8969 Z-1.8302
G01 X7.7013 Y65.9968 Z-1.8301
G01 X7.7058 Y66.0966 Z-1.8300
G01 X7.7102 Y66.1965 Z-1.8299
G01 X7.7146 Y66.2964 Z-1.8298
G01 X7.7191 Y66.3962 Z-1.8297
G01 X7.7235 Y66.4961 Z-1.8295
G01 X7.7279 Y66.5960 Z-1.8294
G01 X7.7324 Y66.6959 Z-1.8293
G01 X7.7368 Y66.7957 Z-1.8292
G01 X7.7412 Y66.8956 Z-1.8291
G01 X7.7456 Y66.9955 Z-1.8290
G01 X7.7501 Y67.0953 Z-1.8289
G01 X7.7545 Y67.1952 Z-1.8288
G01 X7.7589 Y67.2951 Z-1.8287
G01 X7.7634 Y67.3949 Z-1.8286
G01 X7.7678 Y67.4948 Z-1.8284
G01 X7.7722 Y67.5947 Z-1.8283
G01 X7.7766 Y67.6946 Z-1.8282
G01 X7.7811 Y67.7944 Z-1.8281
G01 X7.7855 Y67.8943 Z-1.8280
G01 X7.7899 Y67.9942 Z-1.8279
G01 X7.7944 Y68.0940 Z-1.8278
G01 X7.7988 Y68.1939 Z-1.8277
G01 X7.8032 Y68.2938 Z-1.8276
G01 X7.8076 Y68.3936 Z-1.8274
G01 X7.8121 Y68.4935 Z-1.8273
G01 X7.8165 Y68.5934 Z-1.8272
G01 X7.8209 Y68.6933 Z-1.8271
G01 X7.8254 Y68.7931 Z-1.8270
G01 X7.8298 Y68.8930 Z-1.8269
G01 X7.8342 Y68.9929 Z-1.8268
G01 X7.8387 Y69.0927 Z-1.8267
G01 X7.8431 Y69.1926 Z-1.8266
G01 X7.8475 Y69.2925 Z-1.8265
G01 X7.8519 Y69.3924 Z-1.8263
G01 X7.8564 Y69.4922 Z-1.8262
G01 X7.8608 Y69.5921 Z-1.8261
G01 X7.8652 Y69.6920 Z-1.8260
G01 X7.8697 Y69.7918 Z-1.8259
G01 X7.8741 Y69.8917 Z-1.8258
G01 X7.8785 Y69.9916 Z-1.8257
G01 X7.8829 Y70.0914 Z-1.8256
G01 X7.8874 Y70.1913 Z-1.8255
G01 X7.8918 Y70.2912 Z-1.8254
G01 X7.8962 Y70.3911 Z-1.8252
G01 X7.9007 Y70.4909 Z-1.8251
G01 X7.9051 Y70.5908 Z-1.8250
G01 X7.9095 Y70.6907 Z-1.8249
G01 X7.9139 Y70.7905 Z-1.8248
G01 X7.9184 Y70.8904 Z-1.8247
G01 X7.9228 Y70.9903 Z-1.8246
G01 X7.9272 Y71.0901 Z-1.8245
G01 X7.9317 Y71.1900 Z-1.8244
G01 X7.9361 Y71.2899 Z-1.8242
G01 X7.9405 Y71.3898 Z-1.8241
G01 X7.9450 Y71.4896 Z-1.8240
G01 X7.9494 Y71.5895 Z-1.8239
G01 X7.9538 Y71.6894 Z-1.8238
G01 X7.9582 Y71.7892 Z-1.8237
G01 X7.9627 Y71.8891 Z-1.8236
G01 X7.9671 Y71.9890 Z-1.8235
G01 X7.9715 Y72.0889 Z-1.8234
G01 X7.9760 Y72.1887 Z-1.8233
G01 X7.9804 Y72.2886 Z-1.8231
G01 X7.9848 Y72.3885 Z-1.8230
G01 X7.9892 Y72.4883 Z-1.8229
G01 X7.9937 Y72.5882 Z-1.8228
G01 X7.9981 Y72.6881 Z-1.8227
G01 X8.0025 Y72.7879 Z-1.8226
G01 X8.0070 Y72.8878 Z-1.8225
G01 X8.0114 Y72.9877 Z-1.8224
G01 X8.0158 Y73.0876 Z-1.8223
G01 X8.0202 Y73.1874 Z-1.8222
G01 X8.0232 Y73.2532 Z-1.8221
G01 X8.0269 Y73.3168 Z-1.8229
G01 X8.0316 Y73.3803 Z-1.8248
G01 X8.0375 Y73.4438 Z-1.8277
G01 X8.0426 Y73.4915 Z-1.8307
G01 X8.0484 Y73.5393 Z-1.8343
G01 X8.0549 Y73.5871 Z-1.8386
G01 X8.0620 Y73.6350 Z-1.8435
G01 X8.0697 Y73.6831 Z-1.8491
G01 X8.0781 Y73.7312 Z-1.8553
G01 X8.0872 Y73.7795 Z-1.8622
G01 X8.0970 Y73.8280 Z-1.8698
G01 X8.1075 Y73.8766 Z-1.8780
G01 X8.1187 Y73.9254 Z-1.8870
G01 X8.1306 Y73.9745 Z-1.8967
G01 X8.1433 Y74.0237 Z-1.9071
G01 X8.1567 Y74.0732 Z-1.9182
G01 X8.1709 Y74.1230 Z-1.9302
G01 X8.1859 Y74.1731 Z-1.9429
G01 X8.2017 Y74.2235 Z-1.9564
G01 X8.2183 Y74.2742 Z-1.9707
G01 X8.2358 Y74.3252 Z-1.9858
G01 X8.2542 Y74.3766 Z-2.0018
G01 X8.2735 Y74.4284 Z-2.0188
G01 X8.2937 Y74.4806 Z-2.0366
G01 X8.3077 Y74.5157 Z-2.0490
G01 X8.3221 Y74.5510 Z-2.0618
G01 X8.3370 Y74.5864 Z-2.0751
G01 X8.3524 Y74.6221 Z-2.0888
G01 X8.3682 Y74.6580 Z-2.1030
G01 X8.3845 Y74.6941 Z-2.1176
G01 X8.4013 Y74.7305 Z-2.1328
G01 X8.4186 Y74.7671 Z-2.1484
G01 X8.4364 Y74.8040 Z-2.1645
G01 X8.4548 Y74.8411 Z-2.1811
G01 X8.4737 Y74.8785 Z-2.1983
G01 X8.4931 Y74.9162 Z-2.2160
G01 X8.5131 Y74.9541 Z-2.2343
G01 X8.5337 Y74.9924 Z-2.2531
G01 X8.5549 Y75.0310 Z-2.2725
G01 X8.5767 Y75.0698 Z-2.2926
G01 X8.5992 Y75.1091 Z-2.3132
G01 X8.6223 Y75.1486 Z-2.3345
G01 X8.6460 Y75.1885 Z-2.3564
G01 X8.6705 Y75.2288 Z-2.3790
G01 X8.6957 Y75.2694 Z-2.4023
G01 X8.7216 Y75.3104 Z-2.4264
G01 X8.7483 Y75.3518 Z-2.4511
G01 X8.7757 Y75.3936 Z-2.4766
G01 X8.8039 Y75.4358 Z-2.5030
G01 X8.8330 Y75.4784 Z-2.5301
G01 X8.8630 Y75.5215 Z-2.5580
G01 X8.8938 Y75.5651 Z-2.5868
G01 X8.9255 Y75.6091 Z-2.6165
G01 X8.9582 Y75.6536 Z-2.6471
G01 X8.9918 Y75.6986 Z-2.6787
G01 X9.0265 Y75.7441 Z-2.7113
G01 X9.0622 Y75.7901 Z-2.7448
G01 X9.0990 Y75.8367 Z-2.7795
G01 X9.1369 Y75.8838 Z-2.8152
G01 X9.1759 Y75.9316 Z-2.8520
G01 X9.1959 Y75.9557 Z-2.8709
G01 X9.2162 Y75.9799 Z-2.8900
G01 X9.2368 Y76.0043 Z-2.9095
G01 X9.2577 Y76.0289 Z-2.9293
G01 X9.2789 Y76.0536 Z-2.9493
G01 X9.3004 Y76.0784 Z-2.9698
G01 X9.3223 Y76.1035 Z-2.9905
G01 X9.3446 Y76.1287 Z-3.0116
G01 X9.3671 Y76.1541 Z-3.0330
G01 X9.3901 Y76.1796 Z-3.0547
G01 X9.4134 Y76.2053 Z-3.0768
G01 X9.4370 Y76.2312 Z-3.0993
G01 X9.4611 Y76.2573 Z-3.1221
G01 X9.4855 Y76.2836 Z-3.1453
G01 X9.5103 Y76.3100 Z-3.1689
G01 X9.5355 Y76.3367 Z-3.1929
G01 X9.5611 Y76.3635 Z-3.2172
G01 X9.5871 Y76.3905 Z-3.2420
G01 X9.6136 Y76.4178 Z-3.2672
G01 X9.6405 Y76.4452 Z-3.2928
G01 X9.6678 Y76.4728 Z-3.3188
G01 X9.6955 Y76.5007 Z-3.3453
G01 X9.7238 Y76.5287 Z-3.3722
G01 X9.7524 Y76.5570 Z-3.3996
G01 X9.7816 Y76.5855 Z-3.4274
G01 X9.8113 Y76.6142 Z-3.4557
G01 X9.8414 Y76.6432 Z-3.4845
G01 X9.8928 Y76.6923 Z-3.5337
G01 X9.9928 Y76.7878 Z-3.6292
G01 X10.0927 Y76.8833 Z-3.7247
G01 X10.1926 Y76.9788 Z-3.8202
G01 X10.2926 Y77.0743 Z-3.9157
G01 X10.3925 Y77.1698 Z-4.0112
G01 X10.4925 Y77.2653 Z-4.1067
G01 X10.5924 Y77.3608 Z-4.2022
G01 X10.6923 Y77.4563 Z-4.2977
G01 X10.7923 Y77.5518 Z-4.3932
G01 X10.8922 Y77.6473 Z-4.4887
G01 X10.9922 Y77.7428 Z-4.5842
G01 X11.0921 Y77.8383 Z-4.6797
G01 X11.1921 Y77.9338 Z-4.7752
G01 X11.2920 Y78.0293 Z-4.8707
G01 X11.3919 Y78.1248 Z-4.9662
G01 X11.4919 Y78.2203 Z-5.0617
G01 X11.5918 Y78.3158 Z-5.1572
G01 X11.6918 Y78.4113 Z-5.2527
G01 X11.7917 Y78.5068 Z-5.3482
G01 X11.8916 Y78.6023 Z-5.4437
G01 X11.9916 Y78.6978 Z-5.5392
G01 X12.0915 Y78.7933 Z-5.6347
G01 X12.1915 Y78.8888 Z-5.7302
G01 X12.2914 Y78.9843 Z-5.8257
G01 X12.3913 Y79.0798 Z-5.9212
G00 Z5.0000
G00 X41.8608 Y14.7483
G01 Z-3.1750
G01 X41.8826 Y14.8473
G01 X41.9044 Y14.9463
G01 X41.9261 Y15.0453
G01 X41.9479 Y15.1443
G01 X41.9697 Y15.2432
G01 X41.9915 Y15.3422
G01 X42.0133 Y15.4412
G01 X42.0351 Y15.5402
G01 X42.0913 Y15.8137
G01 X42.1108 Y15.9157
G01 X42.1303 Y16.0177
G01 X42.1498 Y16.1197
G01 X42.1693 Y16.2217
G01 X42.1888 Y16.3237
G01 X42.2083 Y16.4257
G01 X42.2278 Y16.5277
G01 X42.2473 Y16.6297
G01 X42.2942 Y16.8936
G01 X42.3096 Y16.9881
G01 X42.3251 Y17.0826
G01 X42.3406 Y17.1771
G01 X42.3561 Y17.2716
G01 X42.3716 Y17.3661
G01 X42.3871 Y17.4606
G01 X42.4025 Y17.5551
G01 X42.4180 Y17.6497
G01 X42.4335 Y17.7442
G01 X42.4719 Y17.9984
G01 X42.4853 Y18.0956
G01 X42.4987 Y18.1929
G01 X42.5121 Y18.2901
G01 X42.5255 Y18.3873
G01 X42.5390 Y18.4845
G01 X42.5524 Y18.5817
G01 X42.5658 Y18.6790
G01 X42.5792 Y18.7762
G01 X42.5926 Y18.8734
G01 X42.6241 Y19.1233
G01 X42.6354 Y19.2232
G01 X42.6468 Y19.3232
G01 X42.6581 Y19.4231
G01 X42.6695 Y19.5230
G01 X42.6808 Y19.6230
G01 X42.6922 Y19.7229
G01 X42.7035 Y19.8228
G01 X42.7149 Y19.9228
G01 X42.7262 Y20.0227
G01 X42.7513 Y20.2685
G01 X42.7606 Y20.3711
G01 X42.7699 Y20.4738
G01 X42.7792 Y20.5764
G01 X42.7885 Y20.6790
G01 X42.7978 Y20.7817
G01 X42.8071 Y20.8843
G01 X42.8163 Y20.9870
G01 X42.8256 Y21.0896
G01 X42.8349 Y21.1922
G01 X42.8538 Y21.4293
G01 X42.8604 Y21.5251
G01 X42.8670 Y21.6209
G01 X42.8735 Y21.7167
G01 X42.8801 Y21.8124
G01 X42.8867 Y21.9082
G01 X42.8932 Y22.0040
G01 X42.8998 Y22.0998
G01 X42.9064 Y22.1955
G01 X42.9129 Y22.2913
G01 X42.9195 Y22.3871
G01 X42.9328 Y22.6156
G01 X42.9375 Y22.7139
G01 X42.9422 Y22.8121
G01 X42.9469 Y22.9104
G01 X42.9516 Y23.0086
G01 X42.9562 Y23.1068
G01 X42.9609 Y23.2051
G01 X42.9656 Y23.3033
G01 X42.9703 Y23.4015
G01 X42.9750 Y23.4998
G01 X42.9797 Y23.5980
G01 X42.9882 Y23.8230
G01 X42.9910 Y23.9237
G01 X42.9938 Y24.0244
G01 X42.9967 Y24.1251
G01 X42.9995 Y24.2258
G01 X43.0023 Y24.3265
G01 X43.0051 Y24.4272
G01 X43.0079 Y24.5279
G01 X43.0107 Y24.6286
G01 X43.0135 Y24.7293
G01 X43.0164 Y24.8300
G01 X43.0205 Y25.0516
G01 X43.0214 Y25.1548
G01 X43.0223 Y25.2579
G01 X43.0233 Y25.3611
G01 X43.0242 Y25.4642
G01 X43.0251 Y25.5674
G01 X43.0261 Y25.6706
G01 X43.0270 Y25.7737
G01 X43.0280 Y25.8769
G01 X43.0289 Y25.9801
G01 X43.0298 Y26.0832
G01 X43.0296 Y26.3141
G01 X43.0285 Y26.4149
G01 X43.0274 Y26.5157
G01 X43.0262 Y26.6165
G01 X43.0251 Y26.7173
G01 X43.0240 Y26.8181
G01 X43.0228 Y26.9189
G01 X43.0217 Y27.0197
G01 X43.0206 Y27.1205
G01 X43.0194 Y27.2213
G01 X43.0138 Y27.4680
G01 X43.0105 Y27.5665
G01 X43.0071 Y27.6651
G01 X43.0037 Y27.7636
G01 X43.0003 Y27.8622
G01 X42.9969 Y27.9607
G01 X42.9935 Y28.0592
G01 X42.9901 Y28.1578
G01 X42.9867 Y28.2563
G01 X42.9834 Y28.3549
G01 X42.9717 Y28.6058
G01 X42.9661 Y28.7021
G01 X42.9604 Y28.7984
G01 X42.9548 Y28.8947
G01 X42.9491 Y28.9910
G01 X42.9435 Y29.0873
G01 X42.9378 Y29.1835
G01 X42.9322 Y29.2798
G01 X42.9265 Y29.3761
G01 X42.9209 Y29.4724
G01 X42.9023 Y29.7330
G01 X42.8935 Y29.8375
G01 X42.8847 Y29.9419
G01 X42.8759 Y30.0464
G01 X42.8671 Y30.1509
G01 X42.8584 Y30.2554
G01 X42.8496 Y30.3598
G01 X42.8408 Y30.4643
G01 X42.8320 Y30.5688
G01 X42.8057 Y30.8390
G01 X42.7944 Y30.9410
G01 X42.7831 Y31.0429
G01 X42.7719 Y31.1449
G01 X42.7606 Y31.2469
G01 X42.7493 Y31.3488
G01 X42.7380 Y31.4508
G01 X42.7267 Y31.5528
G01 X42.7154 Y31.6547
G01 X42.6812 Y31.9293
G01 X42.6674 Y32.0287
G01 X42.6536 Y32.1282
G01 X42.6398 Y32.2276
G01 X42.6260 Y32.3271
G01 X42.6122 Y32.4266
G01 X42.5984 Y32.5260
G01 X42.5846 Y32.6255
G01 X42.5708 Y32.7249
G01 X42.5280 Y33.0038
G01 X42.5117 Y33.1008
G01 X42.4954 Y33.1977
G01 X42.4791 Y33.2947
G01 X42.4628 Y33.3916
G01 X42.4465 Y33.4886
G01 X42.4302 Y33.5855
G01 X42.4139 Y33.6825
G01 X42.3976 Y33.7794
G01 X42.3456 Y34.0626
G01 X42.3267 Y34.1570
G01 X42.3079 Y34.2515
G01 X42.2891 Y34.3459
G01 X42.2703 Y34.4404
G01 X42.2515 Y34.5348
G01 X42.2327 Y34.6293
G01 X42.2138 Y34.7237
G01 X42.1950 Y34.8181
G01 X42.1318 Y35.1112
G01 X42.1078 Y35.2146
G01 X42.0838 Y35.3180
G01 X42.0598 Y35.4214
G01 X42.0358 Y35.5249
G01 X42.0118 Y35.6283
G01 X41.9878 Y35.7317
G01 X41.9638 Y35.8351
G01 X41.8885 Y36.1376
G01 X41.8617 Y36.2382
G01 X41.8349 Y36.3389
G01 X41.8080 Y36.4395
G01 X41.7812 Y36.5401
G01 X41.7544 Y36.6407
G01 X41.7276 Y36.7413
G01 X41.7008 Y36.8419
G01 X41.6138 Y37.1476
G01 X41.5841 Y37.2453
G01 X41.5545 Y37.3431
G01 X41.5249 Y37.4409
G01 X41.4952 Y37.5387
G01 Z-6.3500
G01 X41.5249 Y37.4409
G01 X41.5545 Y37.3431
G01 X41.5841 Y37.2453
G01 X41.6138 Y37.1476
G01 X41.7008 Y36.8419
G01 X41.7276 Y36.7413
G01 X41.7544 Y36.6407
G01 X41.7812 Y36.5401
G01 X41.8080 Y36.4395
G01 X41.8349 Y36.3389
G01 X41.8617 Y36.2382
G01 X41.8885 Y36.1376
G01 X41.9638 Y35.8351
G01 X41.9878 Y35.7317
G01 X42.0118 Y35.6283
G01 X42.0358 Y35.5249
G01 X42.0598 Y35.4214
G01 X42.0838 Y35.3180
G01 X42.1078 Y35.2146
G01 X42.1318 Y35.1112
G01 X42.1950 Y34.8181
G01 X42.2138 Y34.7237
G01 X42.2327 Y34.6293
G01 X42.2515 Y34.5348
G01 X42.2703 Y34.4404
G01 X42.2891 Y34.3459
G01 X42.3079 Y34.2515
G01 X42.3267 Y34.1570
G01 X42.3456 Y34.0626
G01 X42.3976 Y33.7794
G01 X42.4139 Y33.6825
G01 X42.4302 Y33.5855
G01 X42.4465 Y33.4886
G01 X42.4628 Y33.3916
G01 X42.4791 Y33.2947
G01 X42.4954 Y33.1977
G01 X42.5117 Y33.1008
G01 X42.5280 Y33.0038
G01 X42.5708 Y32.7249
G01 X42.5846 Y32.6255
G01 X42.5984 Y32.5260
G01 X42.6122 Y32.4266
G01 X42.6260 Y32.3271
G01 X42.6398 Y32.2276
G01 X42.6536 Y32.1282
G01 X42.6674 Y32.0287
G01 X42.6812 Y31.9293
G01 X42.7154 Y31.6547
G01 X42.7267 Y31.5528
G01 X42.7380 Y31.4508
G01 X42.7493 Y31.3488
G01 X42.7606 Y31.2469
G01 X42.7719 Y31.1449
G01 X42.7831 Y31.0429
G01 X42.7944 Y30.9410
G01 X42.8057 Y30.8390
G01 X42.8320 Y30.5688
G01 X42.8408 Y30.4643
G01 X42.8496 Y30.3598
G01 X42.8584 Y30.2554
G01 X42.8671 Y30.1509
G01 X42.8759 Y30.0464
G01 X42.8847 Y29.9419
G01 X42.8935 Y29.8375
G01 X42.9023 Y29.7330
G01 X42.9209 Y29.4724
G01 X42.9265 Y29.3761
G01 X42.9322 Y29.2798
G01 X42.9378 Y29.1835
G01 X42.9435 Y29.0873
G01 X42.9491 Y28.9910
G01 X42.9548 Y28.8947
G01 X42.9604 Y28.7984
G01 X42.9661 Y28.7021
G01 X42.9717 Y28.6058
G01 X42.9834 Y28.3549
G01 X42.9867 Y28.2563
G01 X42.9901 Y28.1578
G01 X42.9935 Y28.0592
G01 X42.9969 Y27.9607
G01 X43.0003 Y27.8622
G01 X43.0037 Y27.7636
G01 X43.0071 Y27.6651
G01 X43.0105 Y27.5665
G01 X43.0138 Y27.4680
G01 X43.0194 Y27.2213
G01 X43.0206 Y27.1205
G01 X43.0217 Y27.0197
G01 X43.0228 Y26.9189
G01 X43.0240 Y26.8181
G01 X43.0251 Y26.7173
G01 X43.0262 Y26.6165
G01 X43.0274 Y26.5157
G01 X43.0285 Y26.4149
G01 X43.0296 Y26.3141
G01 X43.0298 Y26.0832
G01 X43.0289 Y25.9801
G01 X43.0280 Y25.8769
G01 X43.0270 Y25.7737
G01 X43.0261 Y25.6706
G01 X43.0251 Y25.5674
G01 X43.0242 Y25.4642
G01 X43.0233 Y25.3611
G01 X43.0223 Y25.2579
G01 X43.0214 Y25.1548
G01 X43.0205 Y25.0516
G01 X43.0164 Y24.8300
G01 X43.0135 Y24.7293
G01 X43.0107 Y24.6286
G01 X43.0079 Y24.5279
G01 X43.0051 Y24.4272
G01 X43.0023 Y24.3265
G01 X42.9995 Y24.2258
G01 X42.9967 Y24.1251
G01 X42.9938 Y24.0244
G01 X42.9910 Y23.9237
