(Project KidWallRuler1)
(Created by Estlcam version 11 build 11.029)
(Machining time about 00:00:37 hours)

(Required tools:)
(1/2" Chamfer)
G21
G90
G94
M03 S24000
G00 Z5.0000


(No. 1: Carve 1)
G00 X20.7244 Y3.4958
G01 Z-1.7479 F1270 S24000
G01 X20.9245 Y3.6958 Z-1.8479
G01 X21.1246 Y3.8959 Z-1.9480
G01 X21.3247 Y4.0960 Z-2.0480
G01 X21.5247 Y4.2961 Z-2.1480
G01 X21.7248 Y4.4961 Z-2.2481
G01 X21.9249 Y4.6962 Z-2.3481
G01 X22.1250 Y4.8963 Z-2.4481
G01 X22.3250 Y5.0964 Z-2.5482
G01 X22.5251 Y5.2964 Z-2.6482
G01 X22.7252 Y5.4965 Z-2.7483
G01 X22.9253 Y5.6966 Z-2.8483
G01 X23.1253 Y5.8967 Z-2.9483
G01 X23.3254 Y6.0967 Z-3.0484
G01 X23.5255 Y6.2968 Z-3.1484
G01 X23.5787 Y6.3968 Z-3.1750
G01 Y6.4969
G01 Y6.5969
G01 Y6.6970
G01 Y6.7970
G01 Y6.8970
G01 Y6.9971
G01 Y7.0971
G01 Y7.1971
G01 Y7.2972
G01 Y7.3972
G01 Y7.4973
G01 Y7.5973
G01 Y7.6973
G01 Y7.7974
G01 Y7.8974
G01 Y7.9974
G01 Y8.0975
G01 Y8.1975
G01 Y8.2976
G01 Y8.3976
G01 Y8.4976
G01 Y8.5977
G01 Y8.6977
G01 Y8.7977
G01 Y8.8978
G01 Y8.9978
G01 Y9.0979
G01 Y9.1979
G01 Y9.2979
G01 Y9.3980
G01 Y9.4980
G01 Y9.5980
G01 Y9.6981
G01 Y9.7981
G01 Y9.8982
G01 Y9.9982
G01 Y10.0982
G01 Y10.1983
G01 Y10.2983
G01 Y10.3983
G01 Y10.4984
G01 Y10.5984
G01 Y10.6985
G01 Y10.7985
G01 Y10.8985
G01 Y10.9986
G01 Y11.0986
G01 Y11.1986
G01 Y11.2987
G01 Y11.3987
G01 Y11.4988
G01 Y11.5988
G01 Y11.6988
G01 Y11.7989
G01 Y11.8989
G01 Y11.9989
G01 Y12.0990
G01 Y12.1990
G01 Y12.2991
G01 Y12.3991
G01 Y12.4991
G01 Y12.5992
G01 Y12.6992
G01 Y12.7992
G01 Y12.8993
G01 Y12.9993
G01 Y13.0994
G01 Y13.1994
G01 Y13.2994
G01 Y13.3995
G01 Y13.4995
G01 Y13.5995
G01 Y13.6996
G01 Y13.7996
G01 Y13.8997
G01 Y13.9997
G01 Y14.0997
G01 Y14.1998
G01 Y14.2998
G01 Y14.3998
G01 Y14.4999
G01 Y14.5999
G01 Y14.7000
G01 Y14.8000
G01 Y14.9000
G01 Y15.0001
G01 Y15.1001
G01 Y15.2001
G01 Y15.3002
G01 Y15.4002
G01 Y15.5003
G01 Y15.6003
G01 Y15.7003
G01 Y15.8004
G01 Y15.9004
G01 Y16.0004
G01 Y16.1005
G01 Y16.2005
G01 Y16.3006
G01 Y16.4006
G01 Y16.5006
G01 Y16.6007
G01 Y16.7007
G01 Y16.8007
G01 Y16.9008
G01 Y17.0008
G01 Y17.1009
G01 Y17.2009
G01 Y17.3009
G01 Y17.4010
G01 Y17.5010
G01 Y17.6010
G01 Y17.7011
G01 Y17.8011
G01 Y17.9012
G01 Y18.0012
G01 Y18.1012
G01 Y18.2013
G01 Y18.3013
G01 Y18.4013
G01 Y18.5014
G01 Y18.6014
G01 Y18.7015
G01 Y18.8015
G01 Y18.9015
G01 Y19.0016
G01 Y19.1016
G01 Y19.2016
G01 Y19.3017
G01 Y19.4017
G01 Y19.5018
G01 Y19.6018
G01 Y19.7018
G01 Y19.8019
G01 Y19.9019
G01 Y20.0019
G01 Y20.1020
G01 Y20.2020
G01 Y20.3021
G01 Y20.4021
G01 Y20.5021
G01 Y20.6022
G01 Y20.7022
G01 Y20.8022
G01 Y20.9023
G01 Y21.0023
G01 Y21.1024
G01 Y21.2024
G01 Y21.3024
G01 Y21.4025
G01 Y21.5025
G01 Y21.6025
G01 Y21.7026
G01 Y21.8026
G01 Y21.9027
G01 Y22.0027
G01 Y22.1027
G01 Y22.2028
G01 Y22.3028
G01 Y22.4028
G01 Y22.5029
G01 Y22.6029
G01 Y22.7030
G01 Y22.8030
G01 Y22.9030
G01 Y23.0031
G01 Y23.1031
G01 Y23.2031
G01 Y23.3032
G01 Y23.4032
G01 Y23.5033
G01 Y23.6033
G01 Y23.7033
G01 Y23.8034
G01 Y23.9034
G01 Y24.0034
G01 Y24.1035
G01 Y24.2035
G01 Y24.3036
G01 Y24.4036
G01 Y24.5036
G01 Y24.6037
G01 Y24.7037
G01 Y24.8037
G01 Y24.9038
G01 Y25.0038
G01 Y25.1039
G01 Y25.2039
G01 Y25.3039
G01 Y25.4040
G01 Y25.5040
G01 Y25.6040
G01 Y25.7041
G01 Y25.8041
G01 Y25.9042
G01 Y26.0042
G01 Y26.1042
G01 Y26.2043
G01 Y26.3043
G01 Y26.4043
G01 Y26.5044
G01 Y26.6044
G01 Y26.7045
G01 Y26.8045
G01 Y26.9045
G01 Y27.0046
G01 Y27.1046
G01 Y27.2046
G01 Y27.3047
G01 Y27.4047
G01 Y27.5048
G01 Y27.6048
G01 Y27.7048
G01 Y27.8049
G01 Y27.9049
G01 Y28.0049
G01 Y28.1050
G01 Y28.2050
G01 Y28.3051
G01 Y28.4051
G01 Y28.5051
G01 Y28.6052
G01 Y28.7052
G01 Y28.8052
G01 Y28.9053
G01 Y29.0053
G01 Y29.1054
G01 Y29.2054
G01 Y29.3054
G01 Y29.4055
G01 Y29.5055
G01 Y29.6055
G01 Y29.7056
G01 Y29.8056
G01 Y29.9057
G01 Y30.0057
G01 Y30.1057
G01 Y30.2058
G01 Y30.3058
G01 Y30.4058
G01 Y30.5059
G01 Y30.6059
G01 Y30.7060
G01 Y30.8060
G01 Y30.9060
G01 Y31.0061
G01 Y31.1061
G01 Y31.2061
G01 Y31.3062
G01 Y31.4062
G01 Y31.5063
G01 Y31.6063
G01 Y31.7063
G01 Y31.8064
G01 Y31.9064
G01 Y32.0064
G01 Y32.1065
G01 Y32.2065
G01 Y32.3066
G01 Y32.4066
G01 Y32.5066
G01 Y32.6067
G01 Y32.7067
G01 Y32.8067
G01 Y32.9068
G01 Y33.0068
G01 Y33.1069
G01 Y33.2069
G01 Y33.3069
G01 Y33.4070
G01 Y33.5070
G01 Y33.6070
G01 Y33.7071
G01 Y33.8071
G01 Y33.9072
G01 Y34.0072
G01 Y34.1072
G01 Y34.2073
G01 Y34.3073
G01 Y34.4073
G01 Y34.5074
G01 Y34.6074
G01 Y34.7075
G01 Y34.8075
G01 Y34.9075
G01 Y35.0076
G01 Y35.1076
G01 Y35.2076
G01 Y35.3077
G01 Y35.4077
G01 Y35.5078
G01 Y35.6078
G01 Y35.7078
G01 Y35.8079
G01 Y35.9079
G01 Y36.0079
G01 Y36.1080
G01 Y36.2080
G01 Y36.3081
G01 Y36.4081
G01 Y36.5081
G01 Y36.6082
G01 Y36.7082
G01 Y36.8082
G01 Y36.9083
G01 Y37.0083
G01 Y37.1084
G01 Y37.2084
G01 Y37.3084
G01 Y37.4085
G01 Y37.5085
G01 Y37.6085
G01 Y37.7086
G01 Y37.8086
G01 Y37.9087
G01 Y38.0087
G01 Y38.1087
G01 Y38.2088
G01 Y38.3088
G01 Y38.4088
G01 Y38.5089
G01 Y38.6089
G01 Y38.7090
G01 Y38.8090
G01 Y38.9090
G01 Y39.0091
G01 Y39.1091
G01 Y39.2091
G01 Y39.3092
G01 Y39.4092
G01 Y39.5093
G01 Y39.6093
G01 Y39.7093
G01 Y39.8094
G01 Y39.9094
G01 Y40.0094
G01 Y40.1095
G01 Y40.2095
G01 Y40.3096
G01 Y40.4096
G01 Y40.5096
G01 Y40.6097
G01 Y40.7097
G01 Y40.8097
G01 Y40.9098
G01 Y41.0098
G01 Y41.1099
G01 Y41.2099
G01 Y41.3099
G01 Y41.4100
G01 Y41.5100
G01 Y41.6100
G01 Y41.7101
G01 Y41.8101
G01 Y41.9102
G01 Y42.0102
G01 Y42.1102
G01 Y42.2103
G01 Y42.3103
G01 Y42.4103
G01 Y42.5104
G01 Y42.6104
G01 Y42.7105
G01 Y42.8105
G01 Y42.9105
G01 Y43.0106
G01 Y43.1106
G01 Y43.2106
G01 Y43.3107
G01 Y43.4107
G01 Y43.5108
G01 Y43.6108
G01 Y43.7108
G01 Y43.8109
G01 Y43.9109
G01 Y44.0109
G01 Y44.1110
G01 Y44.2110
G01 Y44.3111
G01 Y44.4111
G01 Y44.5111
G01 Y44.6112
G01 Y44.7112
G01 Y44.8112
G01 Y44.9113
G01 Y45.0113
G01 Y45.1114
G01 Y45.2114
G01 Y45.3114
G01 Y45.4115
G01 Y45.5115
G01 Y45.6115
G01 Y45.7116
G01 Y45.8116
G01 Y45.9117
G01 Y46.0117
G01 Y46.1117
G01 Y46.2118
G01 Y46.3118
G01 Y46.4118
G01 Y46.5119
G01 Y46.6119
G01 Y46.7120
G01 Y46.8120
G01 Y46.9120
G01 Y47.0121
G01 Y47.1121
G01 Y47.2121
G01 Y47.3122
G01 Y47.4122
G01 Y47.5123
G01 Y47.6123
G01 Y47.7123
G01 Y47.8124
G01 Y47.9124
G01 Y48.0124
G01 Y48.1125
G01 Y48.2125
G01 Y48.3126
G01 Y48.4126
G01 Y48.5126
G01 Y48.6127
G01 Y48.7127
G01 Y48.8127
G01 Y48.9128
G01 Y49.0128
G01 Y49.1129
G01 Y49.2129
G01 Y49.3129
G01 Y49.4130
G01 Y49.5130
G01 Y49.6130
G01 Y49.7131
G01 Y49.8131
G01 Y49.9132
G01 Y50.0132
G01 Y50.1132
G01 Y50.2133
G01 Y50.3133
G01 Y50.4133
G01 Y50.5134
G01 Y50.6134
G01 Y50.7135
G01 Y50.8135
G01 Y50.9135
G01 Y51.0136
G01 Y51.1136
G01 Y51.2136
G01 Y51.3137
G01 Y51.4137
G01 Y51.5138
G01 Y51.6138
G01 Y51.7138
G01 Y51.8139
G01 Y51.9139
G01 Y52.0139
G01 Y52.1140
G01 Y52.2140
G01 Y52.3141
G01 Y52.4141
G01 Y52.5141
G01 Y52.6142
G01 Y52.7142
G01 Y52.8142
G01 Y52.9143
G01 Y53.0143
G01 Y53.1144
G01 Y53.2144
G01 Y53.3144
G01 Y53.4145
G01 Y53.5145
G01 Y53.6145
G01 Y53.7146
G01 Y53.8146
G01 Y53.9147
G01 Y54.0147
G01 Y54.1147
G01 Y54.2148
G01 Y54.3148
G01 Y54.4148
G01 Y54.5149
G01 Y54.6149
G01 Y54.7150
G01 Y54.8150
G01 Y54.9150
G01 Y55.0151
G01 Y55.1151
G01 Y55.2151
G01 Y55.3152
G01 Y55.4152
G01 Y55.5153
G01 Y55.6153
G01 Y55.7153
G01 Y55.8154
G01 Y55.9154
G01 Y56.0154
G01 Y56.1155
G01 Y56.2155
G01 Y56.3156
G01 Y56.4156
G01 Y56.5156
G01 Y56.6157
G01 Y56.7157
G01 Y56.8157
G01 Y56.9158
G01 Y57.0158
G01 Y57.1159
G01 Y57.2159
G01 Y57.3159
G01 Y57.4160
G01 Y57.5160
G01 Y57.6160
G01 Y57.7161
G01 Y57.8161
G01 Y57.9162
G01 Y58.0162
G01 Y58.1162
G01 Y58.2163
G01 Y58.3163
G01 Y58.4163
G01 Y58.5164
G01 Y58.6164
G01 Y58.7165
G01 Y58.8165
G01 Y58.9165
G01 Y59.0166
G01 Y59.1166
G01 Y59.2166
G01 Y59.3167
G01 Y59.4167
G01 Y59.5168
G01 Y59.6168
G01 Y59.7168
G01 Y59.8169
G01 Y59.9169
G01 Y60.0169
G01 Y60.1170
G01 Y60.2170
G01 Y60.3171
G01 Y60.4171
G01 Y60.5171
G01 Y60.6172
G01 Y60.7172
G01 Y60.8172
G01 Y60.9173
G01 Y61.0173
G01 Y61.1174
G01 Y61.2174
G01 Y61.3174
G01 Y61.4175
G01 Y61.5175
G01 Y61.6175
G01 Y61.7176
G01 Y61.8176
G01 Y61.9177
G01 Y62.0177
G01 Y62.1177
G01 Y62.2178
G01 Y62.3178
G01 Y62.4178
G01 Y62.5179
G01 Y62.6179
G01 Y62.7180
G01 Y62.8180
G01 Y62.9180
G01 Y63.0181
G01 Y63.1181
G01 Y63.2181
G01 Y63.3182
G01 Y63.4182
G01 Y63.5183
G01 Y63.6183
G01 Y63.7183
G01 Y63.8184
G01 Y63.9184
G01 Y64.0184
G01 Y64.1185
G01 Y64.2185
G01 Y64.3186
G01 Y64.4186
G01 Y64.5186
G01 Y64.6187
G01 Y64.7187
G01 Y64.8187
G01 Y64.9188
G01 Y65.0188
G01 Y65.1189
G01 Y65.2189
G01 Y65.3189
G01 Y65.4190
G01 Y65.5190
G01 Y65.6190
G01 Y65.7191
G01 Y65.8191
G01 Y65.9192
G01 Y66.0192
G01 Y66.1192
G01 Y66.2193
G01 Y66.3193
G01 Y66.4193
G01 Y66.5194
G01 Y66.6194
G01 Y66.7195
G01 Y66.8195
G01 Y66.9195
G01 Y67.0196
G01 Y67.1196
G01 Y67.2196
G01 Y67.3197
G01 Y67.4197
G01 Y67.5198
G01 Y67.6198
G01 Y67.7198
G01 Y67.8199
G01 Y67.9199
G01 Y68.0199
G01 Y68.1200
G01 Y68.2200
G01 Y68.3201
G01 Y68.4201
G01 Y68.5201
G01 Y68.6202
G01 Y68.7202
G01 Y68.8202
G01 Y68.9203
G01 Y69.0203
G01 Y69.1204
G01 Y69.2204
G01 Y69.3204
G01 Y69.4205
G01 Y69.5205
G01 Y69.6205
G01 Y69.7206
G01 Y69.8206
G01 Y69.9207
G01 Y70.0207
G01 Y70.1207
G01 Y70.2208
G01 Y70.3208
G01 Y70.4208
G01 Y70.5209
G01 Y70.6209
G01 Y70.7210
G01 Y70.8210
G01 Y70.9210
G01 Y71.0211
G01 Y71.1211
G01 Y71.2211
G01 Y71.3212
G01 Y71.4212
G01 Y71.5213
G01 Y71.6213
G01 Y71.7213
G01 Y71.8214
G01 Y71.9214
G01 Y72.0214
G01 Y72.1215
G01 Y72.2215
G01 Y72.3216
G01 Y72.4216
G01 Y72.5216
G01 Y72.6217
G01 Y72.7217
G01 Y72.8217
G01 Y72.9218
G01 Y73.0218
G01 Y73.1219
G01 Y73.2219
G01 Y73.3219
G01 Y73.4220
G01 Y73.5220
G01 Y73.6220
G01 Y73.7221
G01 Y73.8221
G01 Y73.9222
G01 Y74.0222
G01 Y74.1222
G01 Y74.2223
G01 Y74.3223
G01 Y74.4223
G01 Y74.5224
G01 Y74.6224
G01 Y74.7225
G01 Y74.8225
G01 Y74.9225
G01 Y75.0226
G01 Y75.1226
G01 Y75.2226
G01 Y75.3227
G01 Y75.4227
G01 Y75.5228
G01 Y75.6228
G01 Y75.7228
G01 Y75.8229
G01 Y75.9229
G01 Y76.0229
G01 Y76.1230
G01 Y76.2230
G01 Y76.3231
G01 Y76.4231
G01 Y76.5231
G01 Y76.6232
G01 Y76.7232
G01 Y76.8232
G01 Y76.9233
G01 Y77.0233
G01 Y77.1234
G01 Y77.2234
G01 Y77.3234
G01 Y77.4235
G01 Y77.5235
G01 Y77.6235
G01 Y77.7236
G01 Y77.8236
G01 X23.5782 Y77.9612
G01 X23.5776 Y78.0527
G01 X23.5770 Y78.1442
G01 X23.5764 Y78.2357
G01 X23.5740 Y78.4137
G01 X23.5722 Y78.5021
G01 X23.5704 Y78.5905
G01 X23.5686 Y78.6789
G01 X23.5631 Y78.8743
G01 X23.5590 Y78.9880
G01 X23.5550 Y79.1017
G01 X23.5458 Y79.3147
G01 X23.5402 Y79.4243
G01 X23.5345 Y79.5339
G01 X23.5216 Y79.7504
G01 X23.5143 Y79.8559
G01 X23.5071 Y79.9613
G01 X23.4899 Y80.1822
G01 X23.4810 Y80.2835
G01 X23.4722 Y80.3848
G01 X23.4502 Y80.6109
G01 X23.4397 Y80.7081
G01 X23.4293 Y80.8052
G01 X23.4018 Y81.0375
G01 X23.3897 Y81.1306
G01 X23.3776 Y81.2236
G01 X23.3437 Y81.4632
G01 X23.3301 Y81.5521
G01 X23.3164 Y81.6410
G01 X23.2088 Y81.8772 Z-3.1413
G01 X23.1166 Y81.9481 Z-3.1023
G01 X23.0245 Y82.0190 Z-3.0632
G01 X22.7318 Y82.2408 Z-2.9409
G01 X22.5999 Y82.3394 Z-2.8865
G01 X22.2858 Y82.5705 Z-2.7587
G01 X22.1600 Y82.6615 Z-2.7082
G01 X21.8471 Y82.8840 Z-2.5847
G01 X21.7274 Y82.9677 Z-2.5382
G01 X21.4153 Y83.1814 Z-2.4191
G01 X21.3013 Y83.2579 Z-2.3764
G01 X20.9896 Y83.4626 Z-2.2619
G01 X20.8813 Y83.5320 Z-2.2229
G01 X20.5695 Y83.7274 Z-2.1130
G01 X20.4667 Y83.7901 Z-2.0776
G01 X20.1545 Y83.9755 Z-1.9726
G01 X20.0569 Y84.0318 Z-1.9406
G01 X19.7440 Y84.2067 Z-1.8408
G01 X19.6514 Y84.2568 Z-1.8121
G01 X19.3377 Y84.4205 Z-1.7179
G01 X19.2497 Y84.4647 Z-1.6923
G01 X18.9354 Y84.6163 Z-1.6042
G01 X18.8516 Y84.6549 Z-1.5815
G01 X18.3049 Y84.8877 Z-1.4467
G01 X17.9498 Y85.0192 Z-1.3700
G01 X17.8712 Y85.0464 Z-1.3542
G01 X17.5818 Y85.1406 Z-1.2989
G01 X17.5003 Y85.1654 Z-1.2842
G01 X17.2343 Y85.2413 Z-1.2388
G01 X17.1495 Y85.2641 Z-1.2252
G01 X16.9032 Y85.3259 Z-1.1880
G01 X16.8147 Y85.3466 Z-1.1753
G01 X16.5845 Y85.3968 Z-1.1443
G01 X16.4920 Y85.4158 Z-1.1326
G01 X16.2750 Y85.4573 Z-1.1068
G01 X16.1781 Y85.4744 Z-1.0960
G01 X15.9714 Y85.5085 Z-1.0741
G01 X15.8697 Y85.5239 Z-1.0640
G01 X15.6711 Y85.5522 Z-1.0456
G01 X15.5646 Y85.5663 Z-1.0364
G01 X15.3718 Y85.5897 Z-1.0206
G01 X15.2602 Y85.6021 Z-1.0120
G01 X15.0716 Y85.6213 Z-0.9985
G01 X14.9548 Y85.6323 Z-0.9907
G01 X14.7689 Y85.6483 Z-0.9792
G01 X14.6466 Y85.6579 Z-0.9721
G01 X14.4835 Y85.6695 Z-0.9632
G01 X14.3983 Y85.6748 Z-0.9589
G01 X14.3130 Y85.6801 Z-0.9546
G01 X14.1726 Y85.6881 Z-0.9481
G01 X14.0836 Y85.6926 Z-0.9444
G01 X13.9946 Y85.6971 Z-0.9406
G01 X13.8554 Y85.7032 Z-0.9352
G01 X13.7626 Y85.7067 Z-0.9319
G01 X13.6698 Y85.7102 Z-0.9285
G01 X13.5312 Y85.7145 Z-0.9240
G01 X13.4345 Y85.7171 Z-0.9211
G01 X13.3377 Y85.7197 Z-0.9183
G01 X13.1992 Y85.7228 Z-0.9146
G01 X13.0985 Y85.7245 Z-0.9123
G01 X12.9978 Y85.7262 Z-0.9099
G01 X12.8586 Y85.7278 Z-0.9070
G01 X12.7539 Y85.7285 Z-0.9050
G01 X12.6492 Y85.7292 Z-0.9031
G01 X12.5090 Y85.7296 Z-0.9008
G01 X12.4003 Y85.7295 Z-0.8994
G01 X12.2916 Y85.7294 Z-0.8980
G01 X12.1499 Y85.7287 Z-0.8965
G01 X12.0371 Y85.7276 Z-0.8955
G01 X11.9243 Y85.7266 Z-0.8945
G01 X11.8035 Y85.7252 Z-0.8935
G01 X11.7039 Y85.7238 Z-0.8928
G01 X11.6043 Y85.7226 Z-0.8922
G01 X11.5047 Y85.7215 Z-0.8917
G01 X11.4051 Y85.7203 Z-0.8911
G01 X11.3055 Y85.7191 Z-0.8905
G01 X11.2059 Y85.7179 Z-0.8899
G01 X11.1063 Y85.7167 Z-0.8893
G01 X11.0067 Y85.7155 Z-0.8887
G01 X10.9071 Y85.7143 Z-0.8881
G01 X10.8074 Y85.7131 Z-0.8875
G01 X10.7078 Y85.7121 Z-0.8870
G01 X10.6082 Y85.7110 Z-0.8864
G01 X10.5086 Y85.7100 Z-0.8859
G01 X10.4090 Y85.7089 Z-0.8854
G01 X10.3094 Y85.7079 Z-0.8849
G01 X10.2098 Y85.7068 Z-0.8843
G01 X10.1102 Y85.7058 Z-0.8838
G01 X10.0106 Y85.7048 Z-0.8833
G01 X9.9110 Y85.7037 Z-0.8828
G01 X9.8114 Y85.7027 Z-0.8823
G01 X9.7118 Y85.7018 Z-0.8818
G01 X9.6122 Y85.7009 Z-0.8814
G01 X9.5125 Y85.7000 Z-0.8809
G01 X9.4129 Y85.6991 Z-0.8805
G01 X9.3133 Y85.6982 Z-0.8800
G01 X9.2137 Y85.6973 Z-0.8796
G01 X9.1141 Y85.6964 Z-0.8791
G01 X9.0145 Y85.6955 Z-0.8787
G01 X8.9149 Y85.6946 Z-0.8782
G01 X8.8153 Y85.6938 Z-0.8778
G01 X8.7157 Y85.6930 Z-0.8774
G01 X8.6161 Y85.6922 Z-0.8770
G01 X8.5165 Y85.6915 Z-0.8767
G01 X8.4169 Y85.6907 Z-0.8763
G01 X8.3173 Y85.6899 Z-0.8759
G01 X8.2176 Y85.6891 Z-0.8755
G01 X8.1180 Y85.6884 Z-0.8751
G01 X8.0184 Y85.6876 Z-0.8747
G01 X7.9188 Y85.6868 Z-0.8743
G01 X7.8192 Y85.6861 Z-0.8740
G01 X7.7196 Y85.6855 Z-0.8737
G01 X7.6200 Y85.6848 Z-0.8733
G01 X7.5204 Y85.6842 Z-0.8730
G01 X7.4208 Y85.6835 Z-0.8727
G01 X7.3212 Y85.6829 Z-0.8724
G01 X7.2216 Y85.6822 Z-0.8720
G01 X7.1220 Y85.6816 Z-0.8717
G01 X7.0224 Y85.6809 Z-0.8714
G01 X6.9227 Y85.6803 Z-0.8711
G01 X6.8231 Y85.6796 Z-0.8707
G01 X6.7235 Y85.6791 Z-0.8705
G01 X6.6239 Y85.6785 Z-0.8702
G01 X6.5243 Y85.6780 Z-0.8699
G01 X6.4247 Y85.6775 Z-0.8697
G01 X6.3251 Y85.6769 Z-0.8694
G01 X6.2255 Y85.6764 Z-0.8691
G01 X6.1259 Y85.6759 Z-0.8689
G01 X6.0263 Y85.6753 Z-0.8686
G01 X5.9267 Y85.6748 Z-0.8683
G01 X5.8271 Y85.6743 Z-0.8681
G01 X5.7274 Y85.6738 Z-0.8678
G01 X5.6278 Y85.6734 Z-0.8676
G01 X5.5282 Y85.6729 Z-0.8674
G01 X5.4286 Y85.6725 Z-0.8672
G01 X5.3290 Y85.6721 Z-0.8670
G01 X5.2294 Y85.6717 Z-0.8668
G01 X5.1298 Y85.6712 Z-0.8665
G01 X5.0302 Y85.6708 Z-0.8663
G01 X4.9306 Y85.6704 Z-0.8661
G01 X4.8310 Y85.6700 Z-0.8659
G01 X4.7314 Y85.6695 Z-0.8657
G01 X4.6318 Y85.6692 Z-0.8655
G01 X4.5322 Y85.6688 Z-0.8653
G01 X4.4325 Y85.6685 Z-0.8652
G01 X4.3329 Y85.6682 Z-0.8650
G01 X4.2333 Y85.6679 Z-0.8649
G01 X4.1337 Y85.6676 Z-0.8647
G01 X4.0341 Y85.6672 Z-0.8645
G01 X3.9345 Y85.6669 Z-0.8644
G01 X3.8349 Y85.6666 Z-0.8642
G01 X3.7353 Y85.6663 Z-0.8641
G01 X3.6357 Y85.6659 Z-0.8639
G01 X3.5361 Y85.6656 Z-0.8637
G01 X3.4365 Y85.6654 Z-0.8636
G01 X3.3369 Y85.6652 Z-0.8635
G01 X3.2373 Y85.6650 Z-0.8634
G01 X3.1376 Y85.6647 Z-0.8633
G01 X3.0380 Y85.6645 Z-0.8632
G01 X2.9384 Y85.6643 Z-0.8631
G01 X2.8388 Y85.6641 Z-0.8630
G01 X2.7392 Y85.6638 Z-0.8629
G01 X2.6396 Y85.6636 Z-0.8627
G01 X2.5400 Y85.6634 Z-0.8626
G01 X2.4404 Y85.6632 Z-0.8625
G01 X2.3408 Y85.6630 Z-0.8624
G01 X2.2412 Y85.6629
G01 X2.1416 Y85.6627 Z-0.8623
G01 X2.0420 Y85.6626 Z-0.8622
G01 X1.9424 Y85.6625
G01 X1.8427 Y85.6624 Z-0.8621
G01 X1.7431 Y85.6622 Z-0.8620
G01 X1.6435 Y85.5817 Z-0.8218
G01 X1.5439 Y85.4821 Z-0.7720
G01 X1.4443 Y85.3825 Z-0.7222
G01 X1.3447 Y85.2829 Z-0.6724
G01 X1.2451 Y85.1832 Z-0.6225
G01 X1.1455 Y85.0836 Z-0.5727
G01 X1.0459 Y84.9840 Z-0.5229
G01 X0.9463 Y84.8844 Z-0.4731
G01 X0.8467 Y84.7848 Z-0.4233
G01 X0.7471 Y84.6852 Z-0.3735
G01 X0.6475 Y84.5856 Z-0.3237
G01 X0.5478 Y84.4860 Z-0.2739
G01 X0.4482 Y84.3864 Z-0.2241
G01 X0.3486 Y84.2868 Z-0.1743
G01 X0.2490 Y84.1872 Z-0.1245
G01 X0.1494 Y84.0876 Z-0.0747
G01 X0.0498 Y83.9880 Z-0.0249
G01 X0.0000 Y83.9381 Z0.0000
G01 X0.0507 Y83.9888 Z-0.0253
G01 X0.1520 Y84.0902 Z-0.0760
G01 X0.2534 Y84.1915 Z-0.1267
G01 X0.4561 Y84.3942 Z-0.2280
G01 X0.6587 Y84.5969 Z-0.3294
G01 X0.8614 Y84.7996 Z-0.4307
G01 X1.0641 Y85.0023 Z-0.5321
G01 X1.2668 Y85.2050 Z-0.6334
G01 X1.4695 Y85.4076 Z-0.7348
G01 X1.6722 Y85.6103 Z-0.8361
G01 X1.6744 Y85.7117 Z-0.8372
G01 X1.5728 Y85.8130 Z-0.7864
G01 X1.4712 Y85.9144 Z-0.7356
G01 X1.3696 Y86.0157 Z-0.6848
G01 X1.2680 Y86.1171 Z-0.6340
G01 X1.1665 Y86.2184 Z-0.5833
G01 X1.0652 Y86.3198 Z-0.5326
G01 X0.9638 Y86.4211 Z-0.4819
G01 X0.8625 Y86.5224 Z-0.4312
G01 X0.7611 Y86.6238 Z-0.3806
G01 X0.6598 Y86.7251 Z-0.3299
G01 X0.5584 Y86.8265 Z-0.2792
G01 X0.4571 Y86.9278 Z-0.2285
G01 X0.3557 Y87.0292 Z-0.1779
G01 X0.2544 Y87.1305 Z-0.1272
G01 X0.1531 Y87.2319 Z-0.0765
G01 X0.0517 Y87.3332 Z-0.0259
G01 X0.0000 Y87.3839 Z0.0000
G01 X0.0517 Y87.3332 Z-0.0517
G01 X0.1531 Y87.2319 Z-0.1531
G01 X0.2544 Y87.1305 Z-0.2544
G01 X0.3557 Y87.0292 Z-0.3557
G01 X0.4571 Y86.9278 Z-0.4571
G01 X0.5584 Y86.8265 Z-0.5584
G01 X0.6598 Y86.7251 Z-0.6598
G01 X0.7611 Y86.6238 Z-0.7611
G01 X0.8625 Y86.5224 Z-0.8625
G01 X0.9638 Y86.4211 Z-0.9638
G01 X1.0652 Y86.3198 Z-1.0652
G01 X1.1665 Y86.2184 Z-1.1665
G01 X1.2680 Y86.1171 Z-1.2680
G01 X1.3696 Y86.0157 Z-1.3696
G01 X1.4712 Y85.9144 Z-1.4712
G01 X1.5728 Y85.8130 Z-1.5728
G01 X1.6744 Y85.7117 Z-1.6744
G01 X1.6722 Y85.6103 Z-1.6722
G01 X1.4695 Y85.4076 Z-1.4695
G01 X1.2668 Y85.2050 Z-1.2668
G01 X1.0641 Y85.0023 Z-1.0641
G01 X0.8614 Y84.7996 Z-0.8614
G01 X0.6587 Y84.5969 Z-0.6587
G01 X0.4561 Y84.3942 Z-0.4561
G01 X0.2534 Y84.1915 Z-0.2534
G01 X0.1520 Y84.0902 Z-0.1520
G01 X0.0507 Y83.9888 Z-0.0507
G01 X0.0000 Y83.9381 Z0.0000
G01 X0.0498 Y83.9880 Z-0.0498
G01 X0.1494 Y84.0876 Z-0.1494
G01 X0.2490 Y84.1872 Z-0.2490
G01 X0.3486 Y84.2868 Z-0.3486
G01 X0.4482 Y84.3864 Z-0.4482
G01 X0.5478 Y84.4860 Z-0.5478
G01 X0.6475 Y84.5856 Z-0.6475
G01 X0.7471 Y84.6852 Z-0.7471
G01 X0.8467 Y84.7848 Z-0.8467
G01 X0.9463 Y84.8844 Z-0.9463
G01 X1.0459 Y84.9840 Z-1.0459
G01 X1.1455 Y85.0836 Z-1.1455
G01 X1.2451 Y85.1832 Z-1.2451
G01 X1.3447 Y85.2829 Z-1.3447
G01 X1.4443 Y85.3825 Z-1.4443
G01 X1.5439 Y85.4821 Z-1.5439
G01 X1.6435 Y85.5817 Z-1.6435
G01 X1.7431 Y85.6622 Z-1.7241
G01 X1.8427 Y85.6624 Z-1.7242
G01 X1.9424 Y85.6625 Z-1.7243
G01 X2.0420 Y85.6626 Z-1.7245
G01 X2.1416 Y85.6627 Z-1.7246
G01 X2.2412 Y85.6629 Z-1.7247
G01 X2.3408 Y85.6630 Z-1.7249
G01 X2.4404 Y85.6632 Z-1.7250
G01 X2.5400 Y85.6634 Z-1.7253
G01 X2.6396 Y85.6636 Z-1.7255
G01 X2.7392 Y85.6638 Z-1.7257
G01 X2.8388 Y85.6641 Z-1.7259
G01 X2.9384 Y85.6643 Z-1.7261
G01 X3.0380 Y85.6645 Z-1.7264
G01 X3.1376 Y85.6647 Z-1.7266
G01 X3.2373 Y85.6650 Z-1.7268
G01 X3.3369 Y85.6652 Z-1.7270
G01 X3.4365 Y85.6654 Z-1.7273
G01 X3.5361 Y85.6656 Z-1.7275
G01 X3.6357 Y85.6659 Z-1.7278
G01 X3.7353 Y85.6663 Z-1.7281
G01 X3.8349 Y85.6666 Z-1.7284
G01 X3.9345 Y85.6669 Z-1.7288
G01 X4.0341 Y85.6672 Z-1.7291
G01 X4.1337 Y85.6676 Z-1.7294
G01 X4.2333 Y85.6679 Z-1.7297
G01 X4.3329 Y85.6682 Z-1.7300
G01 X4.4325 Y85.6685 Z-1.7304
G01 X4.5322 Y85.6688 Z-1.7307
G01 X4.6318 Y85.6692 Z-1.7310
G01 X4.7314 Y85.6695 Z-1.7314
G01 X4.8310 Y85.6700 Z-1.7318
G01 X4.9306 Y85.6704 Z-1.7322
G01 X5.0302 Y85.6708 Z-1.7327
G01 X5.1298 Y85.6712 Z-1.7331
G01 X5.2294 Y85.6717 Z-1.7335
G01 X5.3290 Y85.6721 Z-1.7339
G01 X5.4286 Y85.6725 Z-1.7344
G01 X5.5282 Y85.6729 Z-1.7348
G01 X5.6278 Y85.6734 Z-1.7352
G01 X5.7274 Y85.6738 Z-1.7356
G01 X5.8271 Y85.6743 Z-1.7361
G01 X5.9267 Y85.6748 Z-1.7367
G01 X6.0263 Y85.6753 Z-1.7372
G01 X6.1259 Y85.6759 Z-1.7377
G01 X6.2255 Y85.6764 Z-1.7383
G01 X6.3251 Y85.6769 Z-1.7388
G01 X6.4247 Y85.6775 Z-1.7393
G01 X6.5243 Y85.6780 Z-1.7399
G01 X6.6239 Y85.6785 Z-1.7404
G01 X6.7235 Y85.6791 Z-1.7409
G01 X6.8231 Y85.6796 Z-1.7415
G01 X6.9227 Y85.6803 Z-1.7421
G01 X7.0224 Y85.6809 Z-1.7428
G01 X7.1220 Y85.6816 Z-1.7434
G01 X7.2216 Y85.6822 Z-1.7441
G01 X7.3212 Y85.6829 Z-1.7447
G01 X7.4208 Y85.6835 Z-1.7454
G01 X7.5204 Y85.6842 Z-1.7460
G01 X7.6200 Y85.6848 Z-1.7467
G01 X7.7196 Y85.6855 Z-1.7473
G01 X7.8192 Y85.6861 Z-1.7480
G01 X7.9188 Y85.6868 Z-1.7487
G01 X8.0184 Y85.6876 Z-1.7494
G01 X8.1180 Y85.6884 Z-1.7502
G01 X8.2176 Y85.6891 Z-1.7510
G01 X8.3173 Y85.6899 Z-1.7518
G01 X8.4169 Y85.6907 Z-1.7525
G01 X8.5165 Y85.6915 Z-1.7533
G01 X8.6161 Y85.6922 Z-1.7541
G01 X8.7157 Y85.6930 Z-1.7548
G01 X8.8153 Y85.6938 Z-1.7556
G01 X8.9149 Y85.6946 Z-1.7565
G01 X9.0145 Y85.6955 Z-1.7574
G01 X9.1141 Y85.6964 Z-1.7583
G01 X9.2137 Y85.6973 Z-1.7592
G01 X9.3133 Y85.6982 Z-1.7601
G01 X9.4129 Y85.6991 Z-1.7610
G01 X9.5125 Y85.7000 Z-1.7619
G01 X9.6122 Y85.7009 Z-1.7628
G01 X9.7118 Y85.7018 Z-1.7637
G01 X9.8114 Y85.7027 Z-1.7646
G01 X9.9110 Y85.7037 Z-1.7656
G01 X10.0106 Y85.7048 Z-1.7666
G01 X10.1102 Y85.7058 Z-1.7677
G01 X10.2098 Y85.7068 Z-1.7687
G01 X10.3094 Y85.7079 Z-1.7697
G01 X10.4090 Y85.7089 Z-1.7708
G01 X10.5086 Y85.7100 Z-1.7718
G01 X10.6082 Y85.7110 Z-1.7729
G01 X10.7078 Y85.7121 Z-1.7739
G01 X10.8074 Y85.7131 Z-1.7750
G01 X10.9071 Y85.7143 Z-1.7762
G01 X11.0067 Y85.7155 Z-1.7774
G01 X11.1063 Y85.7167 Z-1.7785
G01 X11.2059 Y85.7179 Z-1.7797
G01 X11.3055 Y85.7191 Z-1.7809
G01 X11.4051 Y85.7203 Z-1.7821
G01 X11.5047 Y85.7215 Z-1.7833
G01 X11.6043 Y85.7226 Z-1.7845
G01 X11.7039 Y85.7238 Z-1.7857
G01 X11.8035 Y85.7252 Z-1.7870
G01 X11.9243 Y85.7266 Z-1.7889
G01 X12.0371 Y85.7276 Z-1.7909
G01 X12.1499 Y85.7287 Z-1.7929
G01 X12.2916 Y85.7294 Z-1.7960
G01 X12.4003 Y85.7295 Z-1.7988
G01 X12.5090 Y85.7296 Z-1.8017
G01 X12.6492 Y85.7292 Z-1.8061
G01 X12.7539 Y85.7285 Z-1.8100
G01 X12.8586 Y85.7278 Z-1.8139
G01 X12.9978 Y85.7262 Z-1.8198
G01 X13.0985 Y85.7245 Z-1.8245
G01 X13.1992 Y85.7228 Z-1.8293
G01 X13.3377 Y85.7197 Z-1.8366
G01 X13.4345 Y85.7171 Z-1.8422
G01 X13.5312 Y85.7145 Z-1.8480
G01 X13.6698 Y85.7102 Z-1.8571
G01 X13.7626 Y85.7067 Z-1.8637
G01 X13.8554 Y85.7032 Z-1.8704
G01 X13.9946 Y85.6971 Z-1.8812
G01 X14.0836 Y85.6926 Z-1.8888
G01 X14.1726 Y85.6881 Z-1.8963
G01 X14.3130 Y85.6801 Z-1.9092
G01 X14.3983 Y85.6748 Z-1.9178
G01 X14.4835 Y85.6695 Z-1.9264
G01 X14.6466 Y85.6579 Z-1.9441
G01 X14.7689 Y85.6483 Z-1.9583
G01 X14.9548 Y85.6323 Z-1.9814
G01 X15.0716 Y85.6213 Z-1.9969
G01 X15.2602 Y85.6021 Z-2.0241
G01 X15.3718 Y85.5897 Z-2.0412
G01 X15.5646 Y85.5663 Z-2.0727
G01 X15.6711 Y85.5522 Z-2.0912
G01 X15.8697 Y85.5239 Z-2.1281
G01 X15.9714 Y85.5085 Z-2.1483
G01 X16.1781 Y85.4744 Z-2.1920
G01 X16.2750 Y85.4573 Z-2.2137
G01 X16.4920 Y85.4158 Z-2.2653
G01 X16.5845 Y85.3968 Z-2.2886
G01 X16.8147 Y85.3466 Z-2.3507
G01 X16.9032 Y85.3259 Z-2.3759
G01 X17.1495 Y85.2641 Z-2.4505
G01 X17.2343 Y85.2413 Z-2.4776
G01 X17.5003 Y85.1654 Z-2.5683
G01 X17.5818 Y85.1406 Z-2.5977
G01 X17.8712 Y85.0464 Z-2.7083
G01 X17.9498 Y85.0192 Z-2.7400
G01 X18.3049 Y84.8877 Z-2.8934
G01 X18.8516 Y84.6549 Z-3.1631
G01 X18.9354 Y84.6163 Z-3.2083
G01 X19.2497 Y84.4647 Z-3.3847
G01 X19.3377 Y84.4205 Z-3.4358
G01 X19.6514 Y84.2568 Z-3.6243
G01 X19.7440 Y84.2067 Z-3.6816
G01 X20.0569 Y84.0318 Z-3.8812
G01 X20.1545 Y83.9755 Z-3.9452
G01 X20.4667 Y83.7901 Z-4.1551
G01 X20.5695 Y83.7274 Z-4.2260
G01 X20.8813 Y83.5320 Z-4.4458
G01 X20.9896 Y83.4626 Z-4.5237
G01 X21.3013 Y83.2579 Z-4.7529
G01 X21.4153 Y83.1814 Z-4.8383
G01 X21.7274 Y82.9677 Z-5.0764
G01 X21.8471 Y82.8840 Z-5.1695
G01 X22.1600 Y82.6615 Z-5.4164
G01 X22.2858 Y82.5705 Z-5.5173
G01 X22.5999 Y82.3394 Z-5.7729
G01 X22.7318 Y82.2408 Z-5.8819
G01 X23.0245 Y82.0190 Z-6.1265
G01 X23.1166 Y81.9481 Z-6.2046
G01 X23.2088 Y81.8772 Z-6.2827
G01 X23.3164 Y81.6410 Z-6.3500
G01 X23.3301 Y81.5521
G01 X23.3437 Y81.4632
G01 X23.3776 Y81.2236
G01 X23.3897 Y81.1306
G01 X23.4018 Y81.0375
G01 X23.4293 Y80.8052
G01 X23.4397 Y80.7081
G01 X23.4502 Y80.6109
G01 X23.4722 Y80.3848
G01 X23.4810 Y80.2835
G01 X23.4899 Y80.1822
G01 X23.5071 Y79.9613
G01 X23.5143 Y79.8559
G01 X23.5216 Y79.7504
G01 X23.5345 Y79.5339
G01 X23.5402 Y79.4243
G01 X23.5458 Y79.3147
G01 X23.5550 Y79.1017
G01 X23.5590 Y78.9880
G01 X23.5631 Y78.8743
G01 X23.5686 Y78.6789
G01 X23.5704 Y78.5905
G01 X23.5722 Y78.5021
G01 X23.5740 Y78.4137
G01 X23.5764 Y78.2357
G01 X23.5770 Y78.1442
G01 X23.5776 Y78.0527
G01 X23.5782 Y77.9612
G01 X23.5787 Y77.8236
G01 Y77.7236
G01 Y77.6235
G01 Y77.5235
G01 Y77.4235
G01 Y77.3234
G01 Y77.2234
G01 Y77.1234
G01 Y77.0233
G01 Y76.9233
G01 Y76.8232
G01 Y76.7232
G01 Y76.6232
G01 Y76.5231
G01 Y76.4231
G01 Y76.3231
G01 Y76.2230
G01 Y76.1230
G01 Y76.0229
G01 Y75.9229
G01 Y75.8229
G01 Y75.7228
G01 Y75.6228
G01 Y75.5228
G01 Y75.4227
G01 Y75.3227
G01 Y75.2226
G01 Y75.1226
G01 Y75.0226
G01 Y74.9225
G01 Y74.8225
G01 Y74.7225
G01 Y74.6224
G01 Y74.5224
G01 Y74.4223
G01 Y74.3223
G01 Y74.2223
G01 Y74.1222
G01 Y74.0222
G01 Y73.9222
G01 Y73.8221
G01 Y73.7221
G01 Y73.6220
G01 Y73.5220
G01 Y73.4220
G01 Y73.3219
G01 Y73.2219
G01 Y73.1219
G01 Y73.0218
G01 Y72.9218
G01 Y72.8217
G01 Y72.7217
G01 Y72.6217
G01 Y72.5216
G01 Y72.4216
G01 Y72.3216
G01 Y72.2215
G01 Y72.1215
G01 Y72.0214
G01 Y71.9214
G01 Y71.8214
G01 Y71.7213
G01 Y71.6213
G01 Y71.5213
G01 Y71.4212
G01 Y71.3212
G01 Y71.2211
G01 Y71.1211
G01 Y71.0211
G01 Y70.9210
G01 Y70.8210
G01 Y70.7210
G01 Y70.6209
G01 Y70.5209
G01 Y70.4208
G01 Y70.3208
G01 Y70.2208
G01 Y70.1207
G01 Y70.0207
G01 Y69.9207
G01 Y69.8206
G01 Y69.7206
G01 Y69.6205
G01 Y69.5205
G01 Y69.4205
G01 Y69.3204
G01 Y69.2204
G01 Y69.1204
G01 Y69.0203
G01 Y68.9203
G01 Y68.8202
G01 Y68.7202
G01 Y68.6202
G01 Y68.5201
G01 Y68.4201
G01 Y68.3201
G01 Y68.2200
G01 Y68.1200
G01 Y68.0199
G01 Y67.9199
G01 Y67.8199
G01 Y67.7198
G01 Y67.6198
G01 Y67.5198
G01 Y67.4197
G01 Y67.3197
G01 Y67.2196
G01 Y67.1196
G01 Y67.0196
G01 Y66.9195
G01 Y66.8195
G01 Y66.7195
G01 Y66.6194
G01 Y66.5194
G01 Y66.4193
G01 Y66.3193
G01 Y66.2193
G01 Y66.1192
G01 Y66.0192
G01 Y65.9192
G01 Y65.8191
G01 Y65.7191
G01 Y65.6190
G01 Y65.5190
G01 Y65.4190
G01 Y65.3189
G01 Y65.2189
G01 Y65.1189
G01 Y65.0188
G01 Y64.9188
G01 Y64.8187
G01 Y64.7187
G01 Y64.6187
G01 Y64.5186
G01 Y64.4186
G01 Y64.3186
G01 Y64.2185
G01 Y64.1185
G01 Y64.0184
G01 Y63.9184
G01 Y63.8184
G01 Y63.7183
G01 Y63.6183
G01 Y63.5183
G01 Y63.4182
G01 Y63.3182
G01 Y63.2181
G01 Y63.1181
G01 Y63.0181
G01 Y62.9180
G01 Y62.8180
G01 Y62.7180
G01 Y62.6179
G01 Y62.5179
G01 Y62.4178
G01 Y62.3178
G01 Y62.2178
G01 Y62.1177
G01 Y62.0177
G01 Y61.9177
G01 Y61.8176
G01 Y61.7176
G01 Y61.6175
G01 Y61.5175
G01 Y61.4175
G01 Y61.3174
G01 Y61.2174
G01 Y61.1174
G01 Y61.0173
G01 Y60.9173
G01 Y60.8172
G01 Y60.7172
G01 Y60.6172
G01 Y60.5171
G01 Y60.4171
G01 Y60.3171
G01 Y60.2170
G01 Y60.1170
G01 Y60.0169
G01 Y59.9169
G01 Y59.8169
G01 Y59.7168
G01 Y59.6168
G01 Y59.5168
G01 Y59.4167
G01 Y59.3167
G01 Y59.2166
G01 Y59.1166
G01 Y59.0166
G01 Y58.9165
G01 Y58.8165
G01 Y58.7165
G01 Y58.6164
G01 Y58.5164
G01 Y58.4163
G01 Y58.3163
G01 Y58.2163
G01 Y58.1162
G01 Y58.0162
G01 Y57.9162
G01 Y57.8161
G01 Y57.7161
G01 Y57.6160
G01 Y57.5160
G01 Y57.4160
G01 Y57.3159
G01 Y57.2159
G01 Y57.1159
G01 Y57.0158
G01 Y56.9158
G01 Y56.8157
G01 Y56.7157
G01 Y56.6157
G01 Y56.5156
G01 Y56.4156
G01 Y56.3156
G01 Y56.2155
G01 Y56.1155
G01 Y56.0154
G01 Y55.9154
G01 Y55.8154
G01 Y55.7153
G01 Y55.6153
G01 Y55.5153
G01 Y55.4152
G01 Y55.3152
G01 Y55.2151
G01 Y55.1151
G01 Y55.0151
G01 Y54.9150
G01 Y54.8150
G01 Y54.7150
G01 Y54.6149
G01 Y54.5149
G01 Y54.4148
G01 Y54.3148
G01 Y54.2148
G01 Y54.1147
G01 Y54.0147
G01 Y53.9147
G01 Y53.8146
G01 Y53.7146
G01 Y53.6145
G01 Y53.5145
G01 Y53.4145
G01 Y53.3144
G01 Y53.2144
G01 Y53.1144
G01 Y53.0143
G01 Y52.9143
G01 Y52.8142
G01 Y52.7142
G01 Y52.6142
G01 Y52.5141
G01 Y52.4141
G01 Y52.3141
G01 Y52.2140
G01 Y52.1140
G01 Y52.0139
G01 Y51.9139
G01 Y51.8139
G01 Y51.7138
G01 Y51.6138
G01 Y51.5138
G01 Y51.4137
G01 Y51.3137
G01 Y51.2136
G01 Y51.1136
G01 Y51.0136
G01 Y50.9135
G01 Y50.8135
G01 Y50.7135
G01 Y50.6134
G01 Y50.5134
G01 Y50.4133
G01 Y50.3133
G01 Y50.2133
G01 Y50.1132
G01 Y50.0132
G01 Y49.9132
G01 Y49.8131
G01 Y49.7131
G01 Y49.6130
G01 Y49.5130
G01 Y49.4130
G01 Y49.3129
G01 Y49.2129
G01 Y49.1129
G01 Y49.0128
G01 Y48.9128
G01 Y48.8127
G01 Y48.7127
G01 Y48.6127
G01 Y48.5126
G01 Y48.4126
G01 Y48.3126
G01 Y48.2125
G01 Y48.1125
G01 Y48.0124
G01 Y47.9124
G01 Y47.8124
G01 Y47.7123
G01 Y47.6123
G01 Y47.5123
G01 Y47.4122
G01 Y47.3122
G01 Y47.2121
G01 Y47.1121
G01 Y47.0121
G01 Y46.9120
G01 Y46.8120
G01 Y46.7120
G01 Y46.6119
G01 Y46.5119
G01 Y46.4118
G01 Y46.3118
G01 Y46.2118
G01 Y46.1117
G01 Y46.0117
G01 Y45.9117
G01 Y45.8116
G01 Y45.7116
G01 Y45.6115
G01 Y45.5115
G01 Y45.4115
G01 Y45.3114
G01 Y45.2114
G01 Y45.1114
G01 Y45.0113
G01 Y44.9113
G01 Y44.8112
G01 Y44.7112
G01 Y44.6112
G01 Y44.5111
G01 Y44.4111
G01 Y44.3111
G01 Y44.2110
G01 Y44.1110
G01 Y44.0109
G01 Y43.9109
G01 Y43.8109
G01 Y43.7108
G01 Y43.6108
G01 Y43.5108
G01 Y43.4107
G01 Y43.3107
G01 Y43.2106
G01 Y43.1106
G01 Y43.0106
G01 Y42.9105
G01 Y42.8105
G01 Y42.7105
G01 Y42.6104
G01 Y42.5104
G01 Y42.4103
G01 Y42.3103
G01 Y42.2103
G01 Y42.1102
G01 Y42.0102
G01 Y41.9102
G01 Y41.8101
G01 Y41.7101
G01 Y41.6100
G01 Y41.5100
G01 Y41.4100
G01 Y41.3099
G01 Y41.2099
G01 Y41.1099
G01 Y41.0098
G01 Y40.9098
G01 Y40.8097
G01 Y40.7097
G01 Y40.6097
G01 Y40.5096
G01 Y40.4096
G01 Y40.3096
G01 Y40.2095
G01 Y40.1095
G01 Y40.0094
G01 Y39.9094
G01 Y39.8094
G01 Y39.7093
G01 Y39.6093
G01 Y39.5093
G01 Y39.4092
G01 Y39.3092
G01 Y39.2091
G01 Y39.1091
G01 Y39.0091
G01 Y38.9090
G01 Y38.8090
G01 Y38.7090
G01 Y38.6089
G01 Y38.5089
G01 Y38.4088
G01 Y38.3088
G01 Y38.2088
G01 Y38.1087
G01 Y38.0087
G01 Y37.9087
G01 Y37.8086
G01 Y37.7086
G01 Y37.6085
G01 Y37.5085
G01 Y37.4085
G01 Y37.3084
G01 Y37.2084
G01 Y37.1084
G01 Y37.0083
G01 Y36.9083
G01 Y36.8082
G01 Y36.7082
G01 Y36.6082
G01 Y36.5081
G01 Y36.4081
G01 Y36.3081
G01 Y36.2080
G01 Y36.1080
G01 Y36.0079
G01 Y35.9079
G01 Y35.8079
G01 Y35.7078
G01 Y35.6078
G01 Y35.5078
G01 Y35.4077
G01 Y35.3077
G01 Y35.2076
G01 Y35.1076
G01 Y35.0076
G01 Y34.9075
G01 Y34.8075
G01 Y34.7075
G01 Y34.6074
G01 Y34.5074
G01 Y34.4073
G01 Y34.3073
G01 Y34.2073
G01 Y34.1072
G01 Y34.0072
G01 Y33.9072
G01 Y33.8071
G01 Y33.7071
G01 Y33.6070
G01 Y33.5070
G01 Y33.4070
G01 Y33.3069
G01 Y33.2069
G01 Y33.1069
G01 Y33.0068
G01 Y32.9068
G01 Y32.8067
G01 Y32.7067
G01 Y32.6067
G01 Y32.5066
G01 Y32.4066
G01 Y32.3066
G01 Y32.2065
G01 Y32.1065
G01 Y32.0064
G01 Y31.9064
G01 Y31.8064
G01 Y31.7063
G01 Y31.6063
G01 Y31.5063
G01 Y31.4062
G01 Y31.3062
G01 Y31.2061
G01 Y31.1061
G01 Y31.0061
G01 Y30.9060
G01 Y30.8060
G01 Y30.7060
G01 Y30.6059
G01 Y30.5059
G01 Y30.4058
G01 Y30.3058
G01 Y30.2058
G01 Y30.1057
G01 Y30.0057
G01 Y29.9057
G01 Y29.8056
G01 Y29.7056
G01 Y29.6055
G01 Y29.5055
G01 Y29.4055
G01 Y29.3054
G01 Y29.2054
G01 Y29.1054
G01 Y29.0053
G01 Y28.9053
G01 Y28.8052
G01 Y28.7052
G01 Y28.6052
G01 Y28.5051
G01 Y28.4051
G01 Y28.3051
G01 Y28.2050
G01 Y28.1050
G01 Y28.0049
G01 Y27.9049
G01 Y27.8049
G01 Y27.7048
G01 Y27.6048
G01 Y27.5048
G01 Y27.4047
G01 Y27.3047
G01 Y27.2046
G01 Y27.1046
G01 Y27.0046
G01 Y26.9045
G01 Y26.8045
G01 Y26.7045
G01 Y26.6044
G01 Y26.5044
G01 Y26.4043
G01 Y26.3043
G01 Y26.2043
G01 Y26.1042
G01 Y26.0042
G01 Y25.9042
G01 Y25.8041
G01 Y25.7041
G01 Y25.6040
G01 Y25.5040
G01 Y25.4040
G01 Y25.3039
G01 Y25.2039
G01 Y25.1039
G01 Y25.0038
G01 Y24.9038
G01 Y24.8037
G01 Y24.7037
G01 Y24.6037
G01 Y24.5036
G01 Y24.4036
G01 Y24.3036
G01 Y24.2035
G01 Y24.1035
G01 Y24.0034
G01 Y23.9034
G01 Y23.8034
G01 Y23.7033
G01 Y23.6033
G01 Y23.5033
G01 Y23.4032
G01 Y23.3032
G01 Y23.2031
G01 Y23.1031
G01 Y23.0031
G01 Y22.9030
G01 Y22.8030
G01 Y22.7030
G01 Y22.6029
G01 Y22.5029
G01 Y22.4028
G01 Y22.3028
G01 Y22.2028
G01 Y22.1027
G01 Y22.0027
G01 Y21.9027
G01 Y21.8026
G01 Y21.7026
G01 Y21.6025
G01 Y21.5025
G01 Y21.4025
G01 Y21.3024
G01 Y21.2024
G01 Y21.1024
G01 Y21.0023
G01 Y20.9023
G01 Y20.8022
G01 Y20.7022
G01 Y20.6022
G01 Y20.5021
G01 Y20.4021
G01 Y20.3021
G01 Y20.2020
G01 Y20.1020
G01 Y20.0019
G01 Y19.9019
G01 Y19.8019
G01 Y19.7018
G01 Y19.6018
G01 Y19.5018
G01 Y19.4017
G01 Y19.3017
G01 Y19.2016
G01 Y19.1016
G01 Y19.0016
G01 Y18.9015
G01 Y18.8015
G01 Y18.7015
G01 Y18.6014
G01 Y18.5014
G01 Y18.4013
G01 Y18.3013
G01 Y18.2013
G01 Y18.1012
G01 Y18.0012
G01 Y17.9012
G01 Y17.8011
G01 Y17.7011
G01 Y17.6010
G01 Y17.5010
G01 Y17.4010
G01 Y17.3009
G01 Y17.2009
G01 Y17.1009
G01 Y17.0008
G01 Y16.9008
G01 Y16.8007
G01 Y16.7007
G01 Y16.6007
G01 Y16.5006
G01 Y16.4006
G01 Y16.3006
G01 Y16.2005
G01 Y16.1005
G01 Y16.0004
G01 Y15.9004
G01 Y15.8004
G01 Y15.7003
G01 Y15.6003
G01 Y15.5003
G01 Y15.4002
G01 Y15.3002
G01 Y15.2001
G01 Y15.1001
G01 Y15.0001
G01 Y14.9000
G01 Y14.8000
G01 Y14.7000
G01 Y14.5999
G01 Y14.4999
G01 Y14.3998
G01 Y14.2998
G01 Y14.1998
G01 Y14.0997
G01 Y13.9997
G01 Y13.8997
G01 Y13.7996
G01 Y13.6996
G01 Y13.5995
G01 Y13.4995
G01 Y13.3995
G01 Y13.2994
G01 Y13.1994
G01 Y13.0994
G01 Y12.9993
G01 Y12.8993
G01 Y12.7992
G01 Y12.6992
G01 Y12.5992
G01 Y12.4991
G01 Y12.3991
G01 Y12.2991
G01 Y12.1990
G01 Y12.0990
G01 Y11.9989
G01 Y11.8989
G01 Y11.7989
G01 Y11.6988
G01 Y11.5988
G01 Y11.4988
G01 Y11.3987
G01 Y11.2987
G01 Y11.1986
G01 Y11.0986
G01 Y10.9986
G01 Y10.8985
G01 Y10.7985
G01 Y10.6985
G01 Y10.5984
G01 Y10.4984
G01 Y10.3983
G01 Y10.2983
G01 Y10.1983
G01 Y10.0982
G01 Y9.9982
G01 Y9.8982
G01 Y9.7981
G01 Y9.6981
G01 Y9.5980
G01 Y9.4980
G01 Y9.3980
G01 Y9.2979
G01 Y9.1979
G01 Y9.0979
G01 Y8.9978
G01 Y8.8978
G01 Y8.7977
G01 Y8.6977
G01 Y8.5977
G01 Y8.4976
G01 Y8.3976
G01 Y8.2976
G01 Y8.1975
G01 Y8.0975
G01 Y7.9974
G01 Y7.8974
G01 Y7.7974
G01 Y7.6973
G01 Y7.5973
G01 Y7.4973
G01 Y7.3972
G01 Y7.2972
G01 Y7.1971
G01 Y7.0971
G01 Y6.9971
G01 Y6.8970
G01 Y6.7970
G01 Y6.6970
G01 Y6.5969
G01 Y6.4969
G01 Y6.3968
G01 X23.5255 Y6.2968 Z-6.2968
G01 X23.3254 Y6.0967 Z-6.0967
G01 X23.1253 Y5.8967 Z-5.8967
G01 X22.9253 Y5.6966 Z-5.6966
G01 X22.7252 Y5.4965 Z-5.4965
G01 X22.5251 Y5.2964 Z-5.2964
G01 X22.3250 Y5.0964 Z-5.0964
G01 X22.1250 Y4.8963 Z-4.8963
G01 X21.9249 Y4.6962 Z-4.6962
G01 X21.7248 Y4.4961 Z-4.4961
G01 X21.5247 Y4.2961 Z-4.2961
G01 X21.3247 Y4.0960 Z-4.0960
G01 X21.1246 Y3.8959 Z-3.8959
G01 X20.9245 Y3.6958 Z-3.6958
G01 X20.7244 Y3.4958 Z-3.4958
G00 Z5.0000
G00 X23.4128 Y81.8262
G01 Z-3.1750
G01 X23.5124 Y81.8342
G01 X23.6120 Y81.8422
G01 X23.7116 Y81.8503
G01 X23.8112 Y81.8583
G01 X23.9108 Y81.8664
G01 X24.0104 Y81.8744
G01 X24.1100 Y81.8825
G01 X24.2096 Y81.8905
G01 X24.3092 Y81.8986
G01 X24.4088 Y81.9066
G01 X24.5084 Y81.9147
G01 X24.6080 Y81.9227
G01 X24.7076 Y81.9308
G01 X24.8072 Y81.9388
G01 X24.9068 Y81.9469
G01 X25.0064 Y81.9549
G01 X25.1060 Y81.9630
G01 X25.2056 Y81.9710
G01 X25.3052 Y81.9791
G01 X25.4048 Y81.9871
G01 X25.5044 Y81.9952
G01 X25.6040 Y82.0032
G01 X25.7036 Y82.0113
G01 X25.8003 Y82.0552 Z-3.1570
G01 X25.8924 Y82.1551 Z-3.1109
G01 X25.9846 Y82.2551 Z-3.0648
G01 X26.0768 Y82.3550 Z-3.0187
G01 X26.1690 Y82.4549 Z-2.9726
G01 X26.2611 Y82.5548 Z-2.9266
G01 X26.3533 Y82.6547 Z-2.8805
G01 X26.4455 Y82.7547 Z-2.8344
G01 X26.5377 Y82.8546 Z-2.7883
G01 X26.6298 Y82.9545 Z-2.7422
G01 X26.7220 Y83.0544 Z-2.6961
G01 X26.8142 Y83.1544 Z-2.6500
G01 X26.9064 Y83.2543 Z-2.6039
G01 X26.9985 Y83.3542 Z-2.5579
G01 X27.0907 Y83.4541 Z-2.5118
G01 X27.1829 Y83.5541 Z-2.4657
G01 X27.2751 Y83.6540 Z-2.4196
G01 X27.3672 Y83.7539 Z-2.3735
G01 X27.4594 Y83.8538 Z-2.3274
G01 X27.5516 Y83.9538 Z-2.2813
G01 X27.6438 Y84.0537 Z-2.2352
G01 X27.7359 Y84.1536 Z-2.1892
G01 X27.8281 Y84.2535 Z-2.1431
G01 X27.9203 Y84.3535 Z-2.0970
G01 X28.0125 Y84.4534 Z-2.0509
G01 X28.1046 Y84.5533 Z-2.0048
G01 X28.1968 Y84.6532 Z-1.9587
G01 X28.2890 Y84.7532 Z-1.9126
G01 X28.3812 Y84.8531 Z-1.8665
G01 X28.4733 Y84.9530 Z-1.8205
G01 X28.5655 Y85.0529 Z-1.7744
G01 X28.6577 Y85.1528 Z-1.7283
G01 X28.7499 Y85.2528 Z-1.6822
G01 X28.8420 Y85.3527 Z-1.6361
G01 X28.9342 Y85.4526 Z-1.5900
G01 X29.0264 Y85.5525 Z-1.5439
G01 X29.1186 Y85.6525 Z-1.4978
G01 X29.2107 Y85.7524 Z-1.4518
G01 X29.3029 Y85.8523 Z-1.4057
G01 X29.3951 Y85.9522 Z-1.3596
G01 X29.4873 Y86.0522 Z-1.3135
G01 X29.5794 Y86.1521 Z-1.2674
G01 X29.6716 Y86.2520 Z-1.2213
G01 X29.7638 Y86.3519 Z-1.1752
G01 X29.8560 Y86.4519 Z-1.1291
G01 X29.9481 Y86.5518 Z-1.0831
G01 X30.0403 Y86.6517 Z-1.0370
G01 X30.1325 Y86.7516 Z-0.9909
G01 X30.2247 Y86.8516 Z-0.9448
G01 X30.3168 Y86.9515 Z-0.8987
G01 X30.4090 Y87.0514 Z-0.8526
G01 X30.5012 Y87.1513 Z-0.8065
G01 X30.5934 Y87.2513 Z-0.7604
G01 X30.6855 Y87.3512 Z-0.7144
G01 X30.7777 Y87.4511 Z-0.6683
G01 X30.8699 Y87.5510 Z-0.6222
G01 X30.9621 Y87.6510 Z-0.5761
G01 X31.0542 Y87.7509 Z-0.5300
G01 X31.1464 Y87.8508 Z-0.4839
G01 X31.2386 Y87.9507 Z-0.4378
G01 X31.3308 Y88.0506 Z-0.3917
G01 X31.4229 Y88.1506 Z-0.3457
G01 X31.5151 Y88.2505 Z-0.2996
G01 X31.6073 Y88.3504 Z-0.2535
G01 X31.6995 Y88.4503 Z-0.2074
G01 X31.7916 Y88.5503 Z-0.1613
G01 X31.8838 Y88.6502 Z-0.1152
G01 X31.9760 Y88.7501 Z-0.0691
G01 X32.0682 Y88.8500 Z-0.0230
G01 X32.1143 Y88.9000 Z0.0000
G01 X32.0682 Y88.8500 Z-0.0230
G01 X31.9760 Y88.7501 Z-0.0691
G01 X31.8838 Y88.6501 Z-0.1152
G01 X31.7916 Y88.5502 Z-0.1613
G01 X31.6994 Y88.4502 Z-0.2074
G01 X31.5150 Y88.2503 Z-0.2996
G01 X31.3306 Y88.0505 Z-0.3918
G01 X31.1462 Y87.8506 Z-0.4840
G01 X30.9618 Y87.6507 Z-0.5762
G01 X30.7774 Y87.4508 Z-0.6684
G01 X30.5930 Y87.2509 Z-0.7606
G01 X30.4086 Y87.0510 Z-0.8528
G01 X30.2242 Y86.8511 Z-0.9450
G01 X30.0399 Y86.6512 Z-1.0372
G01 X29.8555 Y86.4513 Z-1.1294
G01 X29.6711 Y86.2514 Z-1.2216
G01 X29.4867 Y86.0515 Z-1.3138
G01 X29.3023 Y85.8516 Z-1.4060
G01 X29.1179 Y85.6517 Z-1.4982
G01 X28.9335 Y85.4518 Z-1.5904
G01 X28.7491 Y85.2520 Z-1.6826
G01 X28.5647 Y85.0521 Z-1.7748
G01 X28.3803 Y84.8522 Z-1.8670
G01 X28.1959 Y84.6523 Z-1.9592
G01 X28.0115 Y84.4524 Z-2.0514
G01 X27.8272 Y84.2525 Z-2.1436
G01 X27.6428 Y84.0526 Z-2.2357
G01 X27.4584 Y83.8527 Z-2.3279
G01 X27.2740 Y83.6528 Z-2.4201
G01 X27.0896 Y83.4529 Z-2.5123
G01 X26.9052 Y83.2530 Z-2.6045
G01 X26.7208 Y83.0531 Z-2.6967
G01 X26.5364 Y82.8532 Z-2.7889
G01 X26.3520 Y82.6533 Z-2.8811
G01 X26.1676 Y82.4535 Z-2.9733
G01 X25.9832 Y82.2536 Z-3.0655
G01 X25.7988 Y82.0537 Z-3.1577
G01 X25.7643 Y81.9537 Z-3.1750
G01 Y81.8538
G01 Y81.7538
G01 Y81.6539
G01 Y81.5539
G01 Y81.4540
G01 Y81.3540
G01 Y81.2541
G01 Y81.1541
G01 Y81.0542
G01 Y80.9543
G01 Y80.8543
G01 Y80.7544
G01 Y80.6544
G01 Y80.5545
G01 Y80.4545
G01 Y80.3546
G01 Y80.2546
G01 Y80.1547
G01 Y80.0547
G01 Y79.9548
G01 Y79.8548
G01 Y79.7549
G01 Y79.6549
G01 Y79.5550
G01 Y79.4551
G01 Y79.3551
G01 Y79.2552
G01 Y79.1552
G01 Y79.0553
G01 Y78.9553
G01 Y78.8554
G01 Y78.7554
G01 Y78.6555
G01 Y78.5555
G01 Y78.4556
G01 Y78.3556
G01 Y78.2557
G01 Y78.1558
G01 Y78.0558
G01 Y77.9559
G01 Y77.8559
G01 Y77.7560
G01 Y77.6560
G01 Y77.5561
G01 Y77.4561
G01 Y77.3562
G01 Y77.2562
G01 Y77.1563
G01 Y77.0563
G01 Y76.9564
G01 Y76.8564
G01 Y76.7565
G01 Y76.6566
G01 Y76.5566
G01 Y76.4567
G01 Y76.3567
G01 Y76.2568
G01 Y76.1568
G01 Y76.0569
G01 Y75.9569
G01 Y75.8570
G01 Y75.7570
G01 Y75.6571
G01 Y75.5571
G01 Y75.4572
G01 Y75.3572
G01 Y75.2573
G01 Y75.1574
G01 Y75.0574
G01 Y74.9575
G01 Y74.8575
G01 Y74.7576
G01 Y74.6576
G01 Y74.5577
G01 Y74.4577
G01 Y74.3578
G01 Y74.2578
G01 Y74.1579
G01 Y74.0579
G01 Y73.9580
G01 Y73.8581
G01 Y73.7581
G01 Y73.6582
G01 Y73.5582
G01 Y73.4583
G01 Y73.3583
G01 Y73.2584
G01 Y73.1584
G01 Y73.0585
G01 Y72.9585
G01 Y72.8586
G01 Y72.7586
G01 Y72.6587
G01 Y72.5587
G01 Y72.4588
G01 Y72.3589
G01 Y72.2589
G01 Y72.1590
G01 Y72.0590
G01 Y71.9591
G01 Y71.8591
G01 Y71.7592
G01 Y71.6592
G01 Y71.5593
G01 Y71.4593
G01 Y71.3594
G01 Y71.2594
G01 Y71.1595
G01 Y71.0596
G01 Y70.9596
G01 Y70.8597
G01 Y70.7597
G01 Y70.6598
G01 Y70.5598
G01 Y70.4599
G01 Y70.3599
G01 Y70.2600
G01 Y70.1600
G01 Y70.0601
G01 Y69.9601
G01 Y69.8602
G01 Y69.7602
G01 Y69.6603
G01 Y69.5604
G01 Y69.4604
G01 Y69.3605
G01 Y69.2605
G01 Y69.1606
G01 Y69.0606
G01 Y68.9607
G01 Y68.8607
G01 Y68.7608
G01 Y68.6608
G01 Y68.5609
G01 Y68.4609
G01 Y68.3610
G01 Y68.2610
G01 Y68.1611
G01 Y68.0612
G01 Y67.9612
G01 Y67.8613
G01 Y67.7613
G01 Y67.6614
G01 Y67.5614
G01 Y67.4615
G01 Y67.3615
G01 Y67.2616
G01 Y67.1616
G01 Y67.0617
G01 Y66.9617
G01 Y66.8618
G01 Y66.7619
G01 Y66.6619
G01 Y66.5620
G01 Y66.4620
G01 Y66.3621
G01 Y66.2621
G01 Y66.1622
G01 Y66.0622
G01 Y65.9623
G01 Y65.8623
G01 Y65.7624
G01 Y65.6624
G01 Y65.5625
G01 Y65.4625
G01 Y65.3626
G01 Y65.2627
G01 Y65.1627
G01 Y65.0628
G01 Y64.9628
G01 Y64.8629
G01 Y64.7629
G01 Y64.6630
G01 Y64.5630
G01 Y64.4631
G01 Y64.3631
G01 Y64.2632
G01 Y64.1632
G01 Y64.0633
G01 Y63.9633
G01 Y63.8634
G01 Y63.7635
G01 Y63.6635
G01 Y63.5636
G01 Y63.4636
G01 Y63.3637
G01 Y63.2637
G01 Y63.1638
G01 Y63.0638
G01 Y62.9639
G01 Y62.8639
G01 Y62.7640
G01 Y62.6640
G01 Y62.5641
G01 Y62.4642
G01 Y62.3642
G01 Y62.2643
G01 Y62.1643
G01 Y62.0644
G01 Y61.9644
G01 Y61.8645
G01 Y61.7645
G01 Y61.6646
G01 Y61.5646
G01 Y61.4647
G01 Y61.3647
G01 Y61.2648
G01 Y61.1648
G01 Y61.0649
G01 Y60.9650
G01 Y60.8650
G01 Y60.7651
G01 Y60.6651
G01 Y60.5652
G01 Y60.4652
G01 Y60.3653
G01 Y60.2653
G01 Y60.1654
G01 Y60.0654
G01 Y59.9655
G01 Y59.8655
G01 Y59.7656
G01 Y59.6656
G01 Y59.5657
G01 Y59.4658
G01 Y59.3658
G01 Y59.2659
G01 Y59.1659
G01 Y59.0660
G01 Y58.9660
G01 Y58.8661
G01 Y58.7661
G01 Y58.6662
G01 Y58.5662
G01 Y58.4663
G01 Y58.3663
G01 Y58.2664
G01 Y58.1665
G01 Y58.0665
G01 Y57.9666
G01 Y57.8666
G01 Y57.7667
G01 Y57.6667
G01 Y57.5668
G01 Y57.4668
G01 Y57.3669
G01 Y57.2669
G01 Y57.1670
G01 Y57.0670
G01 Y56.9671
G01 Y56.8671
G01 Y56.7672
G01 Y56.6673
G01 Y56.5673
G01 Y56.4674
G01 Y56.3674
G01 Y56.2675
G01 Y56.1675
G01 Y56.0676
G01 Y55.9676
G01 Y55.8677
G01 Y55.7677
G01 Y55.6678
G01 Y55.5678
G01 Y55.4679
G01 Y55.3679
G01 Y55.2680
G01 Y55.1681
G01 Y55.0681
G01 Y54.9682
G01 Y54.8682
G01 Y54.7683
G01 Y54.6683
G01 Y54.5684
G01 Y54.4684
G01 Y54.3685
G01 Y54.2685
G01 Y54.1686
G01 Y54.0686
G01 Y53.9687
G01 Y53.8688
G01 Y53.7688
G01 Y53.6689
G01 Y53.5689
G01 Y53.4690
G01 Y53.3690
G01 Y53.2691
G01 Y53.1691
G01 Y53.0692
G01 Y52.9692
G01 Y52.8693
G01 Y52.7693
G01 Y52.6694
G01 Y52.5694
G01 Y52.4695
G01 Y52.3696
G01 Y52.2696
G01 Y52.1697
G01 Y52.0697
G01 Y51.9698
G01 Y51.8698
G01 Y51.7699
G01 Y51.6699
G01 Y51.5700
G01 Y51.4700
G01 Y51.3701
G01 Y51.2701
G01 Y51.1702
G01 Y51.0703
G01 Y50.9703
G01 Y50.8704
G01 Y50.7704
G01 Y50.6705
G01 Y50.5705
G01 Y50.4706
G01 Y50.3706
G01 Y50.2707
G01 Y50.1707
G01 Y50.0708
G01 Y49.9708
G01 Y49.8709
G01 Y49.7709
G01 Y49.6710
G01 Y49.5711
G01 Y49.4711
G01 Y49.3712
G01 Y49.2712
G01 Y49.1713
G01 Y49.0713
G01 Y48.9714
G01 Y48.8714
G01 Y48.7715
G01 Y48.6715
G01 Y48.5716
G01 Y48.4716
G01 Y48.3717
G01 Y48.2717
G01 Y48.1718
G01 Y48.0719
G01 Y47.9719
G01 Y47.8720
G01 Y47.7720
G01 Y47.6721
G01 Y47.5721
G01 Y47.4722
G01 Y47.3722
G01 Y47.2723
G01 Y47.1723
G01 Y47.0724
G01 Y46.9724
G01 Y46.8725
G01 Y46.7726
G01 Y46.6726
G01 Y46.5727
G01 Y46.4727
G01 Y46.3728
G01 Y46.2728
G01 Y46.1729
G01 Y46.0729
G01 Y45.9730
G01 Y45.8730
G01 Y45.7731
G01 Y45.6731
G01 Y45.5732
G01 Y45.4732
G01 Y45.3733
G01 Y45.2734
G01 Y45.1734
G01 Y45.0735
G01 Y44.9735
G01 Y44.8736
G01 Y44.7736
G01 Y44.6737
G01 Y44.5737
G01 Y44.4738
G01 Y44.3738
G01 Y44.2739
G01 Y44.1739
G01 Y44.0740
G01 Y43.9740
G01 Y43.8741
G01 Y43.7742
G01 Y43.6742
G01 Y43.5743
G01 Y43.4743
G01 Y43.3744
G01 Y43.2744
G01 Y43.1745
G01 Y43.0745
G01 Y42.9746
G01 Y42.8746
G01 Y42.7747
G01 Y42.6747
G01 Y42.5748
G01 Y42.4749
G01 Y42.3749
G01 Y42.2750
G01 Y42.1750
G01 Y42.0751
G01 Y41.9751
G01 Y41.8752
G01 Y41.7752
G01 Y41.6753
G01 Y41.5753
G01 Y41.4754
G01 Y41.3754
G01 Y41.2755
G01 Y41.1755
G01 Y41.0756
G01 Y40.9757
G01 Y40.8757
G01 Y40.7758
G01 Y40.6758
G01 Y40.5759
G01 Y40.4759
G01 Y40.3760
G01 Y40.2760
G01 Y40.1761
G01 Y40.0761
G01 Y39.9762
G01 Y39.8762
G01 Y39.7763
G01 Y39.6763
G01 Y39.5764
G01 Y39.4765
G01 Y39.3765
G01 Y39.2766
G01 Y39.1766
G01 Y39.0767
G01 Y38.9767
G01 Y38.8768
G01 Y38.7768
G01 Y38.6769
G01 Y38.5769
G01 Y38.4770
G01 Y38.3770
G01 Y38.2771
G01 Y38.1772
G01 Y38.0772
G01 Y37.9773
G01 Y37.8773
G01 Y37.7774
G01 Y37.6774
G01 Y37.5775
G01 Y37.4775
G01 Y37.3776
G01 Y37.2776
G01 Y37.1777
G01 Y37.0777
G01 Y36.9778
G01 Y36.8778
G01 Y36.7779
G01 Y36.6780
G01 Y36.5780
G01 Y36.4781
G01 Y36.3781
G01 Y36.2782
G01 Y36.1782
G01 Y36.0783
G01 Y35.9783
G01 Y35.8784
G01 Y35.7784
G01 Y35.6785
G01 Y35.5785
G01 Y35.4786
G01 Y35.3786
G01 Y35.2787
G01 Y35.1788
G01 Y35.0788
G01 Y34.9789
G01 Y34.8789
G01 Y34.7790
G01 Y34.6790
G01 Y34.5791
G01 Y34.4791
G01 Y34.3792
G01 Y34.2792
G01 Y34.1793
G01 Y34.0793
G01 Y33.9794
G01 Y33.8795
G01 Y33.7795
G01 Y33.6796
G01 Y33.5796
G01 Y33.4797
G01 Y33.3797
G01 Y33.2798
G01 Y33.1798
G01 Y33.0799
G01 Y32.9799
G01 Y32.8800
G01 Y32.7800
G01 Y32.6801
G01 Y32.5801
G01 Y32.4802
G01 Y32.3803
G01 Y32.2803
G01 Y32.1804
G01 Y32.0804
G01 Y31.9805
G01 Y31.8805
G01 Y31.7806
G01 Y31.6806
G01 Y31.5807
G01 Y31.4807
G01 Y31.3808
G01 Y31.2808
G01 Y31.1809
G01 Y31.0810
G01 Y30.9810
G01 Y30.8811
G01 Y30.7811
G01 Y30.6812
G01 Y30.5812
G01 Y30.4813
G01 Y30.3813
G01 Y30.2814
G01 Y30.1814
G01 Y30.0815
G01 Y29.9815
G01 Y29.8816
G01 Y29.7816
G01 Y29.6817
G01 Y29.5818
G01 Y29.4818
G01 Y29.3819
G01 Y29.2819
G01 Y29.1820
G01 Y29.0820
G01 Y28.9821
G01 Y28.8821
G01 Y28.7822
G01 Y28.6822
G01 Y28.5823
G01 Y28.4823
G01 Y28.3824
G01 Y28.2824
G01 Y28.1825
G01 Y28.0826
G01 Y27.9826
G01 Y27.8827
G01 Y27.7827
G01 Y27.6828
G01 Y27.5828
G01 Y27.4829
G01 Y27.3829
G01 Y27.2830
G01 Y27.1830
G01 Y27.0831
G01 Y26.9831
G01 Y26.8832
G01 Y26.7833
G01 Y26.6833
G01 Y26.5834
G01 Y26.4834
G01 Y26.3835
G01 Y26.2835
G01 Y26.1836
G01 Y26.0836
G01 Y25.9837
G01 Y25.8837
G01 Y25.7838
G01 Y25.6838
G01 Y25.5839
G01 Y25.4839
G01 Y25.3840
G01 Y25.2841
G01 Y25.1841
G01 Y25.0842
G01 Y24.9842
G01 Y24.8843
G01 Y24.7843
G01 Y24.6844
G01 Y24.5844
G01 Y24.4845
G01 Y24.3845
G01 Y24.2846
G01 Y24.1846
G01 Y24.0847
G01 Y23.9847
G01 Y23.8848
G01 Y23.7849
G01 Y23.6849
G01 Y23.5850
G01 Y23.4850
G01 Y23.3851
G01 Y23.2851
G01 Y23.1852
G01 Y23.0852
G01 Y22.9853
G01 Y22.8853
G01 Y22.7854
G01 Y22.6854
G01 Y22.5855
G01 Y22.4856
G01 Y22.3856
G01 Y22.2857
G01 Y22.1857
G01 Y22.0858
G01 Y21.9858
G01 Y21.8859
G01 Y21.7859
G01 Y21.6860
G01 Y21.5860
G01 Y21.4861
G01 Y21.3861
G01 Y21.2862
G01 Y21.1862
G01 Y21.0863
G01 Y20.9864
G01 Y20.8864
G01 Y20.7865
G01 Y20.6865
G01 Y20.5866
G01 Y20.4866
G01 Y20.3867
G01 Y20.2867
G01 Y20.1868
G01 Y20.0868
G01 Y19.9869
G01 Y19.8869
G01 Y19.7870
G01 Y19.6870
G01 Y19.5871
G01 Y19.4872
G01 Y19.3872
G01 Y19.2873
G01 Y19.1873
G01 Y19.0874
G01 Y18.9874
G01 Y18.8875
G01 Y18.7875
G01 Y18.6876
G01 Y18.5876
G01 Y18.4877
G01 Y18.3877
G01 Y18.2878
G01 Y18.1879
G01 Y18.0879
G01 Y17.9880
G01 Y17.8880
G01 Y17.7881
G01 Y17.6881
G01 Y17.5882
G01 Y17.4882
G01 Y17.3883
G01 Y17.2883
G01 Y17.1884
G01 Y17.0884
G01 Y16.9885
G01 Y16.8885
G01 Y16.7886
G01 Y16.6887
G01 Y16.5887
G01 Y16.4888
G01 Y16.3888
G01 Y16.2889
G01 Y16.1889
G01 Y16.0890
G01 Y15.9890
G01 Y15.8891
G01 Y15.7891
G01 Y15.6892
G01 Y15.5892
G01 Y15.4893
G01 Y15.3893
G01 Y15.2894
G01 Y15.1895
G01 Y15.0895
G01 Y14.9896
G01 Y14.8896
G01 Y14.7897
G01 Y14.6897
G01 Y14.5898
G01 Y14.4898
G01 Y14.3899
G01 Y14.2899
G01 Y14.1900
G01 Y14.0900
G01 Y13.9901
G01 Y13.8902
G01 Y13.7902
G01 Y13.6903
G01 Y13.5903
G01 Y13.4904
G01 Y13.3904
G01 Y13.2905
G01 Y13.1905
G01 Y13.0906
G01 Y12.9906
G01 Y12.8907
G01 Y12.7907
G01 Y12.6908
G01 Y12.5908
G01 Y12.4909
G01 Y12.3910
G01 Y12.2910
G01 Y12.1911
G01 Y12.0911
G01 Y11.9912
G01 Y11.8912
G01 Y11.7913
G01 Y11.6913
G01 Y11.5914
G01 Y11.4914
G01 Y11.3915
G01 Y11.2915
G01 Y11.1916
G01 Y11.0917
G01 Y10.9917
G01 Y10.8918
G01 Y10.7918
G01 Y10.6919
G01 Y10.5919
G01 Y10.4920
G01 Y10.3920
G01 Y10.2921
G01 Y10.1921
G01 Y10.0922
G01 Y9.9922
G01 Y9.8923
G01 Y9.7923
G01 Y9.6924
G01 Y9.5925
G01 Y9.4925
G01 Y9.3926
G01 Y9.2926
G01 Y9.1927
G01 Y9.0927
G01 Y8.9928
G01 Y8.8928
G01 Y8.7929
G01 Y8.6929
G01 Y8.5930
G01 Y8.4930
G01 Y8.3931
G01 Y8.2931
G01 Y8.1932
G01 Y8.0933
G01 Y7.9933
G01 Y7.8934
G01 Y7.7934
G01 Y7.6935
G01 Y7.5935
G01 Y7.4936
G01 Y7.3936
G01 Y7.2937
G01 Y7.1937
G01 Y7.0938
G01 Y6.9938
G01 Y6.8939
G01 Y6.7940
G01 Y6.6940
G01 Y6.5941
G01 Y6.4941
G01 Y6.3942
G01 X25.8200 Y6.2942 Z-3.1471
G01 X25.9200 Y6.1943 Z-3.0971
G01 X26.0199 Y6.0943 Z-3.0472
G01 X26.1199 Y5.9944 Z-2.9972
G01 X26.2198 Y5.8944 Z-2.9472
G01 X26.3198 Y5.7945 Z-2.8972
G01 X26.4197 Y5.6945 Z-2.8473
G01 X26.5197 Y5.5946 Z-2.7973
G01 X26.6196 Y5.4946 Z-2.7473
G01 X26.7196 Y5.3947 Z-2.6973
G01 X26.8195 Y5.2948 Z-2.6474
G01 X26.9195 Y5.1948 Z-2.5974
G01 X27.0194 Y5.0949 Z-2.5474
G01 X27.1193 Y4.9949 Z-2.4975
G01 X27.2193 Y4.8950 Z-2.4475
G01 X27.3192 Y4.7950 Z-2.3975
G01 X27.4192 Y4.6951 Z-2.3475
G01 X27.5191 Y4.5951 Z-2.2976
G01 X27.6191 Y4.4952 Z-2.2476
G01 X27.7190 Y4.3952 Z-2.1976
G01 X27.8190 Y4.2953 Z-2.1476
G01 X27.9189 Y4.1953 Z-2.0977
G01 X28.0189 Y4.0954 Z-2.0477
G01 X28.1188 Y3.9954 Z-1.9977
G01 X28.2188 Y3.8955 Z-1.9478
G01 X28.3187 Y3.7956 Z-1.8978
G01 X28.4186 Y3.6956 Z-1.8478
G01 X28.5186 Y3.5957 Z-1.7978
G01 X28.6185 Y3.4957 Z-1.7479
G01 X28.6685 Y3.4457 Z-1.7229
G01 X28.6985 Y3.4159 Z-1.7080
G01 X28.7281 Y3.3866 Z-1.6933
G01 X28.7576 Y3.3578 Z-1.6789
G01 X28.7867 Y3.3295 Z-1.6648
G01 X28.8157 Y3.3017 Z-1.6509
G01 X28.8444 Y3.2744 Z-1.6372
G01 X28.8728 Y3.2475 Z-1.6237
G01 X28.9011 Y3.2211 Z-1.6105
G01 X28.9290 Y3.1951 Z-1.5975
G01 X28.9568 Y3.1695 Z-1.5848
G01 X28.9844 Y3.1444 Z-1.5722
G01 X29.0117 Y3.1197 Z-1.5598
G01 X29.0388 Y3.0953 Z-1.5477
G01 X29.0657 Y3.0714 Z-1.5357
G01 X29.0924 Y3.0479 Z-1.5240
G01 X29.1189 Y3.0248 Z-1.5124
G01 X29.1452 Y3.0020 Z-1.5010
G01 X29.1713 Y2.9796 Z-1.4898
G01 X29.1972 Y2.9576 Z-1.4788
G01 X29.2229 Y2.9359 Z-1.4680
G01 X29.2485 Y2.9146 Z-1.4573
G01 X29.2738 Y2.8936 Z-1.4468
G01 X29.2990 Y2.8730 Z-1.4365
G01 X29.3240 Y2.8526 Z-1.4263
G01 X29.3488 Y2.8326 Z-1.4163
G01 X29.3734 Y2.8130 Z-1.4065
G01 X29.4221 Y2.7745 Z-1.3873
G01 X29.4702 Y2.7373 Z-1.3686
G01 X29.5177 Y2.7012 Z-1.3506
G01 X29.5645 Y2.6662 Z-1.3331
G01 X29.6108 Y2.6323 Z-1.3162
G01 X29.6564 Y2.5994 Z-1.2997
G01 X29.7015 Y2.5676 Z-1.2838
G01 X29.7461 Y2.5367 Z-1.2683
G01 X29.7901 Y2.5067 Z-1.2534
G01 X29.8336 Y2.4776 Z-1.2388
G01 X29.8766 Y2.4495 Z-1.2247
G01 X29.9191 Y2.4221 Z-1.2111
G01 X29.9611 Y2.3956 Z-1.1978
G01 X30.0027 Y2.3699 Z-1.1849
G01 X30.0438 Y2.3449 Z-1.1724
G01 X30.0846 Y2.3207 Z-1.1603
G01 X30.1249 Y2.2972 Z-1.1486
G01 X30.1648 Y2.2744 Z-1.1372
G01 X30.2043 Y2.2522 Z-1.1261
G01 X30.2434 Y2.2308 Z-1.1154
G01 X30.2821 Y2.2100 Z-1.1050
G01 X30.3205 Y2.1898 Z-1.0949
G01 X30.3586 Y2.1702 Z-1.0851
G01 X30.3963 Y2.1511 Z-1.0756
G01 X30.4337 Y2.1327 Z-1.0664
G01 X30.4707 Y2.1148 Z-1.0574
G01 X30.5075 Y2.0975 Z-1.0487
G01 X30.5439 Y2.0807 Z-1.0403
G01 X30.5801 Y2.0644 Z-1.0322
G01 X30.6160 Y2.0486 Z-1.0243
G01 X30.6516 Y2.0333 Z-1.0166
G01 X30.6870 Y2.0185 Z-1.0092
G01 X30.7221 Y2.0041 Z-1.0021
G01 X30.7569 Y1.9902 Z-0.9951
G01 X30.7916 Y1.9767 Z-0.9884
G01 X30.8431 Y1.9574 Z-0.9787
G01 X30.8941 Y1.9389 Z-0.9695
G01 X30.9446 Y1.9214 Z-0.9607
G01 X30.9947 Y1.9048 Z-0.9524
G01 X31.0443 Y1.8890 Z-0.9445
G01 X31.0936 Y1.8740 Z-0.9370
G01 X31.1425 Y1.8599 Z-0.9300
G01 X31.1910 Y1.8466 Z-0.9233
G01 X31.2392 Y1.8340 Z-0.9170
G01 X31.2870 Y1.8222 Z-0.9111
G01 X31.3346 Y1.8111 Z-0.9055
G01 X31.3818 Y1.8007 Z-0.9004
G01 X31.4289 Y1.7910 Z-0.8955
G01 X31.4756 Y1.7821 Z-0.8910
G01 X31.5222 Y1.7737 Z-0.8869
G01 X31.5685 Y1.7661 Z-0.8830
G01 X31.6146 Y1.7591 Z-0.8795
G01 X31.6606 Y1.7527 Z-0.8764
G01 X31.7064 Y1.7470 Z-0.8735
G01 X31.7521 Y1.7419 Z-0.8710
G01 X31.7976 Y1.7374 Z-0.8687
G01 X31.8582 Y1.7324 Z-0.8662
G01 X31.9186 Y1.7284 Z-0.8642
G01 X31.9789 Y1.7255 Z-0.8628
G01 X32.0391 Y1.7237 Z-0.8618
G01 X32.0992 Y1.7229 Z-0.8615
G01 X32.1642 Z-0.8614
G01 X32.2641
G01 X32.3641
G01 X32.4640
G01 X32.5639
G01 X32.6639
G01 X32.7638
G01 X32.8637
G01 X32.9636
G01 X33.0636
G01 X33.1635
G01 X33.2634
G01 X33.3633
G01 X33.4633
G01 X33.5632
G01 X33.6631
G01 X33.7630
G01 X33.8630
G01 X33.9629
G01 X34.0628
G01 X34.1627
G01 X34.2627
G01 X34.3626
G01 X34.4625
G01 X34.5625
G01 X34.6624
G01 X34.7623
G01 X34.8622
G01 X34.9622
G01 X35.0621
G01 X35.1620
G01 X35.2619
G01 X35.3619
G01 X35.4618
G01 X35.5617
G01 X35.6616
G01 X35.7616
G01 X35.8615
G01 X35.9614
G01 X36.0613
G01 X36.1613
G01 X36.2612
G01 X36.3611
G01 X36.4611
G01 X36.5610
G01 X36.6609
G01 X36.7608
G01 X36.8608
G01 X36.9607
G01 X37.0606
G01 X37.1605
G01 X37.2605
G01 X37.3604
G01 X37.4603
G01 X37.5602
G01 X37.6602
G01 X37.7601
G01 X37.8600
G01 X37.9600
G01 X38.0599
G01 X38.1598
G01 X38.2597
G01 X38.3597
G01 X38.4596
G01 X38.5595
G01 X38.6594
G01 X38.7594
G01 X38.8593
G01 X38.9592
G01 X39.0591
G01 X39.1591
G01 X39.2590
G01 X39.3589
G01 X39.4588
G01 X39.5588
G01 X39.6587
G01 X39.7586
G01 X39.8586
G01 X39.9585
G01 X40.0584
G01 X40.1583
G01 X40.2583
G01 X40.3582
G01 X40.4581
G01 X40.5580
G01 X40.6580
G01 X40.7579
G01 X40.8578
G01 X40.9577
G01 X41.0577
G01 X41.1576
G01 X41.2575
G01 X41.3574
G01 X41.4574
G01 X41.5573
G01 X41.6572
G01 X41.7572
G01 X41.8571
G01 X41.9570
G01 X42.0569
G01 X42.1569
G01 X42.2568
G01 X42.3567
G01 X42.4566
G01 X42.5566
G01 X42.6565
G01 X42.7564
G01 X42.8563
G01 X42.9563
G01 X43.0562
G01 X43.1561
G01 X43.2560
G01 X43.3560
G01 X43.4559
G01 X43.5558
G01 X43.6558
G01 X43.7557
G01 X43.8556
G01 X43.9555
G01 X44.0555
G01 X44.1554
G01 X44.2553
G01 X44.3552
G01 X44.4552
G01 X44.5551
G01 X44.6550
G01 X44.7549
G01 X44.8549
G01 X44.9548
G01 X45.0547
G01 X45.1546
G01 X45.2546
G01 X45.3545
G01 X45.4544
G01 X45.5544
G01 X45.6543
G01 X45.7542
G01 X45.8541
G01 X45.9541
G01 X46.0540
G01 X46.1539
G01 X46.2538
G01 X46.3538
G01 X46.4537 Y1.7970 Z-0.8244
G01 X46.5536 Y1.8969 Z-0.7744
G01 X46.6535 Y1.9968 Z-0.7245
G01 X46.7535 Y2.0967 Z-0.6745
G01 X46.8534 Y2.1967 Z-0.6245
G01 X46.9533 Y2.2966 Z-0.5746
G01 X47.0532 Y2.3965 Z-0.5246
G01 X47.1532 Y2.4964 Z-0.4747
G01 X47.2531 Y2.5964 Z-0.4247
G01 X47.3530 Y2.6963 Z-0.3747
G01 X47.4530 Y2.7962 Z-0.3248
G01 X47.5529 Y2.8961 Z-0.2748
G01 X47.6528 Y2.9961 Z-0.2248
G01 X47.7527 Y3.0960 Z-0.1749
G01 X47.8527 Y3.1959 Z-0.1249
G01 X47.9526 Y3.2959 Z-0.0749
G01 X48.0525 Y3.3958 Z-0.0250
G01 X48.1025 Y3.4457 Z0.0000
G01 X48.0518 Y3.3951 Z-0.0253
G01 X47.9505 Y3.2937 Z-0.0760
G01 X47.8491 Y3.1924 Z-0.1267
G01 X47.6464 Y2.9897 Z-0.2280
G01 X47.4437 Y2.7870 Z-0.3294
G01 X47.2410 Y2.5843 Z-0.4307
G01 X47.0383 Y2.3816 Z-0.5321
G01 X46.8357 Y2.1789 Z-0.6334
G01 X46.6330 Y1.9762 Z-0.7348
G01 X46.4303 Y1.7735 Z-0.8361
G01 Y1.6722
G01 X46.5316 Y1.5709 Z-0.7854
G01 X46.6330 Y1.4695 Z-0.7348
G01 X46.7343 Y1.3682 Z-0.6841
G01 X46.8357 Y1.2668 Z-0.6334
G01 X46.9370 Y1.1655 Z-0.5827
G01 X47.0383 Y1.0641 Z-0.5321
G01 X47.1397 Y0.9628 Z-0.4814
G01 X47.2410 Y0.8614 Z-0.4307
G01 X47.3424 Y0.7601 Z-0.3800
G01 X47.4437 Y0.6587 Z-0.3294
G01 X47.5451 Y0.5574 Z-0.2787
G01 X47.6464 Y0.4561 Z-0.2280
G01 X47.7478 Y0.3547 Z-0.1774
G01 X47.8491 Y0.2534 Z-0.1267
G01 X47.9505 Y0.1520 Z-0.0760
G01 X48.0518 Y0.0507 Z-0.0253
G01 X48.1025 Y0.0000 Z0.0000
G01 X48.0518 Y0.0507 Z-0.0507
G01 X47.9505 Y0.1520 Z-0.1520
G01 X47.8491 Y0.2534 Z-0.2534
G01 X47.7478 Y0.3547 Z-0.3547
G01 X47.6464 Y0.4561 Z-0.4561
G01 X47.5451 Y0.5574 Z-0.5574
G01 X47.4437 Y0.6587 Z-0.6587
G01 X47.3424 Y0.7601 Z-0.7601
G01 X47.2410 Y0.8614 Z-0.8614
G01 X47.1397 Y0.9628 Z-0.9628
G01 X47.0383 Y1.0641 Z-1.0641
G01 X46.9370 Y1.1655 Z-1.1655
G01 X46.8357 Y1.2668 Z-1.2668
G01 X46.7343 Y1.3682 Z-1.3682
G01 X46.6330 Y1.4695 Z-1.4695
G01 X46.5316 Y1.5709 Z-1.5709
G01 X46.4303 Y1.6722 Z-1.6722
G01 Y1.7735
G01 X46.6330 Y1.9762 Z-1.4695
G01 X46.8357 Y2.1789 Z-1.2668
G01 X47.0383 Y2.3816 Z-1.0641
G01 X47.2410 Y2.5843 Z-0.8614
G01 X47.4437 Y2.7870 Z-0.6587
G01 X47.6464 Y2.9897 Z-0.4561
G01 X47.8491 Y3.1924 Z-0.2534
G01 X47.9505 Y3.2937 Z-0.1520
G01 X48.0518 Y3.3951 Z-0.0507
G01 X48.1025 Y3.4457 Z0.0000
G01 X48.0525 Y3.3958 Z-0.0500
G01 X47.9526 Y3.2959 Z-0.1499
G01 X47.8527 Y3.1959 Z-0.2498
G01 X47.7527 Y3.0960 Z-0.3497
G01 X47.6528 Y2.9961 Z-0.4497
G01 X47.5529 Y2.8961 Z-0.5496
G01 X47.4530 Y2.7962 Z-0.6495
G01 X47.3530 Y2.6963 Z-0.7494
G01 X47.2531 Y2.5964 Z-0.8494
G01 X47.1532 Y2.4964 Z-0.9493
G01 X47.0532 Y2.3965 Z-1.0492
G01 X46.9533 Y2.2966 Z-1.1492
G01 X46.8534 Y2.1967 Z-1.2491
G01 X46.7535 Y2.0967 Z-1.3490
G01 X46.6535 Y1.9968 Z-1.4489
G01 X46.5536 Y1.8969 Z-1.5489
G01 X46.4537 Y1.7970 Z-1.6488
G01 X46.3538 Y1.7229 Z-1.7229
G01 X46.2538
G01 X46.1539
G01 X46.0540
G01 X45.9541
G01 X45.8541
G01 X45.7542
G01 X45.6543
G01 X45.5544
G01 X45.4544
G01 X45.3545
G01 X45.2546
G01 X45.1546
G01 X45.0547
G01 X44.9548
G01 X44.8549
G01 X44.7549
G01 X44.6550
G01 X44.5551
G01 X44.4552
G01 X44.3552
G01 X44.2553
G01 X44.1554
G01 X44.0555
G01 X43.9555
G01 X43.8556
G01 X43.7557
G01 X43.6558
G01 X43.5558
G01 X43.4559
G01 X43.3560
G01 X43.2560
G01 X43.1561
G01 X43.0562
G01 X42.9563
G01 X42.8563
G01 X42.7564
G01 X42.6565
G01 X42.5566
G01 X42.4566
G01 X42.3567
G01 X42.2568
G01 X42.1569
G01 X42.0569
G01 X41.9570
G01 X41.8571
G01 X41.7572
G01 X41.6572
G01 X41.5573
G01 X41.4574
G01 X41.3574
G01 X41.2575
G01 X41.1576
G01 X41.0577
G01 X40.9577
G01 X40.8578
G01 X40.7579
G01 X40.6580
G01 X40.5580
G01 X40.4581
G01 X40.3582
G01 X40.2583
G01 X40.1583
G01 X40.0584
G01 X39.9585
G01 X39.8586
G01 X39.7586
G01 X39.6587
G01 X39.5588
G01 X39.4588
G01 X39.3589
G01 X39.2590
G01 X39.1591
G01 X39.0591
G01 X38.9592
G01 X38.8593
G01 X38.7594
G01 X38.6594
G01 X38.5595
G01 X38.4596
G01 X38.3597
G01 X38.2597
G01 X38.1598
G01 X38.0599
G01 X37.9600
G01 X37.8600
G01 X37.7601
G01 X37.6602
G01 X37.5602
G01 X37.4603
G01 X37.3604
G01 X37.2605
G01 X37.1605
G01 X37.0606
G01 X36.9607
G01 X36.8608
G01 X36.7608
G01 X36.6609
G01 X36.5610
G01 X36.4611
G01 X36.3611
G01 X36.2612
G01 X36.1613
G01 X36.0613
G01 X35.9614
G01 X35.8615
G01 X35.7616
G01 X35.6616
G01 X35.5617
G01 X35.4618
G01 X35.3619
G01 X35.2619
G01 X35.1620
G01 X35.0621
G01 X34.9622
G01 X34.8622
G01 X34.7623
G01 X34.6624
G01 X34.5625
G01 X34.4625
G01 X34.3626
G01 X34.2627
G01 X34.1627
G01 X34.0628
G01 X33.9629
G01 X33.8630
G01 X33.7630
G01 X33.6631
G01 X33.5632
G01 X33.4633
G01 X33.3633
G01 X33.2634
G01 X33.1635
G01 X33.0636
G01 X32.9636
G01 X32.8637
G01 X32.7638
G01 X32.6639
G01 X32.5639
G01 X32.4640
G01 X32.3641
G01 X32.2641
G01 X32.1642
G01 X32.0992
G01 X32.0391 Y1.7237 Z-1.7237
G01 X31.9789 Y1.7255 Z-1.7255
G01 X31.9186 Y1.7284 Z-1.7284
G01 X31.8582 Y1.7324 Z-1.7324
G01 X31.7976 Y1.7374 Z-1.7374
G01 X31.7521 Y1.7419 Z-1.7419
G01 X31.7064 Y1.7470 Z-1.7470
G01 X31.6606 Y1.7527 Z-1.7527
G01 X31.6146 Y1.7591 Z-1.7591
G01 X31.5685 Y1.7661 Z-1.7661
G01 X31.5222 Y1.7737 Z-1.7737
G01 X31.4756 Y1.7821 Z-1.7821
G01 X31.4289 Y1.7910 Z-1.7910
G01 X31.3818 Y1.8007 Z-1.8007
G01 X31.3346 Y1.8111 Z-1.8111
G01 X31.2870 Y1.8222 Z-1.8222
G01 X31.2392 Y1.8340 Z-1.8340
G01 X31.1910 Y1.8466 Z-1.8466
G01 X31.1425 Y1.8599 Z-1.8599
G01 X31.0936 Y1.8740 Z-1.8740
G01 X31.0443 Y1.8890 Z-1.8890
G01 X30.9947 Y1.9048 Z-1.9048
G01 X30.9446 Y1.9214 Z-1.9214
G01 X30.8941 Y1.9389 Z-1.9389
G01 X30.8431 Y1.9574 Z-1.9574
G01 X30.7916 Y1.9767 Z-1.9767
G01 X30.7569 Y1.9902 Z-1.9902
G01 X30.7221 Y2.0041 Z-2.0041
G01 X30.6870 Y2.0185 Z-2.0185
G01 X30.6516 Y2.0333 Z-2.0333
G01 X30.6160 Y2.0486 Z-2.0486
G01 X30.5801 Y2.0644 Z-2.0644
G01 X30.5439 Y2.0807 Z-2.0807
G01 X30.5075 Y2.0975 Z-2.0975
G01 X30.4707 Y2.1148 Z-2.1148
G01 X30.4337 Y2.1327 Z-2.1327
G01 X30.3963 Y2.1511 Z-2.1511
G01 X30.3586 Y2.1702 Z-2.1702
G01 X30.3205 Y2.1898 Z-2.1898
G01 X30.2821 Y2.2100 Z-2.2100
G01 X30.2434 Y2.2308 Z-2.2308
G01 X30.2043 Y2.2522 Z-2.2522
G01 X30.1648 Y2.2744 Z-2.2744
G01 X30.1249 Y2.2972 Z-2.2972
G01 X30.0846 Y2.3207 Z-2.3207
G01 X30.0438 Y2.3449 Z-2.3449
G01 X30.0027 Y2.3699 Z-2.3699
G01 X29.9611 Y2.3956 Z-2.3956
G01 X29.9191 Y2.4221 Z-2.4221
G01 X29.8766 Y2.4495 Z-2.4495
G01 X29.8336 Y2.4776 Z-2.4776
G01 X29.7901 Y2.5067 Z-2.5067
G01 X29.7461 Y2.5367 Z-2.5367
G01 X29.7015 Y2.5676 Z-2.5676
G01 X29.6564 Y2.5994 Z-2.5994
G01 X29.6108 Y2.6323 Z-2.6323
G01 X29.5645 Y2.6662 Z-2.6662
G01 X29.5177 Y2.7012 Z-2.7012
G01 X29.4702 Y2.7373 Z-2.7373
G01 X29.4221 Y2.7745 Z-2.7745
G01 X29.3734 Y2.8130 Z-2.8130
G01 X29.3488 Y2.8326 Z-2.8326
G01 X29.3240 Y2.8526 Z-2.8526
G01 X29.2990 Y2.8730 Z-2.8730
G01 X29.2738 Y2.8936 Z-2.8936
G01 X29.2485 Y2.9146 Z-2.9146
G01 X29.2229 Y2.9359 Z-2.9359
G01 X29.1972 Y2.9576 Z-2.9576
G01 X29.1713 Y2.9796 Z-2.9796
G01 X29.1452 Y3.0020 Z-3.0020
G01 X29.1189 Y3.0248 Z-3.0248
G01 X29.0924 Y3.0479 Z-3.0479
G01 X29.0657 Y3.0714 Z-3.0714
G01 X29.0388 Y3.0953 Z-3.0953
G01 X29.0117 Y3.1197 Z-3.1197
G01 X28.9844 Y3.1444 Z-3.1444
G01 X28.9568 Y3.1695 Z-3.1695
G01 X28.9290 Y3.1951 Z-3.1951
G01 X28.9011 Y3.2211 Z-3.2211
G01 X28.8728 Y3.2475 Z-3.2475
G01 X28.8444 Y3.2744 Z-3.2744
G01 X28.8157 Y3.3017 Z-3.3017
G01 X28.7867 Y3.3295 Z-3.3295
G01 X28.7576 Y3.3578 Z-3.3578
G01 X28.7281 Y3.3866 Z-3.3866
G01 X28.6985 Y3.4159 Z-3.4159
G01 X28.6685 Y3.4457 Z-3.4457
G01 X28.6185 Y3.4957 Z-3.4957
G01 X28.5186 Y3.5957 Z-3.5957
G01 X28.4186 Y3.6956 Z-3.6956
G01 X28.3187 Y3.7956 Z-3.7956
G01 X28.2188 Y3.8955 Z-3.8955
G01 X28.1188 Y3.9954 Z-3.9954
G01 X28.0189 Y4.0954 Z-4.0954
G01 X27.9189 Y4.1953 Z-4.1953
G01 X27.8190 Y4.2953 Z-4.2953
G01 X27.7190 Y4.3952 Z-4.3952
G01 X27.6191 Y4.4952 Z-4.4952
G01 X27.5191 Y4.5951 Z-4.5951
G01 X27.4192 Y4.6951 Z-4.6951
G01 X27.3192 Y4.7950 Z-4.7950
G01 X27.2193 Y4.8950 Z-4.8950
G01 X27.1193 Y4.9949 Z-4.9949
G01 X27.0194 Y5.0949 Z-5.0949
G01 X26.9195 Y5.1948 Z-5.1948
G01 X26.8195 Y5.2948 Z-5.2948
G01 X26.7196 Y5.3947 Z-5.3947
G01 X26.6196 Y5.4946 Z-5.4946
G01 X26.5197 Y5.5946 Z-5.5946
G01 X26.4197 Y5.6945 Z-5.6945
G01 X26.3198 Y5.7945 Z-5.7945
G01 X26.2198 Y5.8944 Z-5.8944
G01 X26.1199 Y5.9944 Z-5.9944
G01 X26.0199 Y6.0943 Z-6.0943
G01 X25.9200 Y6.1943 Z-6.1943
G01 X25.8200 Y6.2942 Z-6.2942
G01 X25.7643 Y6.3942 Z-6.3500
G01 Y6.4941
G01 Y6.5941
G01 Y6.6940
G01 Y6.7940
G01 Y6.8939
G01 Y6.9938
G01 Y7.0938
G01 Y7.1937
G01 Y7.2937
G01 Y7.3936
G01 Y7.4936
G01 Y7.5935
G01 Y7.6935
G01 Y7.7934
G01 Y7.8934
G01 Y7.9933
G01 Y8.0933
G01 Y8.1932
G01 Y8.2931
G01 Y8.3931
G01 Y8.4930
G01 Y8.5930
G01 Y8.6929
G01 Y8.7929
G01 Y8.8928
G01 Y8.9928
G01 Y9.0927
G01 Y9.1927
G01 Y9.2926
G01 Y9.3926
G01 Y9.4925
G01 Y9.5925
G01 Y9.6924
G01 Y9.7923
G01 Y9.8923
G01 Y9.9922
G01 Y10.0922
G01 Y10.1921
G01 Y10.2921
G01 Y10.3920
G01 Y10.4920
G01 Y10.5919
G01 Y10.6919
G01 Y10.7918
G01 Y10.8918
G01 Y10.9917
G01 Y11.0917
G01 Y11.1916
G01 Y11.2915
G01 Y11.3915
G01 Y11.4914
G01 Y11.5914
G01 Y11.6913
G01 Y11.7913
G01 Y11.8912
G01 Y11.9912
G01 Y12.0911
G01 Y12.1911
G01 Y12.2910
G01 Y12.3910
G01 Y12.4909
G01 Y12.5908
G01 Y12.6908
G01 Y12.7907
G01 Y12.8907
G01 Y12.9906
G01 Y13.0906
G01 Y13.1905
G01 Y13.2905
G01 Y13.3904
G01 Y13.4904
G01 Y13.5903
G01 Y13.6903
G01 Y13.7902
G01 Y13.8902
G01 Y13.9901
G01 Y14.0900
G01 Y14.1900
G01 Y14.2899
G01 Y14.3899
G01 Y14.4898
G01 Y14.5898
G01 Y14.6897
G01 Y14.7897
G01 Y14.8896
G01 Y14.9896
G01 Y15.0895
G01 Y15.1895
G01 Y15.2894
G01 Y15.3893
G01 Y15.4893
G01 Y15.5892
G01 Y15.6892
G01 Y15.7891
G01 Y15.8891
G01 Y15.9890
G01 Y16.0890
G01 Y16.1889
G01 Y16.2889
G01 Y16.3888
G01 Y16.4888
G01 Y16.5887
G01 Y16.6887
G01 Y16.7886
G01 Y16.8885
G01 Y16.9885
G01 Y17.0884
G01 Y17.1884
G01 Y17.2883
G01 Y17.3883
G01 Y17.4882
G01 Y17.5882
G01 Y17.6881
G01 Y17.7881
G01 Y17.8880
G01 Y17.9880
G01 Y18.0879
G01 Y18.1879
G01 Y18.2878
G01 Y18.3877
G01 Y18.4877
G01 Y18.5876
G01 Y18.6876
G01 Y18.7875
G01 Y18.8875
G01 Y18.9874
G01 Y19.0874
G01 Y19.1873
G01 Y19.2873
G01 Y19.3872
G01 Y19.4872
G01 Y19.5871
G01 Y19.6870
G01 Y19.7870
G01 Y19.8869
G01 Y19.9869
G01 Y20.0868
G01 Y20.1868
G01 Y20.2867
G01 Y20.3867
G01 Y20.4866
G01 Y20.5866
G01 Y20.6865
G01 Y20.7865
G01 Y20.8864
G01 Y20.9864
G01 Y21.0863
G01 Y21.1862
G01 Y21.2862
G01 Y21.3861
G01 Y21.4861
G01 Y21.5860
G01 Y21.6860
G01 Y21.7859
G01 Y21.8859
G01 Y21.9858
G01 Y22.0858
G01 Y22.1857
G01 Y22.2857
G01 Y22.3856
G01 Y22.4856
G01 Y22.5855
G01 Y22.6854
G01 Y22.7854
G01 Y22.8853
G01 Y22.9853
G01 Y23.0852
G01 Y23.1852
G01 Y23.2851
G01 Y23.3851
G01 Y23.4850
G01 Y23.5850
G01 Y23.6849
G01 Y23.7849
G01 Y23.8848
G01 Y23.9847
G01 Y24.0847
G01 Y24.1846
G01 Y24.2846
G01 Y24.3845
G01 Y24.4845
G01 Y24.5844
G01 Y24.6844
G01 Y24.7843
G01 Y24.8843
G01 Y24.9842
G01 Y25.0842
G01 Y25.1841
G01 Y25.2841
G01 Y25.3840
G01 Y25.4839
G01 Y25.5839
G01 Y25.6838
G01 Y25.7838
G01 Y25.8837
G01 Y25.9837
G01 Y26.0836
G01 Y26.1836
G01 Y26.2835
G01 Y26.3835
G01 Y26.4834
G01 Y26.5834
G01 Y26.6833
G01 Y26.7833
G01 Y26.8832
G01 Y26.9831
G01 Y27.0831
G01 Y27.1830
G01 Y27.2830
G01 Y27.3829
G01 Y27.4829
G01 Y27.5828
G01 Y27.6828
G01 Y27.7827
G01 Y27.8827
G01 Y27.9826
G01 Y28.0826
G01 Y28.1825
G01 Y28.2824
G01 Y28.3824
G01 Y28.4823
G01 Y28.5823
G01 Y28.6822
G01 Y28.7822
G01 Y28.8821
G01 Y28.9821
G01 Y29.0820
G01 Y29.1820
G01 Y29.2819
G01 Y29.3819
G01 Y29.4818
G01 Y29.5818
G01 Y29.6817
G01 Y29.7816
G01 Y29.8816
G01 Y29.9815
G01 Y30.0815
G01 Y30.1814
G01 Y30.2814
G01 Y30.3813
G01 Y30.4813
G01 Y30.5812
G01 Y30.6812
G01 Y30.7811
G01 Y30.8811
G01 Y30.9810
G01 Y31.0810
G01 Y31.1809
G01 Y31.2808
G01 Y31.3808
G01 Y31.4807
G01 Y31.5807
G01 Y31.6806
G01 Y31.7806
G01 Y31.8805
G01 Y31.9805
G01 Y32.0804
G01 Y32.1804
G01 Y32.2803
G01 Y32.3803
G01 Y32.4802
G01 Y32.5801
G01 Y32.6801
G01 Y32.7800
G01 Y32.8800
G01 Y32.9799
G01 Y33.0799
G01 Y33.1798
G01 Y33.2798
G01 Y33.3797
G01 Y33.4797
G01 Y33.5796
G01 Y33.6796
G01 Y33.7795
G01 Y33.8795
G01 Y33.9794
G01 Y34.0793
G01 Y34.1793
G01 Y34.2792
G01 Y34.3792
G01 Y34.4791
G01 Y34.5791
G01 Y34.6790
G01 Y34.7790
G01 Y34.8789
G01 Y34.9789
G01 Y35.0788
G01 Y35.1788
G01 Y35.2787
G01 Y35.3786
G01 Y35.4786
G01 Y35.5785
G01 Y35.6785
G01 Y35.7784
G01 Y35.8784
G01 Y35.9783
G01 Y36.0783
G01 Y36.1782
G01 Y36.2782
G01 Y36.3781
G01 Y36.4781
G01 Y36.5780
G01 Y36.6780
G01 Y36.7779
G01 Y36.8778
G01 Y36.9778
G01 Y37.0777
G01 Y37.1777
G01 Y37.2776
G01 Y37.3776
G01 Y37.4775
G01 Y37.5775
G01 Y37.6774
G01 Y37.7774
G01 Y37.8773
G01 Y37.9773
G01 Y38.0772
G01 Y38.1772
G01 Y38.2771
G01 Y38.3770
G01 Y38.4770
G01 Y38.5769
G01 Y38.6769
G01 Y38.7768
G01 Y38.8768
G01 Y38.9767
G01 Y39.0767
G01 Y39.1766
G01 Y39.2766
G01 Y39.3765
G01 Y39.4765
G01 Y39.5764
G01 Y39.6763
G01 Y39.7763
G01 Y39.8762
G01 Y39.9762
G01 Y40.0761
G01 Y40.1761
G01 Y40.2760
G01 Y40.3760
G01 Y40.4759
G01 Y40.5759
G01 Y40.6758
G01 Y40.7758
G01 Y40.8757
G01 Y40.9757
G01 Y41.0756
G01 Y41.1755
G01 Y41.2755
G01 Y41.3754
G01 Y41.4754
G01 Y41.5753
G01 Y41.6753
G01 Y41.7752
G01 Y41.8752
G01 Y41.9751
G01 Y42.0751
G01 Y42.1750
G01 Y42.2750
G01 Y42.3749
G01 Y42.4749
G01 Y42.5748
G01 Y42.6747
G01 Y42.7747
G01 Y42.8746
G01 Y42.9746
G01 Y43.0745
G01 Y43.1745
G01 Y43.2744
G01 Y43.3744
G01 Y43.4743
G01 Y43.5743
G01 Y43.6742
G01 Y43.7742
G01 Y43.8741
G01 Y43.9740
G01 Y44.0740
G01 Y44.1739
G01 Y44.2739
G01 Y44.3738
G01 Y44.4738
G01 Y44.5737
G01 Y44.6737
G01 Y44.7736
G01 Y44.8736
G01 Y44.9735
G01 Y45.0735
G01 Y45.1734
G01 Y45.2734
G01 Y45.3733
G01 Y45.4732
G01 Y45.5732
G01 Y45.6731
G01 Y45.7731
G01 Y45.8730
G01 Y45.9730
G01 Y46.0729
G01 Y46.1729
G01 Y46.2728
G01 Y46.3728
G01 Y46.4727
G01 Y46.5727
G01 Y46.6726
G01 Y46.7726
G01 Y46.8725
G01 Y46.9724
G01 Y47.0724
G01 Y47.1723
G01 Y47.2723
G01 Y47.3722
G01 Y47.4722
G01 Y47.5721
G01 Y47.6721
G01 Y47.7720
G01 Y47.8720
G01 Y47.9719
G01 Y48.0719
G01 Y48.1718
G01 Y48.2717
G01 Y48.3717
G01 Y48.4716
G01 Y48.5716
G01 Y48.6715
G01 Y48.7715
G01 Y48.8714
G01 Y48.9714
G01 Y49.0713
G01 Y49.1713
G01 Y49.2712
G01 Y49.3712
G01 Y49.4711
G01 Y49.5711
G01 Y49.6710
G01 Y49.7709
G01 Y49.8709
G01 Y49.9708
G01 Y50.0708
G01 Y50.1707
G01 Y50.2707
G01 Y50.3706
G01 Y50.4706
G01 Y50.5705
G01 Y50.6705
G01 Y50.7704
G01 Y50.8704
G01 Y50.9703
G01 Y51.0703
G01 Y51.1702
G01 Y51.2701
G01 Y51.3701
G01 Y51.4700
G01 Y51.5700
G01 Y51.6699
G01 Y51.7699
G01 Y51.8698
G01 Y51.9698
G01 Y52.0697
G01 Y52.1697
G01 Y52.2696
G01 Y52.3696
G01 Y52.4695
G01 Y52.5694
G01 Y52.6694
G01 Y52.7693
G01 Y52.8693
G01 Y52.9692
G01 Y53.0692
G01 Y53.1691
G01 Y53.2691
G01 Y53.3690
G01 Y53.4690
G01 Y53.5689
G01 Y53.6689
G01 Y53.7688
G01 Y53.8688
G01 Y53.9687
G01 Y54.0686
G01 Y54.1686
G01 Y54.2685
G01 Y54.3685
G01 Y54.4684
G01 Y54.5684
G01 Y54.6683
G01 Y54.7683
G01 Y54.8682
G01 Y54.9682
G01 Y55.0681
G01 Y55.1681
G01 Y55.2680
G01 Y55.3679
G01 Y55.4679
G01 Y55.5678
G01 Y55.6678
G01 Y55.7677
G01 Y55.8677
G01 Y55.9676
G01 Y56.0676
G01 Y56.1675
G01 Y56.2675
G01 Y56.3674
G01 Y56.4674
G01 Y56.5673
G01 Y56.6673
G01 Y56.7672
G01 Y56.8671
G01 Y56.9671
G01 Y57.0670
G01 Y57.1670
G01 Y57.2669
G01 Y57.3669
G01 Y57.4668
G01 Y57.5668
G01 Y57.6667
G01 Y57.7667
G01 Y57.8666
G01 Y57.9666
G01 Y58.0665
G01 Y58.1665
G01 Y58.2664
G01 Y58.3663
G01 Y58.4663
G01 Y58.5662
G01 Y58.6662
G01 Y58.7661
G01 Y58.8661
G01 Y58.9660
G01 Y59.0660
G01 Y59.1659
G01 Y59.2659
G01 Y59.3658
G01 Y59.4658
G01 Y59.5657
G01 Y59.6656
G01 Y59.7656
G01 Y59.8655
G01 Y59.9655
G01 Y60.0654
G01 Y60.1654
G01 Y60.2653
G01 Y60.3653
G01 Y60.4652
G01 Y60.5652
G01 Y60.6651
G01 Y60.7651
G01 Y60.8650
G01 Y60.9650
G01 Y61.0649
G01 Y61.1648
G01 Y61.2648
G01 Y61.3647
G01 Y61.4647
G01 Y61.5646
G01 Y61.6646
G01 Y61.7645
G01 Y61.8645
G01 Y61.9644
G01 Y62.0644
G01 Y62.1643
G01 Y62.2643
G01 Y62.3642
G01 Y62.4642
G01 Y62.5641
G01 Y62.6640
G01 Y62.7640
G01 Y62.8639
G01 Y62.9639
G01 Y63.0638
G01 Y63.1638
G01 Y63.2637
G01 Y63.3637
G01 Y63.4636
G01 Y63.5636
G01 Y63.6635
G01 Y63.7635
G01 Y63.8634
G01 Y63.9633
G01 Y64.0633
G01 Y64.1632
G01 Y64.2632
G01 Y64.3631
G01 Y64.4631
G01 Y64.5630
G01 Y64.6630
G01 Y64.7629
G01 Y64.8629
G01 Y64.9628
G01 Y65.0628
G01 Y65.1627
G01 Y65.2627
G01 Y65.3626
G01 Y65.4625
G01 Y65.5625
G01 Y65.6624
G01 Y65.7624
G01 Y65.8623
G01 Y65.9623
G01 Y66.0622
G01 Y66.1622
G01 Y66.2621
G01 Y66.3621
G01 Y66.4620
G01 Y66.5620
G01 Y66.6619
G01 Y66.7619
G01 Y66.8618
G01 Y66.9617
G01 Y67.0617
G01 Y67.1616
G01 Y67.2616
G01 Y67.3615
G01 Y67.4615
G01 Y67.5614
G01 Y67.6614
G01 Y67.7613
G01 Y67.8613
G01 Y67.9612
G01 Y68.0612
G01 Y68.1611
G01 Y68.2610
G01 Y68.3610
G01 Y68.4609
G01 Y68.5609
G01 Y68.6608
G01 Y68.7608
G01 Y68.8607
G01 Y68.9607
G01 Y69.0606
G01 Y69.1606
G01 Y69.2605
G01 Y69.3605
G01 Y69.4604
G01 Y69.5604
G01 Y69.6603
G01 Y69.7602
G01 Y69.8602
G01 Y69.9601
G01 Y70.0601
G01 Y70.1600
G01 Y70.2600
G01 Y70.3599
G01 Y70.4599
G01 Y70.5598
G01 Y70.6598
G01 Y70.7597
G01 Y70.8597
G01 Y70.9596
G01 Y71.0596
G01 Y71.1595
G01 Y71.2594
G01 Y71.3594
G01 Y71.4593
G01 Y71.5593
G01 Y71.6592
G01 Y71.7592
G01 Y71.8591
G01 Y71.9591
G01 Y72.0590
G01 Y72.1590
G01 Y72.2589
G01 Y72.3589
G01 Y72.4588
G01 Y72.5587
G01 Y72.6587
G01 Y72.7586
G01 Y72.8586
G01 Y72.9585
G01 Y73.0585
G01 Y73.1584
G01 Y73.2584
G01 Y73.3583
G01 Y73.4583
G01 Y73.5582
G01 Y73.6582
G01 Y73.7581
G01 Y73.8581
G01 Y73.9580
G01 Y74.0579
G01 Y74.1579
G01 Y74.2578
G01 Y74.3578
G01 Y74.4577
G01 Y74.5577
G01 Y74.6576
G01 Y74.7576
G01 Y74.8575
G01 Y74.9575
G01 Y75.0574
G01 Y75.1574
G01 Y75.2573
G01 Y75.3572
G01 Y75.4572
G01 Y75.5571
G01 Y75.6571
G01 Y75.7570
G01 Y75.8570
G01 Y75.9569
G01 Y76.0569
G01 Y76.1568
G01 Y76.2568
G01 Y76.3567
G01 Y76.4567
G01 Y76.5566
G01 Y76.6566
G01 Y76.7565
G01 Y76.8564
G01 Y76.9564
G01 Y77.0563
G01 Y77.1563
G01 Y77.2562
G01 Y77.3562
G01 Y77.4561
G01 Y77.5561
G01 Y77.6560
G01 Y77.7560
G01 Y77.8559
G01 Y77.9559
G01 Y78.0558
G01 Y78.1558
G01 Y78.2557
G01 Y78.3556
G01 Y78.4556
G01 Y78.5555
G01 Y78.6555
G01 Y78.7554
G01 Y78.8554
G01 Y78.9553
G01 Y79.0553
G01 Y79.1552
G01 Y79.2552
G01 Y79.3551
G01 Y79.4551
G01 Y79.5550
G01 Y79.6549
G01 Y79.7549
G01 Y79.8548
G01 Y79.9548
G01 Y80.0547
G01 Y80.1547
G01 Y80.2546
G01 Y80.3546
G01 Y80.4545
G01 Y80.5545
G01 Y80.6544
G01 Y80.7544
G01 Y80.8543
G01 Y80.9543
G01 Y81.0542
G01 Y81.1541
G01 Y81.2541
G01 Y81.3540
G01 Y81.4540
G01 Y81.5539
G01 Y81.6539
G01 Y81.7538
G01 Y81.8538
G01 Y81.9537
G01 X25.7988 Y82.0537 Z-6.3154
G01 X25.9832 Y82.2536 Z-6.1310
G01 X26.1676 Y82.4535 Z-5.9466
G01 X26.3520 Y82.6533 Z-5.7622
G01 X26.5364 Y82.8532 Z-5.5778
G01 X26.7208 Y83.0531 Z-5.3935
G01 X26.9052 Y83.2530 Z-5.2091
G01 X27.0896 Y83.4529 Z-5.0247
G01 X27.2740 Y83.6528 Z-4.8403
G01 X27.4584 Y83.8527 Z-4.6559
G01 X27.6428 Y84.0526 Z-4.4715
G01 X27.8272 Y84.2525 Z-4.2871
G01 X28.0115 Y84.4524 Z-4.1027
G01 X28.1959 Y84.6523 Z-3.9183
G01 X28.3803 Y84.8522 Z-3.7339
G01 X28.5647 Y85.0521 Z-3.5495
G01 X28.7491 Y85.2520 Z-3.3651
G01 X28.9335 Y85.4518 Z-3.1808
G01 X29.1179 Y85.6517 Z-2.9964
G01 X29.3023 Y85.8516 Z-2.8120
G01 X29.4867 Y86.0515 Z-2.6276
G01 X29.6711 Y86.2514 Z-2.4432
G01 X29.8555 Y86.4513 Z-2.2588
G01 X30.0399 Y86.6512 Z-2.0744
G01 X30.2242 Y86.8511 Z-1.8900
G01 X30.4086 Y87.0510 Z-1.7056
G01 X30.5930 Y87.2509 Z-1.5212
G01 X30.7774 Y87.4508 Z-1.3368
G01 X30.9618 Y87.6507 Z-1.1524
G01 X31.1462 Y87.8506 Z-0.9681
G01 X31.3306 Y88.0505 Z-0.7837
G01 X31.5150 Y88.2503 Z-0.5993
G01 X31.6994 Y88.4502 Z-0.4149
G01 X31.7916 Y88.5502 Z-0.3227
G01 X31.8838 Y88.6501 Z-0.2305
G01 X31.9760 Y88.7501 Z-0.1383
G01 X32.0682 Y88.8500 Z-0.0461
G01 X32.1143 Y88.9000 Z0.0000
G01 X32.0682 Y88.8500 Z-0.0461
G01 X31.9760 Y88.7501 Z-0.1383
G01 X31.8838 Y88.6502 Z-0.2304
G01 X31.7916 Y88.5503 Z-0.3226
G01 X31.6995 Y88.4503 Z-0.4148
G01 X31.6073 Y88.3504 Z-0.5070
G01 X31.5151 Y88.2505 Z-0.5991
G01 X31.4229 Y88.1506 Z-0.6913
G01 X31.3308 Y88.0506 Z-0.7835
G01 X31.2386 Y87.9507 Z-0.8757
G01 X31.1464 Y87.8508 Z-0.9678
G01 X31.0542 Y87.7509 Z-1.0600
G01 X30.9621 Y87.6510 Z-1.1522
G01 X30.8699 Y87.5510 Z-1.2444
G01 X30.7777 Y87.4511 Z-1.3365
G01 X30.6855 Y87.3512 Z-1.4287
G01 X30.5934 Y87.2513 Z-1.5209
G01 X30.5012 Y87.1513 Z-1.6131
G01 X30.4090 Y87.0514 Z-1.7052
G01 X30.3168 Y86.9515 Z-1.7974
G01 X30.2247 Y86.8516 Z-1.8896
G01 X30.1325 Y86.7516 Z-1.9818
G01 X30.0403 Y86.6517 Z-2.0739
G01 X29.9481 Y86.5518 Z-2.1661
G01 X29.8560 Y86.4519 Z-2.2583
G01 X29.7638 Y86.3519 Z-2.3505
G01 X29.6716 Y86.2520 Z-2.4426
G01 X29.5794 Y86.1521 Z-2.5348
G01 X29.4873 Y86.0522 Z-2.6270
G01 X29.3951 Y85.9522 Z-2.7192
G01 X29.3029 Y85.8523 Z-2.8113
G01 X29.2107 Y85.7524 Z-2.9035
G01 X29.1186 Y85.6525 Z-2.9957
G01 X29.0264 Y85.5525 Z-3.0879
G01 X28.9342 Y85.4526 Z-3.1800
G01 X28.8420 Y85.3527 Z-3.2722
G01 X28.7499 Y85.2528 Z-3.3644
G01 X28.6577 Y85.1528 Z-3.4566
G01 X28.5655 Y85.0529 Z-3.5487
G01 X28.4733 Y84.9530 Z-3.6409
G01 X28.3812 Y84.8531 Z-3.7331
G01 X28.2890 Y84.7532 Z-3.8253
G01 X28.1968 Y84.6532 Z-3.9174
G01 X28.1046 Y84.5533 Z-4.0096
G01 X28.0125 Y84.4534 Z-4.1018
G01 X27.9203 Y84.3535 Z-4.1940
G01 X27.8281 Y84.2535 Z-4.2861
G01 X27.7359 Y84.1536 Z-4.3783
G01 X27.6438 Y84.0537 Z-4.4705
G01 X27.5516 Y83.9538 Z-4.5627
G01 X27.4594 Y83.8538 Z-4.6548
G01 X27.3672 Y83.7539 Z-4.7470
G01 X27.2751 Y83.6540 Z-4.8392
G01 X27.1829 Y83.5541 Z-4.9314
G01 X27.0907 Y83.4541 Z-5.0235
G01 X26.9985 Y83.3542 Z-5.1157
G01 X26.9064 Y83.2543 Z-5.2079
G01 X26.8142 Y83.1544 Z-5.3001
G01 X26.7220 Y83.0544 Z-5.3922
G01 X26.6298 Y82.9545 Z-5.4844
G01 X26.5377 Y82.8546 Z-5.5766
G01 X26.4455 Y82.7547 Z-5.6688
G01 X26.3533 Y82.6547 Z-5.7609
G01 X26.2611 Y82.5548 Z-5.8531
G01 X26.1690 Y82.4549 Z-5.9453
G01 X26.0768 Y82.3550 Z-6.0375
G01 X25.9846 Y82.2551 Z-6.1296
G01 X25.8924 Y82.1551 Z-6.2218
G01 X25.8003 Y82.0552 Z-6.3140
G01 X25.7036 Y82.0113 Z-6.3500
G01 X25.6040 Y82.0032
G01 X25.5044 Y81.9952
G01 X25.4048 Y81.9871
G01 X25.3052 Y81.9791
G01 X25.2056 Y81.9710
G01 X25.1060 Y81.9630
G01 X25.0064 Y81.9549
G01 X24.9068 Y81.9469
G01 X24.8072 Y81.9388
G01 X24.7076 Y81.9308
G01 X24.6080 Y81.9227
G01 X24.5084 Y81.9147
G01 X24.4088 Y81.9066
G01 X24.3092 Y81.8986
G01 X24.2096 Y81.8905
G01 X24.1100 Y81.8825
G01 X24.0104 Y81.8744
G01 X23.9108 Y81.8664
G01 X23.8112 Y81.8583
G01 X23.7116 Y81.8503
G01 X23.6120 Y81.8422
G01 X23.5124 Y81.8342
G01 X23.4128 Y81.8262
G00 Z5.0000
G00 X25.5642 Y6.3500
G01 Z-3.1750
G01 X25.4642
G01 X25.3643
G01 X25.2643
G01 X25.1644
G01 X25.0644
G01 X24.9645
G01 X24.8645
G01 X24.7646
G01 X24.6646
G01 X24.5647
G01 X24.4647
G01 X24.3648
G01 X24.2648
G01 X24.1649
G01 X24.0649
G01 X23.9650
G01 X23.8650
G01 X23.7651
G01 X23.6651
G01 X23.5652 Y6.3365 Z-3.1683
G01 X23.4652 Y6.2366 Z-3.1183
G01 X23.3653 Y6.1366 Z-3.0683
G01 X23.2653 Y6.0367 Z-3.0183
G01 X23.1654 Y5.9367 Z-2.9684
G01 X23.0655 Y5.8368 Z-2.9184
G01 X22.9655 Y5.7368 Z-2.8684
G01 X22.8656 Y5.6369 Z-2.8184
G01 X22.7656 Y5.5369 Z-2.7685
G01 X22.6657 Y5.4370 Z-2.7185
G01 X22.5657 Y5.3370 Z-2.6685
G01 X22.4658 Y5.2371 Z-2.6185
G01 X22.3658 Y5.1371 Z-2.5686
G01 X22.2659 Y5.0372 Z-2.5186
G01 X22.1659 Y4.9372 Z-2.4686
G01 X22.0660 Y4.8373 Z-2.4186
G01 X21.9660 Y4.7373 Z-2.3687
G01 X21.8661 Y4.6374 Z-2.3187
G01 X21.7661 Y4.5374 Z-2.2687
G01 X21.6662 Y4.4375 Z-2.2188
G01 X21.5662 Y4.3376 Z-2.1688
G01 X21.4663 Y4.2376 Z-2.1188
G01 X21.3663 Y4.1377 Z-2.0688
G01 X21.2664 Y4.0377 Z-2.0189
G01 X21.1664 Y3.9378 Z-1.9689
G01 X21.0665 Y3.8378 Z-1.9189
G01 X20.9665 Y3.7379 Z-1.8689
G01 X20.8666 Y3.6379 Z-1.8190
G01 X20.7666 Y3.5380 Z-1.7690
G01 X20.6667 Y3.4380 Z-1.7190
G01 X20.5667 Y3.3398 Z-1.6699
G01 X20.4668 Y3.2444 Z-1.6222
G01 X20.3669 Y3.1519 Z-1.5760
G01 X20.2669 Y3.0623 Z-1.5312
G01 X20.1670 Y2.9756 Z-1.4878
G01 X20.0670 Y2.8919 Z-1.4459
G01 X19.9671 Y2.8110 Z-1.4055
G01 X19.8671 Y2.7330 Z-1.3665
G01 X19.7672 Y2.6579 Z-1.3290
G01 X19.6672 Y2.5857 Z-1.2929
G01 X19.5673 Y2.5165 Z-1.2582
G01 X19.4673 Y2.4501 Z-1.2250
G01 X19.3674 Y2.3866 Z-1.1933
G01 X19.2674 Y2.3260 Z-1.1630
G01 X19.1675 Y2.2683 Z-1.1342
G01 X19.0675 Y2.2135 Z-1.1068
G01 X18.9676 Y2.1616 Z-1.0808
G01 X18.8676 Y2.1127 Z-1.0563
G01 X18.7677 Y2.0666 Z-1.0333
G01 X18.6677 Y2.0234 Z-1.0117
G01 X18.5678 Y1.9831 Z-0.9915
G01 X18.4678 Y1.9457 Z-0.9728
G01 X18.3679 Y1.9112 Z-0.9556
G01 X18.2679 Y1.8796 Z-0.9398
G01 X18.1680 Y1.8509 Z-0.9255
G01 X18.0680 Y1.8251 Z-0.9126
G01 X17.9681 Y1.8022 Z-0.9011
G01 X17.8681 Y1.7822 Z-0.8911
G01 X17.7682 Y1.7651 Z-0.8826
G01 X17.6682 Y1.7509 Z-0.8755
G01 X17.5683 Y1.7396 Z-0.8698
G01 X17.4684 Y1.7312 Z-0.8656
G01 X17.3684 Y1.7257 Z-0.8629
G01 X17.2685 Y1.7231 Z-0.8616
G01 X17.1685 Y1.7229 Z-0.8614
G01 X17.0686
G01 X16.9686
G01 X16.8687
G01 X16.7687
G01 X16.6688
G01 X16.5688
G01 X16.4689
G01 X16.3689
G01 X16.2690
G01 X16.1690
G01 X16.0691
G01 X15.9691
G01 X15.8692
G01 X15.7692
G01 X15.6693
G01 X15.5693
G01 X15.4694
G01 X15.3694
G01 X15.2695
G01 X15.1695
G01 X15.0696
G01 X14.9696
G01 X14.8697
G01 X14.7698
G01 X14.6698
G01 X14.5699
G01 X14.4699
G01 X14.3700
G01 X14.2700
G01 X14.1701
G01 X14.0701
G01 X13.9702
G01 X13.8702
G01 X13.7703
G01 X13.6703
G01 X13.5704
G01 X13.4704
G01 X13.3705
G01 X13.2705
G01 X13.1706
G01 X13.0706
G01 X12.9707
G01 X12.8707
G01 X12.7708
G01 X12.6708
G01 X12.5709
G01 X12.4709
G01 X12.3710
G01 X12.2710
G01 X12.1711
G01 X12.0711
G01 X11.9712
G01 X11.8713
G01 X11.7713
G01 X11.6714
G01 X11.5714
G01 X11.4715
G01 X11.3715
G01 X11.2716
G01 X11.1716
G01 X11.0717
G01 X10.9717
G01 X10.8718
G01 X10.7718
G01 X10.6719
G01 X10.5719
G01 X10.4720
G01 X10.3720
G01 X10.2721
G01 X10.1721
G01 X10.0722
G01 X9.9722
G01 X9.8723
G01 X9.7723
G01 X9.6724
G01 X9.5724
G01 X9.4725
G01 X9.3725
G01 X9.2726
G01 X9.1727
G01 X9.0727
G01 X8.9728
G01 X8.8728
G01 X8.7729
G01 X8.6729
G01 X8.5730
G01 X8.4730
G01 X8.3731
G01 X8.2731
G01 X8.1732
G01 X8.0732
G01 X7.9733
G01 X7.8733
G01 X7.7734
G01 X7.6734
G01 X7.5735
G01 X7.4735
G01 X7.3736
G01 X7.2736
G01 X7.1737
G01 X7.0737
G01 X6.9738
G01 X6.8738
G01 X6.7739
G01 X6.6739
G01 X6.5740
G01 X6.4740
G01 X6.3741
G01 X6.2742
G01 X6.1742
G01 X6.0743
G01 X5.9743
G01 X5.8744
G01 X5.7744
G01 X5.6745
G01 X5.5745
G01 X5.4746
G01 X5.3746
G01 X5.2747
G01 X5.1747
G01 X5.0748
G01 X4.9748
G01 X4.8749
G01 X4.7749
G01 X4.6750
G01 X4.5750
G01 X4.4751
G01 X4.3751
G01 X4.2752
G01 X4.1752
G01 X4.0753
G01 X3.9753
G01 X3.8754
G01 X3.7754
G01 X3.6755
G01 X3.5756
G01 X3.4756
G01 X3.3757
G01 X3.2757
G01 X3.1758
G01 X3.0758
G01 X2.9759
G01 X2.8759
G01 X2.7760
G01 X2.6760
G01 X2.5761
G01 X2.4761 Y1.6491 Z-0.8246
G01 X2.3762 Y1.5492 Z-0.7746
G01 X2.2762 Y1.4492 Z-0.7246
G01 X2.1763 Y1.3493 Z-0.6747
G01 X2.0763 Y1.2494 Z-0.6247
G01 X1.9764 Y1.1494 Z-0.5747
G01 X1.8764 Y1.0495 Z-0.5247
G01 X1.7765 Y0.9495 Z-0.4748
G01 X1.6765 Y0.8496 Z-0.4248
G01 X1.5766 Y0.7496 Z-0.3748
G01 X1.4766 Y0.6497 Z-0.3248
G01 X1.3767 Y0.5497 Z-0.2749
G01 X1.2767 Y0.4498 Z-0.2249
G01 X1.1768 Y0.3498 Z-0.1749
G01 X1.0768 Y0.2499 Z-0.1249
G01 X0.9769 Y0.1499 Z-0.0750
G01 X0.8770 Y0.0500 Z-0.0250
G01 X0.8270 Y0.0000 Z0.0000
G01 X0.8776 Y0.0507 Z-0.0253
G01 X0.9790 Y0.1520 Z-0.0760
G01 X1.0803 Y0.2534 Z-0.1267
G01 X1.2830 Y0.4561 Z-0.2280
G01 X1.4857 Y0.6587 Z-0.3294
G01 X1.6884 Y0.8614 Z-0.4307
G01 X1.8911 Y1.0641 Z-0.5321
G01 X2.0938 Y1.2668 Z-0.6334
G01 X2.2965 Y1.4695 Z-0.7348
G01 X2.4992 Y1.6722 Z-0.8361
G01 Y1.7735
G01 X2.3978 Y1.8749 Z-0.7854
G01 X2.2965 Y1.9762 Z-0.7348
G01 X2.1951 Y2.0776 Z-0.6841
G01 X2.0938 Y2.1789 Z-0.6334
G01 X1.9924 Y2.2803 Z-0.5827
G01 X1.8911 Y2.3816 Z-0.5321
G01 X1.7898 Y2.4830 Z-0.4814
G01 X1.6884 Y2.5843 Z-0.4307
G01 X1.5871 Y2.6857 Z-0.3800
G01 X1.4857 Y2.7870 Z-0.3294
G01 X1.3844 Y2.8883 Z-0.2787
G01 X1.2830 Y2.9897 Z-0.2280
G01 X1.1817 Y3.0910 Z-0.1774
G01 X1.0803 Y3.1924 Z-0.1267
G01 X0.9790 Y3.2937 Z-0.0760
G01 X0.8776 Y3.3951 Z-0.0253
G01 X0.8270 Y3.4457 Z0.0000
G01 X0.8776 Y3.3951 Z-0.0507
G01 X0.9790 Y3.2937 Z-0.1520
G01 X1.0803 Y3.1924 Z-0.2534
G01 X1.1817 Y3.0910 Z-0.3547
G01 X1.2830 Y2.9897 Z-0.4561
G01 X1.3844 Y2.8883 Z-0.5574
G01 X1.4857 Y2.7870 Z-0.6587
G01 X1.5871 Y2.6857 Z-0.7601
G01 X1.6884 Y2.5843 Z-0.8614
G01 X1.7898 Y2.4830 Z-0.9628
G01 X1.8911 Y2.3816 Z-1.0641
G01 X1.9924 Y2.2803 Z-1.1655
G01 X2.0938 Y2.1789 Z-1.2668
G01 X2.1951 Y2.0776 Z-1.3682
G01 X2.2965 Y1.9762 Z-1.4695
G01 X2.3978 Y1.8749 Z-1.5709
G01 X2.4992 Y1.7735 Z-1.6722
G01 Y1.6722
G01 X2.2965 Y1.4695 Z-1.4695
G01 X2.0938 Y1.2668 Z-1.2668
G01 X1.8911 Y1.0641 Z-1.0641
G01 X1.6884 Y0.8614 Z-0.8614
G01 X1.4857 Y0.6587 Z-0.6587
G01 X1.2830 Y0.4561 Z-0.4561
G01 X1.0803 Y0.2534 Z-0.2534
G01 X0.9790 Y0.1520 Z-0.1520
G01 X0.8776 Y0.0507 Z-0.0507
G01 X0.8270 Y0.0000 Z0.0000
G01 X0.8770 Y0.0500 Z-0.0500
G01 X0.9769 Y0.1499 Z-0.1499
G01 X1.0768 Y0.2499 Z-0.2499
G01 X1.1768 Y0.3498 Z-0.3498
G01 X1.2767 Y0.4498 Z-0.4498
G01 X1.3767 Y0.5497 Z-0.5497
G01 X1.4766 Y0.6497 Z-0.6497
G01 X1.5766 Y0.7496 Z-0.7496
G01 X1.6765 Y0.8496 Z-0.8496
G01 X1.7765 Y0.9495 Z-0.9495
G01 X1.8764 Y1.0495 Z-1.0495
G01 X1.9764 Y1.1494 Z-1.1494
G01 X2.0763 Y1.2494 Z-1.2494
G01 X2.1763 Y1.3493 Z-1.3493
G01 X2.2762 Y1.4492 Z-1.4492
G01 X2.3762 Y1.5492 Z-1.5492
G01 X2.4761 Y1.6491 Z-1.6491
G01 X2.5761 Y1.7229 Z-1.7229
G01 X2.6760
G01 X2.7760
G01 X2.8759
G01 X2.9759
G01 X3.0758
G01 X3.1758
G01 X3.2757
G01 X3.3757
G01 X3.4756
G01 X3.5756
G01 X3.6755
G01 X3.7754
G01 X3.8754
G01 X3.9753
G01 X4.0753
G01 X4.1752
G01 X4.2752
G01 X4.3751
G01 X4.4751
G01 X4.5750
G01 X4.6750
G01 X4.7749
G01 X4.8749
G01 X4.9748
G01 X5.0748
G01 X5.1747
G01 X5.2747
G01 X5.3746
G01 X5.4746
G01 X5.5745
G01 X5.6745
G01 X5.7744
G01 X5.8744
G01 X5.9743
G01 X6.0743
G01 X6.1742
G01 X6.2742
G01 X6.3741
G01 X6.4740
G01 X6.5740
G01 X6.6739
G01 X6.7739
G01 X6.8738
G01 X6.9738
G01 X7.0737
G01 X7.1737
G01 X7.2736
G01 X7.3736
G01 X7.4735
G01 X7.5735
G01 X7.6734
G01 X7.7734
G01 X7.8733
G01 X7.9733
G01 X8.0732
G01 X8.1732
G01 X8.2731
G01 X8.3731
G01 X8.4730
G01 X8.5730
G01 X8.6729
G01 X8.7729
G01 X8.8728
G01 X8.9728
G01 X9.0727
G01 X9.1727
G01 X9.2726
G01 X9.3725
G01 X9.4725
G01 X9.5724
G01 X9.6724
G01 X9.7723
G01 X9.8723
G01 X9.9722
G01 X10.0722
G01 X10.1721
G01 X10.2721
G01 X10.3720
G01 X10.4720
G01 X10.5719
G01 X10.6719
G01 X10.7718
G01 X10.8718
G01 X10.9717
G01 X11.0717
G01 X11.1716
G01 X11.2716
G01 X11.3715
G01 X11.4715
G01 X11.5714
G01 X11.6714
G01 X11.7713
G01 X11.8713
G01 X11.9712
G01 X12.0711
G01 X12.1711
G01 X12.2710
G01 X12.3710
G01 X12.4709
G01 X12.5709
G01 X12.6708
G01 X12.7708
G01 X12.8707
G01 X12.9707
G01 X13.0706
G01 X13.1706
G01 X13.2705
G01 X13.3705
G01 X13.4704
G01 X13.5704
G01 X13.6703
G01 X13.7703
G01 X13.8702
G01 X13.9702
G01 X14.0701
G01 X14.1701
G01 X14.2700
G01 X14.3700
G01 X14.4699
G01 X14.5699
G01 X14.6698
G01 X14.7698
G01 X14.8697
G01 X14.9696
G01 X15.0696
G01 X15.1695
G01 X15.2695
G01 X15.3694
G01 X15.4694
G01 X15.5693
G01 X15.6693
G01 X15.7692
G01 X15.8692
G01 X15.9691
G01 X16.0691
G01 X16.1690
G01 X16.2690
G01 X16.3689
G01 X16.4689
G01 X16.5688
G01 X16.6688
G01 X16.7687
G01 X16.8687
G01 X16.9686
G01 X17.0686
G01 X17.1685
G01 X17.2685 Y1.7231 Z-1.7231
G01 X17.3684 Y1.7257 Z-1.7257
G01 X17.4684 Y1.7312 Z-1.7312
G01 X17.5683 Y1.7396 Z-1.7396
G01 X17.6682 Y1.7509 Z-1.7509
G01 X17.7682 Y1.7651 Z-1.7651
G01 X17.8681 Y1.7822 Z-1.7822
G01 X17.9681 Y1.8022 Z-1.8022
G01 X18.0680 Y1.8251 Z-1.8251
G01 X18.1680 Y1.8509 Z-1.8509
G01 X18.2679 Y1.8796 Z-1.8796
G01 X18.3679 Y1.9112 Z-1.9112
G01 X18.4678 Y1.9457 Z-1.9457
G01 X18.5678 Y1.9831 Z-1.9831
G01 X18.6677 Y2.0234 Z-2.0234
G01 X18.7677 Y2.0666 Z-2.0666
G01 X18.8676 Y2.1127 Z-2.1127
G01 X18.9676 Y2.1616 Z-2.1616
G01 X19.0675 Y2.2135 Z-2.2135
G01 X19.1675 Y2.2683 Z-2.2683
G01 X19.2674 Y2.3260 Z-2.3260
G01 X19.3674 Y2.3866 Z-2.3866
G01 X19.4673 Y2.4501 Z-2.4501
G01 X19.5673 Y2.5165 Z-2.5165
G01 X19.6672 Y2.5857 Z-2.5857
G01 X19.7672 Y2.6579 Z-2.6579
G01 X19.8671 Y2.7330 Z-2.7330
G01 X19.9671 Y2.8110 Z-2.8110
G01 X20.0670 Y2.8919 Z-2.8919
G01 X20.1670 Y2.9756 Z-2.9756
G01 X20.2669 Y3.0623 Z-3.0623
G01 X20.3669 Y3.1519 Z-3.1519
G01 X20.4668 Y3.2444 Z-3.2444
G01 X20.5667 Y3.3398 Z-3.3398
G01 X20.6667 Y3.4380 Z-3.4380
G01 X20.7666 Y3.5380 Z-3.5380
G01 X20.8666 Y3.6379 Z-3.6379
G01 X20.9665 Y3.7379 Z-3.7379
G01 X21.0665 Y3.8378 Z-3.8378
G01 X21.1664 Y3.9378 Z-3.9378
G01 X21.2664 Y4.0377 Z-4.0377
G01 X21.3663 Y4.1377 Z-4.1377
G01 X21.4663 Y4.2376 Z-4.2376
G01 X21.5662 Y4.3376 Z-4.3376
G01 X21.6662 Y4.4375 Z-4.4375
G01 X21.7661 Y4.5374 Z-4.5374
G01 X21.8661 Y4.6374 Z-4.6374
G01 X21.9660 Y4.7373 Z-4.7373
G01 X22.0660 Y4.8373 Z-4.8373
G01 X22.1659 Y4.9372 Z-4.9372
G01 X22.2659 Y5.0372 Z-5.0372
G01 X22.3658 Y5.1371 Z-5.1371
G01 X22.4658 Y5.2371 Z-5.2371
G01 X22.5657 Y5.3370 Z-5.3370
G01 X22.6657 Y5.4370 Z-5.4370
G01 X22.7656 Y5.5369 Z-5.5369
G01 X22.8656 Y5.6369 Z-5.6369
G01 X22.9655 Y5.7368 Z-5.7368
G01 X23.0655 Y5.8368 Z-5.8368
G01 X23.1654 Y5.9367 Z-5.9367
G01 X23.2653 Y6.0367 Z-6.0367
G01 X23.3653 Y6.1366 Z-6.1366
G01 X23.4652 Y6.2366 Z-6.2366
G01 X23.5652 Y6.3365 Z-6.3365
G01 X23.6651 Y6.3500 Z-6.3500
G01 X23.7651
G01 X23.8650
G01 X23.9650
G01 X24.0649
G01 X24.1649
G01 X24.2648
G01 X24.3648
G01 X24.4647
G01 X24.5647
G01 X24.6646
G01 X24.7646
G01 X24.8645
G01 X24.9645
G01 X25.0644
G01 X25.1644
G01 X25.2643
G01 X25.3643
G01 X25.4642
G01 X25.5642
G00 Z5.0000
G00 X0.0000 Y0.0000

M05
M30
