(Project KidWallRuler3)
(Created by Estlcam version 11 build 11.029)
(Machining time about 00:00:37 hours)

(Required tools:)
(1/2" Chamfer)
G21
G90
G94
M03 S24000
G00 Z5.0000


(No. 1: Carve 1)
G00 X43.7081 Y14.3744
G01 Z-3.1750 F1270 S24000
G01 X43.7324 Y14.4706
G01 X43.7567 Y14.5669
G01 X43.7810 Y14.6631
G01 X43.8053 Y14.7594
G01 X43.8296 Y14.8556
G01 X43.8539 Y14.9519
G01 X43.8782 Y15.0481
G01 X43.9497 Y15.3529
G01 X43.9711 Y15.4517
G01 X43.9925 Y15.5504
G01 X44.0140 Y15.6492
G01 X44.0354 Y15.7480
G01 X44.0568 Y15.8468
G01 X44.0783 Y15.9455
G01 X44.0997 Y16.0443
G01 X44.1600 Y16.3456
G01 X44.1786 Y16.4468
G01 X44.1972 Y16.5481
G01 X44.2157 Y16.6494
G01 X44.2343 Y16.7507
G01 X44.2529 Y16.8520
G01 X44.2715 Y16.9533
G01 X44.2900 Y17.0546
G01 X44.3398 Y17.3520
G01 X44.3555 Y17.4558
G01 X44.3712 Y17.5596
G01 X44.3869 Y17.6634
G01 X44.4027 Y17.7672
G01 X44.4184 Y17.8710
G01 X44.4341 Y17.9748
G01 X44.4498 Y18.0787
G01 X44.4890 Y18.3660
G01 X44.5005 Y18.4605
G01 X44.5119 Y18.5551
G01 X44.5233 Y18.6496
G01 X44.5348 Y18.7441
G01 X44.5462 Y18.8386
G01 X44.5576 Y18.9331
G01 X44.5690 Y19.0277
G01 X44.5805 Y19.1222
G01 X44.6099 Y19.3992
G01 X44.6188 Y19.4960
G01 X44.6277 Y19.5927
G01 X44.6366 Y19.6895
G01 X44.6455 Y19.7863
G01 X44.6544 Y19.8830
G01 X44.6633 Y19.9798
G01 X44.6722 Y20.0765
G01 X44.6811 Y20.1733
G01 X44.7023 Y20.4457
G01 X44.7087 Y20.5447
G01 X44.7150 Y20.6437
G01 X44.7214 Y20.7427
G01 X44.7277 Y20.8417
G01 X44.7341 Y20.9407
G01 X44.7404 Y21.0397
G01 X44.7468 Y21.1387
G01 X44.7531 Y21.2377
G01 X44.7667 Y21.5055
G01 X44.7705 Y21.6068
G01 X44.7744 Y21.7080
G01 X44.7782 Y21.8093
G01 X44.7820 Y21.9105
G01 X44.7858 Y22.0118
G01 X44.7896 Y22.1130
G01 X44.7934 Y22.2142
G01 X44.7972 Y22.3155
G01 X44.8038 Y22.5788
G01 X44.8050 Y22.6822
G01 X44.8063 Y22.7857
G01 X44.8076 Y22.8892
G01 X44.8089 Y22.9927
G01 X44.8101 Y23.0962
G01 X44.8114 Y23.1997
G01 X44.8127 Y23.3032
G01 X44.8139 Y23.4066
G01 X44.8140 Y23.6614
G01 X44.8128 Y23.7639
G01 X44.8116 Y23.8664
G01 X44.8104 Y23.9690
G01 X44.8093 Y24.0715
G01 X44.8081 Y24.1740
G01 X44.8069 Y24.2765
G01 X44.8057 Y24.3791
G01 X44.8045 Y24.4816
G01 X44.8033 Y24.5841
G01 X44.8021 Y24.6866
G01 X44.7961 Y24.9415
G01 X44.7925 Y25.0412
G01 X44.7889 Y25.1409
G01 X44.7853 Y25.2406
G01 X44.7818 Y25.3403
G01 X44.7782 Y25.4400
G01 X44.7746 Y25.5398
G01 X44.7710 Y25.6395
G01 X44.7675 Y25.7392
G01 X44.7639 Y25.8389
G01 X44.7603 Y25.9386
G01 X44.7476 Y26.1992
G01 X44.7417 Y26.2961
G01 X44.7357 Y26.3929
G01 X44.7298 Y26.4898
G01 X44.7238 Y26.5867
G01 X44.7178 Y26.6836
G01 X44.7119 Y26.7805
G01 X44.7059 Y26.8774
G01 X44.7000 Y26.9743
G01 X44.6940 Y27.0712
G01 X44.6880 Y27.1681
G01 X44.6676 Y27.4394
G01 X44.6584 Y27.5429
G01 X44.6493 Y27.6464
G01 X44.6401 Y27.7499
G01 X44.6309 Y27.8534
G01 X44.6217 Y27.9569
G01 X44.6125 Y28.0604
G01 X44.6034 Y28.1639
G01 X44.5942 Y28.2674
G01 X44.5850 Y28.3709
G01 X44.5559 Y28.6531
G01 X44.5441 Y28.7535
G01 X44.5323 Y28.8539
G01 X44.5205 Y28.9543
G01 X44.5087 Y29.0547
G01 X44.4969 Y29.1551
G01 X44.4851 Y29.2555
G01 X44.4733 Y29.3559
G01 X44.4615 Y29.4563
G01 X44.4497 Y29.5567
G01 X44.4114 Y29.8454
G01 X44.3969 Y29.9427
G01 X44.3825 Y30.0400
G01 X44.3681 Y30.1373
G01 X44.3537 Y30.2346
G01 X44.3392 Y30.3319
G01 X44.3248 Y30.4292
G01 X44.3104 Y30.5265
G01 X44.2960 Y30.6238
G01 X44.2815 Y30.7211
G01 X44.2330 Y31.0164
G01 X44.2159 Y31.1106
G01 X44.1989 Y31.2048
G01 X44.1818 Y31.2990
G01 X44.1648 Y31.3932
G01 X44.1478 Y31.4875
G01 X44.1307 Y31.5817
G01 X44.1137 Y31.6759
G01 X44.0966 Y31.7701
G01 X44.0796 Y31.8643
G01 X44.0186 Y32.1713
G01 X43.9968 Y32.2725
G01 X43.9749 Y32.3738
G01 X43.9530 Y32.4750
G01 X43.9312 Y32.5763
G01 X43.9093 Y32.6775
G01 X43.8875 Y32.7788
G01 X43.8656 Y32.8800
G01 X43.8438 Y32.9812
G01 X43.7691 Y33.2998
G01 X43.7443 Y33.3976
G01 X43.7196 Y33.4954
G01 X43.6948 Y33.5932
G01 X43.6700 Y33.6910
G01 X43.6453 Y33.7888
G01 X43.6205 Y33.8866
G01 X43.5957 Y33.9844
G01 X43.5709 Y34.0822
G01 X43.4823 Y34.4069
G01 X43.4546 Y34.5012
G01 X43.4269 Y34.5956
G01 X43.3992 Y34.6900
G01 X43.3716 Y34.7843
G01 X43.3439 Y34.8787
G01 X43.3162 Y34.9731
G01 X43.2885 Y35.0674
G01 X43.2608 Y35.1618
G01 X43.1569 Y35.4921
G01 Z-6.3500
G01 X43.2608 Y35.1618
G01 X43.2885 Y35.0674
G01 X43.3162 Y34.9731
G01 X43.3439 Y34.8787
G01 X43.3716 Y34.7843
G01 X43.3992 Y34.6900
G01 X43.4269 Y34.5956
G01 X43.4546 Y34.5012
G01 X43.4823 Y34.4069
G01 X43.5709 Y34.0822
G01 X43.5957 Y33.9844
G01 X43.6205 Y33.8866
G01 X43.6453 Y33.7888
G01 X43.6700 Y33.6910
G01 X43.6948 Y33.5932
G01 X43.7196 Y33.4954
G01 X43.7443 Y33.3976
G01 X43.7691 Y33.2998
G01 X43.8438 Y32.9812
G01 X43.8656 Y32.8800
G01 X43.8875 Y32.7788
G01 X43.9093 Y32.6775
G01 X43.9312 Y32.5763
G01 X43.9530 Y32.4750
G01 X43.9749 Y32.3738
G01 X43.9968 Y32.2725
G01 X44.0186 Y32.1713
G01 X44.0796 Y31.8643
G01 X44.0966 Y31.7701
G01 X44.1137 Y31.6759
G01 X44.1307 Y31.5817
G01 X44.1478 Y31.4875
G01 X44.1648 Y31.3932
G01 X44.1818 Y31.2990
G01 X44.1989 Y31.2048
G01 X44.2159 Y31.1106
G01 X44.2330 Y31.0164
G01 X44.2815 Y30.7211
G01 X44.2960 Y30.6238
G01 X44.3104 Y30.5265
G01 X44.3248 Y30.4292
G01 X44.3392 Y30.3319
G01 X44.3537 Y30.2346
G01 X44.3681 Y30.1373
G01 X44.3825 Y30.0400
G01 X44.3969 Y29.9427
G01 X44.4114 Y29.8454
G01 X44.4497 Y29.5567
G01 X44.4615 Y29.4563
G01 X44.4733 Y29.3559
G01 X44.4851 Y29.2555
G01 X44.4969 Y29.1551
G01 X44.5087 Y29.0547
G01 X44.5205 Y28.9543
G01 X44.5323 Y28.8539
G01 X44.5441 Y28.7535
G01 X44.5559 Y28.6531
G01 X44.5850 Y28.3709
G01 X44.5942 Y28.2674
G01 X44.6034 Y28.1639
G01 X44.6125 Y28.0604
G01 X44.6217 Y27.9569
G01 X44.6309 Y27.8534
G01 X44.6401 Y27.7499
G01 X44.6493 Y27.6464
G01 X44.6584 Y27.5429
G01 X44.6676 Y27.4394
G01 X44.6880 Y27.1681
G01 X44.6940 Y27.0712
G01 X44.7000 Y26.9743
G01 X44.7059 Y26.8774
G01 X44.7119 Y26.7805
G01 X44.7178 Y26.6836
G01 X44.7238 Y26.5867
G01 X44.7298 Y26.4898
G01 X44.7357 Y26.3929
G01 X44.7417 Y26.2961
G01 X44.7476 Y26.1992
G01 X44.7603 Y25.9386
G01 X44.7639 Y25.8389
G01 X44.7675 Y25.7392
G01 X44.7710 Y25.6395
G01 X44.7746 Y25.5398
G01 X44.7782 Y25.4400
G01 X44.7818 Y25.3403
G01 X44.7853 Y25.2406
G01 X44.7889 Y25.1409
G01 X44.7925 Y25.0412
G01 X44.7961 Y24.9415
G01 X44.8021 Y24.6866
G01 X44.8033 Y24.5841
G01 X44.8045 Y24.4816
G01 X44.8057 Y24.3791
G01 X44.8069 Y24.2765
G01 X44.8081 Y24.1740
G01 X44.8093 Y24.0715
G01 X44.8104 Y23.9690
G01 X44.8116 Y23.8664
G01 X44.8128 Y23.7639
G01 X44.8140 Y23.6614
G01 X44.8139 Y23.4066
G01 X44.8127 Y23.3032
G01 X44.8114 Y23.1997
G01 X44.8101 Y23.0962
G01 X44.8089 Y22.9927
G01 X44.8076 Y22.8892
G01 X44.8063 Y22.7857
G01 X44.8050 Y22.6822
G01 X44.8038 Y22.5788
G01 X44.7972 Y22.3155
G01 X44.7934 Y22.2142
G01 X44.7896 Y22.1130
G01 X44.7858 Y22.0118
G01 X44.7820 Y21.9105
G01 X44.7782 Y21.8093
G01 X44.7744 Y21.7080
G01 X44.7705 Y21.6068
G01 X44.7667 Y21.5055
G01 X44.7531 Y21.2377
G01 X44.7468 Y21.1387
G01 X44.7404 Y21.0397
G01 X44.7341 Y20.9407
G01 X44.7277 Y20.8417
G01 X44.7214 Y20.7427
G01 X44.7150 Y20.6437
G01 X44.7087 Y20.5447
G01 X44.7023 Y20.4457
G01 X44.6811 Y20.1733
G01 X44.6722 Y20.0765
G01 X44.6633 Y19.9798
G01 X44.6544 Y19.8830
G01 X44.6455 Y19.7863
G01 X44.6366 Y19.6895
G01 X44.6277 Y19.5927
G01 X44.6188 Y19.4960
G01 X44.6099 Y19.3992
G01 X44.5805 Y19.1222
G01 X44.5690 Y19.0277
G01 X44.5576 Y18.9331
G01 X44.5462 Y18.8386
G01 X44.5348 Y18.7441
G01 X44.5233 Y18.6496
G01 X44.5119 Y18.5551
G01 X44.5005 Y18.4605
G01 X44.4890 Y18.3660
G01 X44.4498 Y18.0787
G01 X44.4341 Y17.9748
G01 X44.4184 Y17.8710
G01 X44.4027 Y17.7672
G01 X44.3869 Y17.6634
G01 X44.3712 Y17.5596
G01 X44.3555 Y17.4558
G01 X44.3398 Y17.3520
G01 X44.2900 Y17.0546
G01 X44.2715 Y16.9533
G01 X44.2529 Y16.8520
G01 X44.2343 Y16.7507
G01 X44.2157 Y16.6494
G01 X44.1972 Y16.5481
G01 X44.1786 Y16.4468
G01 X44.1600 Y16.3456
G01 X44.0997 Y16.0443
G01 X44.0783 Y15.9455
G01 X44.0568 Y15.8468
G01 X44.0354 Y15.7480
G01 X44.0140 Y15.6492
G01 X43.9925 Y15.5504
G01 X43.9711 Y15.4517
G01 X43.9497 Y15.3529
G01 X43.8782 Y15.0481
G01 X43.8539 Y14.9519
G01 X43.8296 Y14.8556
G01 X43.8053 Y14.7594
G01 X43.7810 Y14.6631
G01 X43.7567 Y14.5669
G01 X43.7324 Y14.4706
G01 X43.7081 Y14.3744
G00 Z5.0000
G00 X23.3087 Y47.4869
G01 Z-1.2224
G01 X23.2106 Y47.4855 Z-1.2128
G01 X23.0320 Y47.4816 Z-1.1961
G01 X22.9317 Y47.4786 Z-1.1871
G01 X22.8315 Y47.4771 Z-1.1788
G01 X22.7314 Y47.4761 Z-1.1709
G01 X22.6314 Y47.4752 Z-1.1629
G01 X22.5313 Y47.4743 Z-1.1550
G01 X22.4313 Y47.4733 Z-1.1470
G01 X22.3312 Y47.4724 Z-1.1390
G01 X22.2312 Y47.4714 Z-1.1311
G01 X22.1311 Y47.4705 Z-1.1232
G01 X21.9609 Y47.4706 Z-1.1117
G01 X21.8587 Y47.4701 Z-1.1054
G01 X21.7564 Y47.4696 Z-1.0990
G01 X21.6542 Y47.4691 Z-1.0927
G01 X21.5520 Y47.4686 Z-1.0863
G01 X21.4498 Y47.4681 Z-1.0800
G01 X21.3476 Y47.4676 Z-1.0737
G01 X21.2455 Y47.4685 Z-1.0680
G01 X21.1435 Y47.4699 Z-1.0626
G01 X21.0416 Y47.4714 Z-1.0573
G01 X20.8767 Y47.4725 Z-1.0492
G01 X20.7721 Z-1.0445
G01 X20.6675 Z-1.0397
G01 X20.5629 Y47.4724 Z-1.0350
G01 X20.4584 Y47.4735 Z-1.0308
G01 X20.3540 Y47.4754 Z-1.0270
G01 X20.2496 Y47.4773 Z-1.0232
G01 X20.1452 Y47.4792 Z-1.0195
G01 X20.0408 Y47.4811 Z-1.0157
G01 X19.9364 Y47.4830 Z-1.0119
G01 X19.7796 Y47.4848 Z-1.0068
G01 X19.6823 Y47.4856 Z-1.0041
G01 X19.5849 Y47.4868 Z-1.0017
G01 X19.4875 Y47.4881 Z-0.9993
G01 X19.3902 Y47.4894 Z-0.9968
G01 X19.2928 Y47.4906 Z-0.9944
G01 X19.1955 Y47.4919 Z-0.9920
G01 X19.0981 Y47.4931 Z-0.9895
G01 X19.0008 Y47.4944 Z-0.9871
G01 X18.9034 Y47.4957 Z-0.9847
G01 X18.8061 Y47.4969 Z-0.9822
G01 X18.6560 Y47.4979 Z-0.9790
G01 X18.5561 Z-0.9771
G01 X18.4562 Z-0.9753
G01 X18.3562 Y47.4978 Z-0.9735
G01 X18.2563 Z-0.9716
G01 X18.1564 Z-0.9698
G01 X18.0564 Z-0.9679
G01 X17.9565 Z-0.9661
G01 X17.8566 Z-0.9642
G01 X17.7566 Z-0.9624
G01 X17.6567 Y47.4977 Z-0.9606
G01 X17.5078 Y47.4968 Z-0.9583
G01 X17.4052 Y47.4955 Z-0.9570
G01 X17.3026 Y47.4942 Z-0.9558
G01 X17.2001 Y47.4929 Z-0.9545
G01 X17.0975 Y47.4916 Z-0.9533
G01 X16.9949 Y47.4904 Z-0.9520
G01 X16.8923 Y47.4891 Z-0.9508
G01 X16.7897 Y47.4878 Z-0.9495
G01 X16.6872 Y47.4865 Z-0.9482
G01 X16.5846 Y47.4852 Z-0.9470
G01 X16.4820 Y47.4839 Z-0.9457
G01 X16.3585 Y47.4820 Z-0.9444
G01 X16.2593 Y47.4802 Z-0.9435
G01 X16.1600 Y47.4783 Z-0.9426
G01 X16.0607 Y47.4765 Z-0.9416
G01 X15.9615 Y47.4747 Z-0.9407
G01 X15.8622 Y47.4728 Z-0.9398
G01 X15.7629 Y47.4710 Z-0.9389
G01 X15.6637 Y47.4691 Z-0.9380
G01 X15.5644 Y47.4673 Z-0.9371
G01 X15.4651 Y47.4655 Z-0.9361
G01 X15.3658 Y47.4636 Z-0.9352
G01 X15.2666 Y47.4618 Z-0.9343
G01 X15.1673 Y47.4599 Z-0.9334
G01 X15.0680 Y47.4581 Z-0.9325
G01 X14.9688 Y47.4563 Z-0.9315
G01 X14.8695 Y47.4544 Z-0.9306
G01 X14.7702 Y47.4526 Z-0.9297
G01 X14.6710 Y47.4508 Z-0.9288
G01 X14.5717 Y47.4489 Z-0.9279
G01 X14.4724 Y47.4471 Z-0.9269
G01 X14.3732 Y47.4452 Z-0.9260
G01 X14.2739 Y47.4434 Z-0.9251
G01 X14.1746 Y47.4416 Z-0.9242
G01 X14.0754 Y47.4397 Z-0.9233
G01 X13.9761 Y47.4379 Z-0.9224
G01 X13.8768 Y47.4361 Z-0.9214
G01 X13.7775 Y47.4342 Z-0.9205
G01 X13.6783 Y47.4324 Z-0.9196
G01 X13.5790 Y47.4305 Z-0.9187
G01 X13.4797 Y47.4287 Z-0.9178
G01 X13.3805 Y47.4269 Z-0.9168
G01 X13.2812 Y47.4250 Z-0.9159
G01 X13.1819 Y47.4232 Z-0.9150
G01 X13.0827 Y47.4214 Z-0.9141
G01 X12.9834 Y47.4195 Z-0.9132
G01 X12.8841 Y47.4177 Z-0.9122
G01 X12.7849 Y47.4158 Z-0.9113
G01 X12.6856 Y47.4140 Z-0.9104
G01 X12.5863 Y47.4122 Z-0.9095
G01 X12.4870 Y47.4103 Z-0.9086
G01 X12.3878 Y47.4088 Z-0.9078
G01 X12.2885 Y47.4079 Z-0.9073
G01 X12.1701 Y47.4057 Z-0.9062
G01 X12.0349 Y47.4008 Z-0.9034
G01 X11.9041 Y47.3932 Z-0.8990
G01 X11.7777 Y47.3826 Z-0.8928
G01 X11.6557 Y47.3684 Z-0.8844
G01 X11.5381 Y47.3493 Z-0.8733
G01 X11.4246 Y47.3236 Z-0.8586
G01 X11.3151 Y47.2876 Z-0.8385
G01 X11.2092 Y47.2393 Z-0.8119
G01 X11.1069 Y47.1826 Z-0.7808
G01 X11.0082 Y47.1221 Z-0.7475
G01 X10.9131 Y47.0593 Z-0.7128
G01 X10.8221 Y47.0000 Z-0.6796
G01 X10.7354 Y46.9473 Z-0.6494
G01 X10.6524 Y46.8936 Z-0.6185
G01 X10.5702 Y46.8147 Z-0.5746
G01 X10.5088 Y46.7519 Z-0.5395
G01 X10.6725 Y46.9118 Z-0.6286
G01 X10.9121 Y47.0586 Z-0.7124
G01 X10.9357 Y47.1457 Z-0.7095
G01 X10.8981 Y47.1599 Z-0.6894
G01 X10.8645 Y47.2684 Z-0.6532
G01 X10.8349 Y47.2819 Z-0.6369
G01 X10.8210 Y47.3839 Z-0.6081
G01 X10.7988 Y47.3959 Z-0.5955
G01 X10.7876 Y47.5000 Z-0.5644
G01 X10.7995 Y47.5922 Z-0.5431
G01 X10.8323 Y47.6704 Z-0.5315
G01 X10.8841 Y47.7326 Z-0.5291
G01 X10.9530 Y47.7769 Z-0.5360
G01 X11.1335 Y47.8036 Z-0.5783
G01 X11.3580 Y47.7344 Z-0.6611
G01 X11.7420 Y47.4157 Z-0.8730
G01 Z-1.7459
G01 X11.3580 Y47.7344 Z-1.3222
G01 X11.1335 Y47.8036 Z-1.1565
G01 X10.9530 Y47.7769 Z-1.0720
G01 X10.8841 Y47.7326 Z-1.0582
G01 X10.8323 Y47.6704 Z-1.0629
G01 X10.7995 Y47.5922 Z-1.0863
G01 X10.7876 Y47.5000 Z-1.1287
G01 X10.7988 Y47.3959 Z-1.1909
G01 X10.8210 Y47.3839 Z-1.2162
G01 X10.8349 Y47.2819 Z-1.2739
G01 X10.8645 Y47.2684 Z-1.3064
G01 X10.8981 Y47.1599 Z-1.3789
G01 X10.9357 Y47.1457 Z-1.4190
G01 X10.9121 Y47.0586 Z-1.4249
G01 X10.6725 Y46.9118 Z-1.2571
G01 X10.5088 Y46.7519 Z-1.0791
G01 X10.5702 Y46.8147 Z-1.1491
G01 X10.6524 Y46.8936 Z-1.2369
G01 X10.7354 Y46.9473 Z-1.2989
G01 X10.8221 Y47.0000 Z-1.3592
G01 X10.9131 Y47.0593 Z-1.4256
G01 X11.0082 Y47.1221 Z-1.4951
G01 X11.1069 Y47.1826 Z-1.5617
G01 X11.2092 Y47.2393 Z-1.6238
G01 X11.3151 Y47.2876 Z-1.6769
G01 X11.4246 Y47.3236 Z-1.7173
G01 X11.5381 Y47.3493 Z-1.7466
G01 X11.6557 Y47.3684 Z-1.7688
G01 X11.7777 Y47.3826 Z-1.7855
G01 X11.9041 Y47.3932 Z-1.7980
G01 X12.0349 Y47.4008 Z-1.8068
G01 X12.1701 Y47.4057 Z-1.8124
G01 X12.2885 Y47.4079 Z-1.8147
G01 X12.3878 Y47.4088 Z-1.8156
G01 X12.4870 Y47.4103 Z-1.8171
G01 X12.5863 Y47.4122 Z-1.8190
G01 X12.6856 Y47.4140 Z-1.8208
G01 X12.7849 Y47.4158 Z-1.8227
G01 X12.8841 Y47.4177 Z-1.8245
G01 X12.9834 Y47.4195 Z-1.8263
G01 X13.0827 Y47.4214 Z-1.8282
G01 X13.1819 Y47.4232 Z-1.8300
G01 X13.2812 Y47.4250 Z-1.8318
G01 X13.3805 Y47.4269 Z-1.8337
G01 X13.4797 Y47.4287 Z-1.8355
G01 X13.5790 Y47.4305 Z-1.8374
G01 X13.6783 Y47.4324 Z-1.8392
G01 X13.7775 Y47.4342 Z-1.8410
G01 X13.8768 Y47.4361 Z-1.8429
G01 X13.9761 Y47.4379 Z-1.8447
G01 X14.0754 Y47.4397 Z-1.8465
G01 X14.1746 Y47.4416 Z-1.8484
G01 X14.2739 Y47.4434 Z-1.8502
G01 X14.3732 Y47.4452 Z-1.8521
G01 X14.4724 Y47.4471 Z-1.8539
G01 X14.5717 Y47.4489 Z-1.8557
G01 X14.6710 Y47.4508 Z-1.8576
G01 X14.7702 Y47.4526 Z-1.8594
G01 X14.8695 Y47.4544 Z-1.8612
G01 X14.9688 Y47.4563 Z-1.8631
G01 X15.0680 Y47.4581 Z-1.8649
G01 X15.1673 Y47.4599 Z-1.8668
G01 X15.2666 Y47.4618 Z-1.8686
G01 X15.3658 Y47.4636 Z-1.8704
G01 X15.4651 Y47.4655 Z-1.8723
G01 X15.5644 Y47.4673 Z-1.8741
G01 X15.6637 Y47.4691 Z-1.8759
G01 X15.7629 Y47.4710 Z-1.8778
G01 X15.8622 Y47.4728 Z-1.8796
G01 X15.9615 Y47.4747 Z-1.8815
G01 X16.0607 Y47.4765 Z-1.8833
G01 X16.1600 Y47.4783 Z-1.8851
G01 X16.2593 Y47.4802 Z-1.8870
G01 X16.3585 Y47.4820 Z-1.8888
G01 X16.4820 Y47.4839 Z-1.8915
G01 X16.5846 Y47.4852 Z-1.8940
G01 X16.6872 Y47.4865 Z-1.8965
G01 X16.7897 Y47.4878 Z-1.8990
G01 X16.8923 Y47.4891 Z-1.9015
G01 X16.9949 Y47.4904 Z-1.9040
G01 X17.0975 Y47.4916 Z-1.9065
G01 X17.2001 Y47.4929 Z-1.9090
G01 X17.3026 Y47.4942 Z-1.9116
G01 X17.4052 Y47.4955 Z-1.9141
G01 X17.5078 Y47.4968 Z-1.9166
G01 X17.6567 Y47.4977 Z-1.9211
G01 X17.7566 Y47.4978 Z-1.9248
G01 X17.8566 Z-1.9285
G01 X17.9565 Z-1.9322
G01 X18.0564 Z-1.9359
G01 X18.1564 Z-1.9396
G01 X18.2563 Z-1.9432
G01 X18.3562 Z-1.9469
G01 X18.4562 Y47.4979 Z-1.9506
G01 X18.5561 Z-1.9543
G01 X18.6560 Z-1.9580
G01 X18.8061 Y47.4969 Z-1.9645
G01 X18.9034 Y47.4957 Z-1.9693
G01 X19.0008 Y47.4944 Z-1.9742
G01 X19.0981 Y47.4931 Z-1.9791
G01 X19.1955 Y47.4919 Z-1.9839
G01 X19.2928 Y47.4906 Z-1.9888
G01 X19.3902 Y47.4894 Z-1.9937
G01 X19.4875 Y47.4881 Z-1.9985
G01 X19.5849 Y47.4868 Z-2.0034
G01 X19.6823 Y47.4856 Z-2.0082
G01 X19.7796 Y47.4848 Z-2.0136
G01 X19.9364 Y47.4830 Z-2.0238
G01 X20.0408 Y47.4811 Z-2.0314
G01 X20.1452 Y47.4792 Z-2.0389
G01 X20.2496 Y47.4773 Z-2.0465
G01 X20.3540 Y47.4754 Z-2.0540
G01 X20.4584 Y47.4735 Z-2.0616
G01 X20.5629 Y47.4724 Z-2.0700
G01 X20.6675 Y47.4725 Z-2.0795
G01 X20.7721 Z-2.0889
G01 X20.8767 Z-2.0984
G01 X21.0416 Y47.4714 Z-2.1145
G01 X21.1435 Y47.4699 Z-2.1253
G01 X21.2455 Y47.4685 Z-2.1360
G01 X21.3476 Y47.4676 Z-2.1473
G01 X21.4498 Y47.4681 Z-2.1600
G01 X21.5520 Y47.4686 Z-2.1727
G01 X21.6542 Y47.4691 Z-2.1854
G01 X21.7564 Y47.4696 Z-2.1981
G01 X21.8587 Y47.4701 Z-2.2108
G01 X21.9609 Y47.4706 Z-2.2235
G01 X22.1311 Y47.4705 Z-2.2463
G01 X22.2312 Y47.4714 Z-2.2622
G01 X22.3312 Y47.4724 Z-2.2781
G01 X22.4313 Y47.4733 Z-2.2940
G01 X22.5313 Y47.4743 Z-2.3099
G01 X22.6314 Y47.4752 Z-2.3258
G01 X22.7314 Y47.4761 Z-2.3418
G01 X22.8315 Y47.4771 Z-2.3577
G01 X22.9317 Y47.4786 Z-2.3742
G01 X23.0320 Y47.4816 Z-2.3921
G01 X23.2106 Y47.4855 Z-2.4256
G01 X23.3087 Y47.4869 Z-2.4447
G00 Z5.0000
G00 X40.7906 Y61.7280
G01 Z-3.1750
G01 X40.8134 Y61.8271
G01 X40.8363 Y61.9262
G01 X40.8591 Y62.0253
G01 X40.9209 Y62.3126
G01 X40.9410 Y62.4139
G01 X40.9612 Y62.5152
G01 X40.9814 Y62.6165
G01 X41.0016 Y62.7177
G01 X41.0217 Y62.8190
G01 X41.0419 Y62.9203
G01 X41.0621 Y63.0216
G01 X41.1145 Y63.3064
G01 X41.1320 Y63.4099
G01 X41.1495 Y63.5134
G01 X41.1669 Y63.6168
G01 X41.1844 Y63.7203
G01 X41.2019 Y63.8238
G01 X41.2194 Y63.9273
G01 X41.2369 Y64.0307
G01 X41.2796 Y64.3069
G01 X41.2927 Y64.4008
G01 X41.3059 Y64.4947
G01 X41.3190 Y64.5886
G01 X41.3322 Y64.6826
G01 X41.3454 Y64.7765
G01 X41.3585 Y64.8704
G01 X41.3717 Y64.9643
G01 X41.3848 Y65.0582
G01 X41.4185 Y65.3254
G01 X41.4292 Y65.4213
G01 X41.4400 Y65.5171
G01 X41.4508 Y65.6130
G01 X41.4615 Y65.7089
G01 X41.4723 Y65.8047
G01 X41.4830 Y65.9006
G01 X41.4938 Y65.9964
G01 X41.5046 Y66.0923
G01 X41.5306 Y66.3561
G01 X41.5390 Y66.4539
G01 X41.5474 Y66.5517
G01 X41.5557 Y66.6495
G01 X41.5641 Y66.7473
G01 X41.5725 Y66.8451
G01 X41.5808 Y66.9429
G01 X41.5892 Y67.0407
G01 X41.5976 Y67.1385
G01 X41.6165 Y67.3988
G01 X41.6225 Y67.4985
G01 X41.6284 Y67.5983
G01 X41.6344 Y67.6980
G01 X41.6404 Y67.7978
G01 X41.6464 Y67.8975
G01 X41.6524 Y67.9973
G01 X41.6583 Y68.0970
G01 X41.6643 Y68.1968
G01 X41.6765 Y68.4535
G01 X41.6801 Y68.5552
G01 X41.6837 Y68.6569
G01 X41.6873 Y68.7586
G01 X41.6909 Y68.8603
G01 X41.6944 Y68.9620
G01 X41.6980 Y69.0637
G01 X41.7016 Y69.1654
G01 X41.7052 Y69.2671
G01 X41.7111 Y69.5203
G01 X41.7123 Y69.6239
G01 X41.7135 Y69.7276
G01 X41.7147 Y69.8312
G01 X41.7159 Y69.9348
G01 X41.7171 Y70.0385
G01 X41.7183 Y70.1421
G01 X41.7195 Y70.2457
G01 X41.7207 Y70.3494
G01 X41.7209 Y70.5838
G01 X41.7200 Y70.6784
G01 X41.7191 Y70.7730
G01 X41.7182 Y70.8676
G01 X41.7172 Y70.9622
G01 X41.7163 Y71.0568
G01 X41.7154 Y71.1514
G01 X41.7145 Y71.2460
G01 X41.7099 Y71.4750
G01 X41.7067 Y71.5803
G01 X41.7035 Y71.6857
G01 X41.7003 Y71.7910
G01 X41.6972 Y71.8963
G01 X41.6940 Y72.0017
G01 X41.6908 Y72.1070
G01 X41.6811 Y72.3467
G01 X41.6758 Y72.4492
G01 X41.6705 Y72.5518
G01 X41.6652 Y72.6543
G01 X41.6599 Y72.7569
G01 X41.6546 Y72.8594
G01 X41.6494 Y72.9620
G01 X41.6341 Y73.2059
G01 X41.6267 Y73.3057
G01 X41.6193 Y73.4055
G01 X41.6119 Y73.5052
G01 X41.6045 Y73.6050
G01 X41.5971 Y73.7048
G01 X41.5897 Y73.8045
G01 X41.5683 Y74.0531
G01 X41.5588 Y74.1501
G01 X41.5493 Y74.2471
G01 X41.5397 Y74.3441
G01 X41.5302 Y74.4410
G01 X41.5207 Y74.5380
G01 X41.5112 Y74.6350
G01 X41.4832 Y74.8885
G01 X41.4715 Y74.9827
G01 X41.4599 Y75.0769
G01 X41.4483 Y75.1711
G01 X41.4367 Y75.2653
G01 X41.4250 Y75.3595
G01 X41.4134 Y75.4537
G01 X41.3769 Y75.7201
G01 X41.3608 Y75.8268
G01 X41.3448 Y75.9334
G01 X41.3288 Y76.0401
G01 X41.3128 Y76.1467
G01 X41.2967 Y76.2533
G01 X41.2508 Y76.5327
G01 X41.2323 Y76.6360
G01 X41.1854 Y76.7344 Z-3.1606
G01 X41.1344 Y76.8319 Z-3.1441
G01 X41.0834 Y76.9295 Z-3.1276
G01 X41.0325 Y77.0271 Z-3.1111
G01 X40.8911 Y77.2898 Z-3.0667
G01 X40.8381 Y77.3832 Z-3.0503
G01 X40.7850 Y77.4766 Z-3.0339
G01 X40.7319 Y77.5700 Z-3.0175
G01 X40.6789 Y77.6635 Z-3.0011
G01 X40.6258 Y77.7569 Z-2.9847
G01 X40.4719 Y78.0133 Z-2.9378
G01 X40.4169 Y78.1025 Z-2.9216
G01 X40.3620 Y78.1918 Z-2.9054
G01 X40.3071 Y78.2811 Z-2.8892
G01 X40.2522 Y78.3704 Z-2.8730
G01 X40.1956 Y78.4592 Z-2.8559
G01 X40.0325 Y78.7090 Z-2.8083
G01 X39.9759 Y78.7942 Z-2.7924
G01 X39.9194 Y78.8793 Z-2.7764
G01 X39.8628 Y78.9645 Z-2.7605
G01 X39.8042 Y79.0491 Z-2.7436
G01 X39.7453 Y79.1336 Z-2.7264
G01 X39.5734 Y79.3758 Z-2.6782
G01 X39.5149 Y79.4567 Z-2.6624
G01 X39.4564 Y79.5377 Z-2.6466
G01 X39.3971 Y79.6184 Z-2.6304
G01 X39.3368 Y79.6987 Z-2.6137
G01 X39.2765 Y79.7791 Z-2.5970
G01 X39.0976 Y80.0133 Z-2.5491
G01 X39.0377 Y80.0901 Z-2.5337
G01 X38.9778 Y80.1670 Z-2.5183
G01 X38.9171 Y80.2436 Z-2.5024
G01 X38.8555 Y80.3198 Z-2.4861
G01 X38.7939 Y80.3961 Z-2.4698
G01 X38.6023 Y80.6287 Z-2.4210
G01 X38.5289 Y80.7161 Z-2.4030
G01 X38.4556 Y80.8035 Z-2.3851
G01 X38.3805 Y80.8902 Z-2.3661
G01 X38.3051 Y80.9768 Z-2.3471
G01 X38.1011 Y81.2067 Z-2.2975
G01 X38.0263 Y81.2893 Z-2.2801
G01 X37.9515 Y81.3719 Z-2.2626
G01 X37.8757 Y81.4541 Z-2.2446
G01 X37.7990 Y81.5359 Z-2.2262
G01 X37.5895 Y81.7546 Z-2.1777
G01 X37.5134 Y81.8325 Z-2.1608
G01 X37.4372 Y81.9104 Z-2.1439
G01 X37.3610 Y81.9883 Z-2.1270
G01 X37.2832 Y82.0654 Z-2.1092
G01 X37.0690 Y82.2725 Z-2.0620
G01 X36.9916 Y82.3457 Z-2.0457
G01 X36.9141 Y82.4190 Z-2.0293
G01 X36.8367 Y82.4922 Z-2.0130
G01 X36.7592 Y82.5655 Z-1.9967
G01 X36.5411 Y82.7602 Z-1.9510
G01 X36.4624 Y82.8289 Z-1.9353
G01 X36.3838 Y82.8976 Z-1.9195
G01 X36.3051 Y82.9663 Z-1.9038
G01 X36.2264 Y83.0350 Z-1.8880
G01 X36.0073 Y83.2182 Z-1.8452
G01 X35.9274 Y83.2824 Z-1.8300
G01 X35.8476 Y83.3466 Z-1.8149
G01 X35.7677 Y83.4108 Z-1.7997
G01 X35.6878 Y83.4751 Z-1.7846
G01 X35.4689 Y83.6468 Z-1.7450
G01 X35.3879 Y83.7067 Z-1.7305
G01 X35.3068 Y83.7665 Z-1.7159
G01 X35.2258 Y83.8264 Z-1.7013
G01 X35.1448 Y83.8862 Z-1.6868
G01 X34.9543 Y84.0241 Z-1.6539
G01 X34.8686 Y84.0849 Z-1.6397
G01 X34.7830 Y84.1457 Z-1.6254
G01 X34.6961 Y84.2055 Z-1.6104
G01 X34.6090 Y84.2652 Z-1.5953
G01 X34.3816 Y84.4166 Z-1.5578
G01 X34.2944 Y84.4731 Z-1.5442
G01 X34.2072 Y84.5296 Z-1.5305
G01 X34.1200 Y84.5860 Z-1.5169
G01 X34.0328 Y84.6425 Z-1.5033
G01 X33.8067 Y84.7796 Z-1.4682
G01 X33.7180 Y84.8319 Z-1.4552
G01 X33.6292 Y84.8841 Z-1.4421
G01 X33.5405 Y84.9363 Z-1.4291
G01 X33.4518 Y84.9886 Z-1.4161
G01 X33.2304 Y85.1144 Z-1.3852
G01 X33.1401 Y85.1625 Z-1.3728
G01 X33.0498 Y85.2106 Z-1.3604
G01 X32.9595 Y85.2588 Z-1.3479
G01 X32.8691 Y85.3069 Z-1.3355
G01 X32.6509 Y85.4195 Z-1.3072
G01 X32.5599 Y85.4649 Z-1.2962
G01 X32.4690 Y85.5103 Z-1.2852
G01 X32.3772 Y85.5546 Z-1.2734
G01 X32.2853 Y85.5988 Z-1.2615
G01 X32.0702 Y85.6985 Z-1.2355
G01 X31.9775 Y85.7400 Z-1.2250
G01 X31.8848 Y85.7815 Z-1.2145
G01 X31.7920 Y85.8230 Z-1.2040
G01 X31.6993 Y85.8645 Z-1.1935
G01 X31.4888 Y85.9532 Z-1.1703
G01 X31.3941 Y85.9909 Z-1.1603
G01 X31.2995 Y86.0286 Z-1.1503
G01 X31.2049 Y86.0663 Z-1.1403
G01 X31.1103 Y86.1040 Z-1.1303
G01 X30.9047 Y86.1829 Z-1.1101
G01 X30.8089 Y86.2182 Z-1.1013
G01 X30.7129 Y86.2531 Z-1.0924
G01 X30.6163 Y86.2871 Z-1.0829
G01 X30.5196 Y86.3211 Z-1.0734
G01 X30.3181 Y86.3891 Z-1.0550
G01 X30.2201 Y86.4208 Z-1.0467
G01 X30.1221 Y86.4525 Z-1.0384
G01 X30.0241 Y86.4842 Z-1.0302
G01 X29.9261 Y86.5159 Z-1.0219
G01 X29.7291 Y86.5752 Z-1.0059
G01 X29.6288 Y86.6033 Z-0.9980
G01 X29.5286 Y86.6314 Z-0.9902
G01 X29.4283 Y86.6595 Z-0.9824
G01 X29.3280 Y86.6876 Z-0.9745
G01 X29.1354 Y86.7391 Z-0.9607
G01 X29.0334 Y86.7650 Z-0.9541
G01 X28.9313 Y86.7909 Z-0.9474
G01 X28.8289 Y86.8160 Z-0.9403
G01 X28.7263 Y86.8405 Z-0.9329
G01 X28.5371 Y86.8834 Z-0.9204
G01 X28.4325 Y86.9058 Z-0.9141
G01 X28.3279 Y86.9282 Z-0.9078
G01 X28.2234 Y86.9506 Z-0.9015
G01 X28.1188 Y86.9730 Z-0.8953
G01 X27.9336 Y87.0106 Z-0.8852
G01 X27.8264 Y87.0295 Z-0.8794
G01 X27.7192 Y87.0484 Z-0.8734
G01 X27.6120 Y87.0673 Z-0.8675
G01 X27.5048 Y87.0863 Z-0.8616
G01 X27.3314 Y87.1150 Z-0.8530
G01 X27.2401 Y87.1290 Z-0.8490
G01 X27.1489 Y87.1431 Z-0.8450
G01 X27.0576 Y87.1572 Z-0.8410
G01 X26.9663 Y87.1712 Z-0.8369
G01 X26.8748 Y87.1844 Z-0.8325
G01 X26.7131 Y87.2054 Z-0.8252
G01 X26.6195 Y87.2165 Z-0.8214
G01 X26.5258 Y87.2277 Z-0.8177
G01 X26.4322 Y87.2388 Z-0.8139
G01 X26.3385 Y87.2500 Z-0.8102
G01 X26.2449 Y87.2611 Z-0.8064
G01 X26.0860 Y87.2784 Z-0.8009
G01 X25.9901 Y87.2879 Z-0.7980
G01 X25.8942 Y87.2970 Z-0.7950
G01 X25.7981 Y87.3052 Z-0.7915
G01 X25.7020 Y87.3134 Z-0.7880
G01 X25.6059 Y87.3216 Z-0.7845
G01 X25.4490 Y87.3336 Z-0.7795
G01 X25.3506 Y87.3401 Z-0.7769
G01 X25.2522 Y87.3466 Z-0.7743
G01 X25.1537 Y87.3531 Z-0.7716
G01 X25.0553 Y87.3597 Z-0.7690
G01 X24.9569 Y87.3662 Z-0.7664
G01 X24.8016 Y87.3741 Z-0.7624
G01 X24.7006 Y87.3776 Z-0.7600
G01 X24.5996 Y87.3812 Z-0.7575
G01 X24.4986 Y87.3847 Z-0.7551
G01 X24.3976 Y87.3883 Z-0.7527
G01 X24.2966 Y87.3918 Z-0.7502
G01 X24.1425 Y87.3959 Z-0.7472
G01 X24.0389 Y87.3971 Z-0.7452
G01 X23.9353 Y87.3975 Z-0.7430
G01 X23.8317 Y87.3980 Z-0.7407
G01 X23.7280 Y87.3985 Z-0.7384
G01 X23.6244 Y87.3990 Z-0.7361
G01 X23.4711 Y87.3984 Z-0.7334
G01 X23.3649 Y87.3972 Z-0.7319
G01 X23.2586 Y87.3952 Z-0.7301
G01 X23.1524 Y87.3925 Z-0.7279
G01 X23.0461 Y87.3898 Z-0.7257
G01 X22.9398 Y87.3871 Z-0.7235
G01 X22.8015 Y87.3827 Z-0.7211
G01 X22.7079 Y87.3791 Z-0.7198
G01 X22.6143 Y87.3755 Z-0.7185
G01 X22.5206 Y87.3715 Z-0.7170
G01 X22.3963 Y87.3643 Z-0.7147
G01 X22.3037 Y87.3584 Z-0.7133
G01 X22.2112 Y87.3525 Z-0.7119
G01 X22.1187 Y87.3467 Z-0.7104
G01 X21.9950 Y87.3381 Z-0.7089
G01 X21.9035 Y87.3313 Z-0.7080
G01 X21.8120 Y87.3244 Z-0.7071
G01 X21.7205 Y87.3167 Z-0.7057
G01 X21.5976 Y87.3050 Z-0.7040
G01 X21.5071 Y87.2959 Z-0.7030
G01 X21.4167 Y87.2868 Z-0.7019
G01 X21.3262 Y87.2777 Z-0.7009
G01 X21.2039 Y87.2647 Z-0.6999
G01 X21.1144 Y87.2547 Z-0.6994
G01 X21.0249 Y87.2444 Z-0.6988
G01 X20.9355 Y87.2331 Z-0.6977
G01 X20.8140 Y87.2169 Z-0.6965
G01 X20.7255 Y87.2046 Z-0.6959
G01 X20.6371 Y87.1923 Z-0.6953
G01 X20.5486 Y87.1800 Z-0.6947
G01 X20.4276 Y87.1625 Z-0.6942
G01 X20.3400 Y87.1492
G01 X20.2526 Y87.1353 Z-0.6937
G01 X20.1652 Y87.1207 Z-0.6930
G01 X20.0450 Y87.1000 Z-0.6924
G01 X19.9584 Y87.0845 Z-0.6922
G01 X19.8719 Y87.0690 Z-0.6920
G01 X19.7854 Y87.0535 Z-0.6918
G01 X19.6513 Y87.0286 Z-0.6920
G01 X19.5371 Y87.0061 Z-0.6922
G01 X19.4232 Y86.9824 Z-0.6918
G01 X19.2758 Y86.9509
G01 X19.1629 Y86.9260 Z-0.6921
G01 X19.0500 Y86.9011 Z-0.6925
G01 X18.9033 Y86.8678 Z-0.6934
G01 X18.7916 Y86.8405 Z-0.6939
G01 X18.6801 Y86.8126 Z-0.6941
G01 X18.5345 Y86.7753 Z-0.6948
G01 X18.4240 Y86.7461 Z-0.6957
G01 X18.3134 Y86.7170 Z-0.6967
G01 X18.1683 Y86.6777 Z-0.6984
G01 X18.0591 Y86.6456 Z-0.6992
G01 X17.9500 Y86.6135 Z-0.6999
G01 X17.8061 Y86.5701 Z-0.7015
G01 X17.6977 Y86.5367 Z-0.7030
G01 X17.5894 Y86.5032 Z-0.7045
G01 X17.4461 Y86.4574 Z-0.7067
G01 X17.3391 Y86.4209 Z-0.7081
G01 X17.2322 Y86.3845 Z-0.7095
G01 X17.0899 Y86.3351 Z-0.7118
G01 X16.9837 Y86.2973 Z-0.7139
G01 X16.8774 Y86.2596 Z-0.7161
G01 X16.7360 Y86.2069 Z-0.7188
G01 X16.6311 Y86.1662 Z-0.7207
G01 X16.5262 Y86.1254 Z-0.7227
G01 X16.3856 Y86.0697 Z-0.7259
G01 X16.2813 Y86.0276 Z-0.7286
G01 X16.1771 Y85.9855 Z-0.7313
G01 X16.0376 Y85.9259 Z-0.7345
G01 X15.9346 Y85.8808 Z-0.7371
G01 X15.8317 Y85.8356 Z-0.7397
G01 X15.6927 Y85.7736 Z-0.7437
G01 X15.5903 Y85.7270 Z-0.7470
G01 X15.4881 Y85.6801 Z-0.7502
G01 X15.3307 Y85.6034 Z-0.7550
G01 X15.2489 Y85.5621 Z-0.7581
G01 X15.1671 Y85.5209 Z-0.7612
G01 X15.0853 Y85.4796 Z-0.7643
G01 X14.9737 Y85.4229 Z-0.7687
G01 X14.8698 Y85.3693 Z-0.7729
G01 X14.7667 Y85.3144 Z-0.7763
G01 X14.6458 Y85.2493 Z-0.7806
G01 X14.5477 Y85.1961 Z-0.7842
G01 X14.4496 Y85.1429 Z-0.7879
G01 X14.3314 Y85.0781 Z-0.7926
G01 X14.2387 Y85.0261 Z-0.7962
G01 X14.1465 Y84.9732 Z-0.7993
G01 X14.0318 Y84.9067 Z-0.8034
G01 X13.9447 Y84.8555 Z-0.8068
G01 X13.8575 Y84.8044 Z-0.8102
G01 X13.7447 Y84.7375 Z-0.8149
G01 X13.6626 Y84.6880 Z-0.8184
G01 X13.5812 Y84.6374 Z-0.8214
G01 X13.4711 Y84.5681 Z-0.8256
G01 X13.3946 Y84.5193 Z-0.8289
G01 X13.3181 Y84.4705 Z-0.8322
G01 X13.2089 Y84.3999 Z-0.8372
G01 X13.1372 Y84.3529 Z-0.8408
G01 X13.0658 Y84.3056 Z-0.8442
G01 X12.9415 Y84.2198 Z-0.8500
G01 X12.8423 Y84.1504 Z-0.8549
G01 X12.7020 Y84.0506 Z-0.8627
G01 X12.6099 Y83.9840 Z-0.8683
G01 X12.4707 Y83.8802 Z-0.8770
G01 X12.3867 Y83.8149 Z-0.8824
G01 X12.2479 Y83.7049 Z-0.8921
G01 X12.1707 Y83.6423 Z-0.8981
G01 X12.0295 Y83.5250 Z-0.9103
G01 X11.9592 Y83.4647 Z-0.9168
G01 X11.8158 Y83.3351 Z-0.9305
G01 X11.7528 Y83.2765 Z-0.9373
G01 X11.6028 Y83.1326 Z-0.9552
G01 X11.5460 Y83.0762 Z-0.9627
G01 X11.3647 Y82.8827 Z-0.9886
G01 X11.1521 Y82.6334 Z-1.0254
G01 X10.9339 Y82.3464 Z-1.0729
G01 X10.7099 Y82.0081 Z-1.1357
G01 X10.4844 Y81.6022 Z-1.2188
G01 X10.2758 Y81.1439 Z-1.3223
G01 X10.1061 Y80.6796 Z-1.4353
G01 X9.9706 Y80.2007 Z-1.5573
G01 X9.8665 Y79.7142 Z-1.6863
G01 X9.7918 Y79.2251 Z-1.8200
G01 X9.7419 Y78.6906 Z-1.9693
G01 X9.7235 Y78.2024 Z-2.1074
G01 X9.7302 Y77.7196 Z-2.2446
G01 X9.7510 Y77.3582 Z-2.3473
G01 X9.7610 Y77.2437 Z-2.3795
G01 X9.7989 Y76.8966 Z-2.4772
G01 X9.8151 Y76.7756 Z-2.5111
G01 X9.8693 Y76.4433 Z-2.6031
G01 X9.8927 Y76.3169 Z-2.6380
G01 X9.9626 Y75.9999 Z-2.7236
G01 X9.9955 Y75.8706 Z-2.7578
G01 X10.0803 Y75.5689 Z-2.8366
G01 X10.1218 Y75.4361 Z-2.8707
G01 X10.2130 Y75.1728 Z-2.9366
G01 X10.2470 Y75.0829 Z-2.9587
G01 X10.2810 Y74.9930 Z-2.9808
G01 X10.3753 Y74.7671 Z-3.0346
G01 X10.4162 Y74.6767 Z-3.0556
G01 X10.4574 Y74.5865 Z-3.0763
G01 X10.5610 Y74.3753 Z-3.1238
G01 X10.6076 Y74.2832 Z-3.1445
G01 X10.6542 Y74.1910 Z-3.1652
G01 X10.8059 Y74.0431 Z-3.1750
G01 X10.8835 Y73.9813
G01 X10.9612 Y73.9196
G01 X11.1231 Y73.7930
G01 X11.2055 Y73.7297
G01 X11.2879 Y73.6663
G01 X11.4484 Y73.5449
G01 X11.5355 Y73.4800
G01 X11.6225 Y73.4151
G01 X11.7822 Y73.2979
G01 X11.8355 Y73.2575
G01 X11.9008 Y73.1981
G01 X11.9366 Y73.1630
G01 X11.9923 Y73.1058
G01 X12.0366 Y73.0563
G01 X12.0972 Y72.9793
G01 X12.1311 Y72.9270
G01 X12.1574 Y72.8738
G01 X12.1778 Y72.8089
G01 X12.2231 Y72.7655 Z-3.1534
G01 X12.3878 Y72.5798 Z-3.0523
G01 X12.5780 Y72.3659 Z-2.9314
G01 X12.7412 Y72.1823 Z-2.8235
G01 X12.7617 Y72.1594 Z-2.8097
G01 X12.4158 Y72.5486 Z-3.0349
G01 X12.1539 Y72.8033 Z-3.1750
G01 X12.0183 Y72.7964
G01 X11.9197 Y72.7939
G01 X11.8210 Y72.7913
G01 X11.6740 Y72.7896
G01 X11.5664
G01 X11.4588
G01 X11.3486 Y72.7910
G01 X11.2549 Y72.7938
G01 X11.1611 Y72.7967
G01 X11.0673 Y72.7995
G01 X10.9839 Y72.8056
G01 X10.8766 Y72.7809 Z-3.1576
G01 X10.7964 Y72.6813 Z-3.1032
G01 X10.6688 Y72.5246 Z-3.0154
G01 X10.6325 Y72.4791 Z-2.9896
G01 X10.5576 Y72.3900 Z-2.9373
G01 X10.8731 Y72.7764 Z-3.1552
G01 X10.8850 Y72.8711 Z-3.1750
G01 X10.8563 Y72.9736
G01 X10.8295 Y73.0787
G01 X10.8095 Y73.1722
G01 X10.7895 Y73.2657
G01 X10.7664 Y73.3931
G01 X10.7510 Y73.4923
G01 X10.7357 Y73.5915
G01 X10.7121 Y73.7774
G01 Z-6.3500
G01 X10.7357 Y73.5915
G01 X10.7510 Y73.4923
G01 X10.7664 Y73.3931
G01 X10.7895 Y73.2657
G01 X10.8095 Y73.1722
G01 X10.8295 Y73.0787
G01 X10.8563 Y72.9736
G01 X10.8850 Y72.8711
G01 X10.8731 Y72.7764 Z-6.3104
G01 X10.5576 Y72.3900 Z-5.8747
G01 X10.6325 Y72.4791 Z-5.9792
G01 X10.6688 Y72.5246 Z-6.0308
G01 X10.7964 Y72.6813 Z-6.2063
G01 X10.8766 Y72.7809 Z-6.3153
G01 X10.9839 Y72.8056 Z-6.3500
G01 X11.0673 Y72.7995
G01 X11.1611 Y72.7967
G01 X11.2549 Y72.7938
G01 X11.3486 Y72.7910
G01 X11.4588 Y72.7896
G01 X11.5664
G01 X11.6740
G01 X11.8210 Y72.7913
G01 X11.9197 Y72.7939
G01 X12.0183 Y72.7964
G01 X12.1539 Y72.8033
G01 X12.4158 Y72.5486 Z-6.0698
G01 X12.7617 Y72.1594 Z-5.6195
G01 X12.7412 Y72.1823 Z-5.6470
G01 X12.5780 Y72.3659 Z-5.8628
G01 X12.3878 Y72.5798 Z-6.1045
G01 X12.2231 Y72.7655 Z-6.3068
G01 X12.1778 Y72.8089 Z-6.3500
G01 X12.1574 Y72.8738
G01 X12.1311 Y72.9270
G01 X12.0972 Y72.9793
G01 X12.0366 Y73.0563
G01 X11.9923 Y73.1058
G01 X11.9366 Y73.1630
G01 X11.9008 Y73.1981
G01 X11.8355 Y73.2575
G01 X11.7822 Y73.2979
G01 X11.6225 Y73.4151
G01 X11.5355 Y73.4800
G01 X11.4484 Y73.5449
G01 X11.2879 Y73.6663
G01 X11.2055 Y73.7297
G01 X11.1231 Y73.7930
G01 X10.9612 Y73.9196
G01 X10.8835 Y73.9813
G01 X10.8059 Y74.0431
G01 X10.6542 Y74.1910 Z-6.3304
G01 X10.6076 Y74.2832 Z-6.2890
G01 X10.5610 Y74.3753 Z-6.2476
G01 X10.4574 Y74.5865 Z-6.1527
G01 X10.4162 Y74.6767 Z-6.1111
G01 X10.3753 Y74.7671 Z-6.0692
G01 X10.2810 Y74.9930 Z-5.9616
G01 X10.2470 Y75.0829 Z-5.9175
G01 X10.2130 Y75.1728 Z-5.8733
G01 X10.1218 Y75.4361 Z-5.7414
G01 X10.0803 Y75.5689 Z-5.6733
G01 X9.9955 Y75.8706 Z-5.5156
G01 X9.9626 Y75.9999 Z-5.4472
G01 X9.8927 Y76.3169 Z-5.2760
G01 X9.8693 Y76.4433 Z-5.2063
G01 X9.8151 Y76.7756 Z-5.0222
G01 X9.7989 Y76.8966 Z-4.9545
G01 X9.7610 Y77.2437 Z-4.7591
G01 X9.7510 Y77.3582 Z-4.6946
G01 X9.7302 Y77.7196 Z-4.4892
G01 X9.7235 Y78.2024 Z-4.2148
G01 X9.7419 Y78.6906 Z-3.9386
G01 X9.7918 Y79.2251 Z-3.6401
G01 X9.8665 Y79.7142 Z-3.3726
G01 X9.9706 Y80.2007 Z-3.1145
G01 X10.1061 Y80.6796 Z-2.8707
G01 X10.2758 Y81.1439 Z-2.6445
G01 X10.4844 Y81.6022 Z-2.4376
G01 X10.7099 Y82.0081 Z-2.2715
G01 X10.9339 Y82.3464 Z-2.1459
G01 X11.1521 Y82.6334 Z-2.0507
G01 X11.3647 Y82.8827 Z-1.9771
G01 X11.5460 Y83.0762 Z-1.9254
G01 X11.6028 Y83.1326 Z-1.9103
G01 X11.7528 Y83.2765 Z-1.8746
G01 X11.8158 Y83.3351 Z-1.8611
G01 X11.9592 Y83.4647 Z-1.8336
G01 X12.0295 Y83.5250 Z-1.8206
G01 X12.1707 Y83.6423 Z-1.7963
G01 X12.2479 Y83.7049 Z-1.7843
G01 X12.3867 Y83.8149 Z-1.7647
G01 X12.4707 Y83.8802 Z-1.7541
G01 X12.6099 Y83.9840 Z-1.7365
G01 X12.7020 Y84.0506 Z-1.7254
G01 X12.8423 Y84.1504 Z-1.7099
G01 X12.9415 Y84.2198 Z-1.6999
G01 X13.0658 Y84.3056 Z-1.6885
G01 X13.1372 Y84.3529 Z-1.6817
G01 X13.2089 Y84.3999 Z-1.6744
G01 X13.3181 Y84.4705 Z-1.6643
G01 X13.3946 Y84.5193 Z-1.6578
G01 X13.4711 Y84.5681 Z-1.6513
G01 X13.5812 Y84.6374 Z-1.6427
G01 X13.6626 Y84.6880 Z-1.6369
G01 X13.7447 Y84.7375 Z-1.6297
G01 X13.8575 Y84.8044 Z-1.6203
G01 X13.9447 Y84.8555 Z-1.6136
G01 X14.0318 Y84.9067 Z-1.6068
G01 X14.1465 Y84.9732 Z-1.5986
G01 X14.2387 Y85.0261 Z-1.5924
G01 X14.3314 Y85.0781 Z-1.5852
G01 X14.4496 Y85.1429 Z-1.5758
G01 X14.5477 Y85.1961 Z-1.5685
G01 X14.6458 Y85.2493 Z-1.5612
G01 X14.7667 Y85.3144 Z-1.5527
G01 X14.8698 Y85.3693 Z-1.5459
G01 X14.9737 Y85.4229 Z-1.5374
G01 X15.0853 Y85.4796 Z-1.5285
G01 X15.1671 Y85.5209 Z-1.5223
G01 X15.2489 Y85.5621 Z-1.5161
G01 X15.3307 Y85.6034 Z-1.5099
G01 X15.4881 Y85.6801 Z-1.5004
G01 X15.5903 Y85.7270 Z-1.4941
G01 X15.6927 Y85.7736 Z-1.4874
G01 X15.8317 Y85.8356 Z-1.4794
G01 X15.9346 Y85.8808 Z-1.4742
G01 X16.0376 Y85.9259 Z-1.4691
G01 X16.1771 Y85.9855 Z-1.4627
G01 X16.2813 Y86.0276 Z-1.4572
G01 X16.3856 Y86.0697 Z-1.4518
G01 X16.5262 Y86.1254 Z-1.4454
G01 X16.6311 Y86.1662 Z-1.4415
G01 X16.7360 Y86.2069 Z-1.4375
G01 X16.8774 Y86.2596 Z-1.4321
G01 X16.9837 Y86.2973 Z-1.4279
G01 X17.0899 Y86.3351 Z-1.4236
G01 X17.2322 Y86.3845 Z-1.4190
G01 X17.3391 Y86.4209 Z-1.4162
G01 X17.4461 Y86.4574 Z-1.4134
G01 X17.5894 Y86.5032 Z-1.4090
G01 X17.6977 Y86.5367 Z-1.4060
G01 X17.8061 Y86.5701 Z-1.4029
G01 X17.9500 Y86.6135 Z-1.3999
G01 X18.0591 Y86.6456 Z-1.3983
G01 X18.1683 Y86.6777 Z-1.3967
G01 X18.3134 Y86.7170 Z-1.3933
G01 X18.4240 Y86.7461 Z-1.3915
G01 X18.5345 Y86.7753 Z-1.3896
G01 X18.6801 Y86.8126 Z-1.3882
G01 X18.7916 Y86.8405 Z-1.3878
G01 X18.9033 Y86.8678 Z-1.3868
G01 X19.0500 Y86.9011 Z-1.3850
G01 X19.1629 Y86.9260 Z-1.3843
G01 X19.2758 Y86.9509 Z-1.3836
G01 X19.4232 Y86.9824 Z-1.3837
G01 X19.5371 Y87.0061 Z-1.3844
G01 X19.6513 Y87.0286 Z-1.3841
G01 X19.7854 Y87.0535 Z-1.3837
G01 X19.8719 Y87.0690 Z-1.3841
G01 X19.9584 Y87.0845 Z-1.3844
G01 X20.0450 Y87.1000 Z-1.3848
G01 X20.1652 Y87.1207 Z-1.3860
G01 X20.2526 Y87.1353 Z-1.3874
G01 X20.3400 Y87.1492 Z-1.3883
G01 X20.4276 Y87.1625 Z-1.3884
G01 X20.5486 Y87.1800 Z-1.3894
G01 X20.6371 Y87.1923 Z-1.3906
G01 X20.7255 Y87.2046 Z-1.3918
G01 X20.8140 Y87.2169 Z-1.3930
G01 X20.9355 Y87.2331 Z-1.3954
G01 X21.0249 Y87.2444 Z-1.3976
G01 X21.1144 Y87.2547 Z-1.3988
G01 X21.2039 Y87.2647 Z-1.3998
G01 X21.3262 Y87.2777 Z-1.4018
G01 X21.4167 Y87.2868 Z-1.4039
G01 X21.5071 Y87.2959 Z-1.4059
G01 X21.5976 Y87.3050 Z-1.4080
G01 X21.7205 Y87.3167 Z-1.4114
G01 X21.8120 Y87.3244 Z-1.4142
G01 X21.9035 Y87.3313 Z-1.4160
G01 X21.9950 Y87.3381 Z-1.4178
G01 X22.1187 Y87.3467 Z-1.4209
G01 X22.2112 Y87.3525 Z-1.4238
G01 X22.3037 Y87.3584 Z-1.4266
G01 X22.3963 Y87.3643 Z-1.4295
G01 X22.5206 Y87.3715 Z-1.4340
G01 X22.6143 Y87.3755 Z-1.4369
G01 X22.7079 Y87.3791 Z-1.4395
G01 X22.8015 Y87.3827 Z-1.4421
G01 X22.9398 Y87.3871 Z-1.4470
G01 X23.0461 Y87.3898 Z-1.4514
G01 X23.1524 Y87.3925 Z-1.4557
G01 X23.2586 Y87.3952 Z-1.4601
G01 X23.3649 Y87.3972 Z-1.4638
G01 X23.4711 Y87.3984 Z-1.4667
G01 X23.6244 Y87.3990 Z-1.4722
G01 X23.7280 Y87.3985 Z-1.4768
G01 X23.8317 Y87.3980 Z-1.4813
G01 X23.9353 Y87.3975 Z-1.4859
G01 X24.0389 Y87.3971 Z-1.4905
G01 X24.1425 Y87.3959 Z-1.4944
G01 X24.2966 Y87.3918 Z-1.5004
G01 X24.3976 Y87.3883 Z-1.5053
G01 X24.4986 Y87.3847 Z-1.5102
G01 X24.5996 Y87.3812 Z-1.5150
G01 X24.7006 Y87.3776 Z-1.5199
G01 X24.8016 Y87.3741 Z-1.5248
G01 X24.9569 Y87.3662 Z-1.5327
G01 X25.0553 Y87.3597 Z-1.5380
G01 X25.1537 Y87.3531 Z-1.5433
G01 X25.2522 Y87.3466 Z-1.5485
G01 X25.3506 Y87.3401 Z-1.5538
G01 X25.4490 Y87.3336 Z-1.5591
G01 X25.6059 Y87.3216 Z-1.5690
G01 X25.7020 Y87.3134 Z-1.5760
G01 X25.7981 Y87.3052 Z-1.5830
G01 X25.8942 Y87.2970 Z-1.5900
G01 X25.9901 Y87.2879 Z-1.5961
G01 X26.0860 Y87.2784 Z-1.6018
G01 X26.2449 Y87.2611 Z-1.6129
G01 X26.3385 Y87.2500 Z-1.6204
G01 X26.4322 Y87.2388 Z-1.6279
G01 X26.5258 Y87.2277 Z-1.6354
G01 X26.6195 Y87.2165 Z-1.6429
G01 X26.7131 Y87.2054 Z-1.6504
G01 X26.8748 Y87.1844 Z-1.6650
G01 X26.9663 Y87.1712 Z-1.6739
G01 X27.0576 Y87.1572 Z-1.6819
G01 X27.1489 Y87.1431 Z-1.6899
G01 X27.2401 Y87.1290 Z-1.6980
G01 X27.3314 Y87.1150 Z-1.7060
G01 X27.5048 Y87.0863 Z-1.7232
G01 X27.6120 Y87.0673 Z-1.7351
G01 X27.7192 Y87.0484 Z-1.7469
G01 X27.8264 Y87.0295 Z-1.7587
G01 X27.9336 Y87.0106 Z-1.7705
G01 X28.1188 Y86.9730 Z-1.7905
G01 X28.2234 Y86.9506 Z-1.8031
G01 X28.3279 Y86.9282 Z-1.8156
G01 X28.4325 Y86.9058 Z-1.8282
G01 X28.5371 Y86.8834 Z-1.8407
G01 X28.7263 Y86.8405 Z-1.8657
G01 X28.8289 Y86.8160 Z-1.8805
G01 X28.9313 Y86.7909 Z-1.8948
G01 X29.0334 Y86.7650 Z-1.9082
G01 X29.1354 Y86.7391 Z-1.9215
G01 X29.3280 Y86.6876 Z-1.9491
G01 X29.4283 Y86.6595 Z-1.9647
G01 X29.5286 Y86.6314 Z-1.9804
G01 X29.6288 Y86.6033 Z-1.9961
G01 X29.7291 Y86.5752 Z-2.0117
G01 X29.9261 Y86.5159 Z-2.0438
G01 X30.0241 Y86.4842 Z-2.0603
G01 X30.1221 Y86.4525 Z-2.0769
G01 X30.2201 Y86.4208 Z-2.0934
G01 X30.3181 Y86.3891 Z-2.1100
G01 X30.5196 Y86.3211 Z-2.1468
G01 X30.6163 Y86.2871 Z-2.1658
G01 X30.7129 Y86.2531 Z-2.1848
G01 X30.8089 Y86.2182 Z-2.2027
G01 X30.9047 Y86.1829 Z-2.2201
G01 X31.1103 Y86.1040 Z-2.2605
G01 X31.2049 Y86.0663 Z-2.2805
G01 X31.2995 Y86.0286 Z-2.3005
G01 X31.3941 Y85.9909 Z-2.3205
G01 X31.4888 Y85.9532 Z-2.3405
G01 X31.6993 Y85.8645 Z-2.3869
G01 X31.7920 Y85.8230 Z-2.4079
G01 X31.8848 Y85.7815 Z-2.4289
G01 X31.9775 Y85.7400 Z-2.4500
G01 X32.0702 Y85.6985 Z-2.4710
G01 X32.2853 Y85.5988 Z-2.5231
G01 X32.3772 Y85.5546 Z-2.5468
G01 X32.4690 Y85.5103 Z-2.5703
G01 X32.5599 Y85.4649 Z-2.5924
G01 X32.6509 Y85.4195 Z-2.6145
G01 X32.8691 Y85.3069 Z-2.6710
G01 X32.9595 Y85.2588 Z-2.6959
G01 X33.0498 Y85.2106 Z-2.7207
G01 X33.1401 Y85.1625 Z-2.7456
G01 X33.2304 Y85.1144 Z-2.7705
G01 X33.4518 Y84.9886 Z-2.8322
G01 X33.5405 Y84.9363 Z-2.8583
G01 X33.6292 Y84.8841 Z-2.8843
G01 X33.7180 Y84.8319 Z-2.9103
G01 X33.8067 Y84.7796 Z-2.9364
G01 X34.0328 Y84.6425 Z-3.0066
G01 X34.1200 Y84.5860 Z-3.0338
G01 X34.2072 Y84.5296 Z-3.0611
G01 X34.2944 Y84.4731 Z-3.0883
G01 X34.3816 Y84.4166 Z-3.1156
G01 X34.6090 Y84.2652 Z-3.1906
G01 X34.6961 Y84.2055 Z-3.2209
G01 X34.7830 Y84.1457 Z-3.2508
G01 X34.8686 Y84.0849 Z-3.2793
G01 X34.9543 Y84.0241 Z-3.3078
G01 X35.1448 Y83.8862 Z-3.3736
G01 X35.2258 Y83.8264 Z-3.4027
G01 X35.3068 Y83.7665 Z-3.4318
G01 X35.3879 Y83.7067 Z-3.4609
G01 X35.4689 Y83.6468 Z-3.4900
G01 X35.6878 Y83.4751 Z-3.5691
G01 X35.7677 Y83.4108 Z-3.5995
G01 X35.8476 Y83.3466 Z-3.6298
G01 X35.9274 Y83.2824 Z-3.6601
G01 X36.0073 Y83.2182 Z-3.6904
G01 X36.2264 Y83.0350 Z-3.7760
G01 X36.3051 Y82.9663 Z-3.8075
G01 X36.3838 Y82.8976 Z-3.8390
G01 X36.4624 Y82.8289 Z-3.8705
G01 X36.5411 Y82.7602 Z-3.9020
G01 X36.7592 Y82.5655 Z-3.9933
G01 X36.8367 Y82.4922 Z-4.0260
G01 X36.9141 Y82.4190 Z-4.0587
G01 X36.9916 Y82.3457 Z-4.0913
G01 X37.0690 Y82.2725 Z-4.1240
G01 X37.2832 Y82.0654 Z-4.2183
G01 X37.3610 Y81.9883 Z-4.2540
G01 X37.4372 Y81.9104 Z-4.2878
G01 X37.5134 Y81.8325 Z-4.3216
G01 X37.5895 Y81.7546 Z-4.3554
G01 X37.7990 Y81.5359 Z-4.4523
G01 X37.8757 Y81.4541 Z-4.4893
G01 X37.9515 Y81.3719 Z-4.5253
G01 X38.0263 Y81.2893 Z-4.5602
G01 X38.1011 Y81.2067 Z-4.5951
G01 X38.3051 Y80.9768 Z-4.6942
G01 X38.3805 Y80.8902 Z-4.7323
G01 X38.4556 Y80.8035 Z-4.7701
G01 X38.5289 Y80.7161 Z-4.8061
G01 X38.6023 Y80.6287 Z-4.8420
G01 X38.7939 Y80.3961 Z-4.9396
G01 X38.8555 Y80.3198 Z-4.9723
G01 X38.9171 Y80.2436 Z-5.0049
G01 X38.9778 Y80.1670 Z-5.0366
G01 X39.0377 Y80.0901 Z-5.0674
G01 X39.0976 Y80.0133 Z-5.0982
G01 X39.2765 Y79.7791 Z-5.1939
G01 X39.3368 Y79.6987 Z-5.2274
G01 X39.3971 Y79.6184 Z-5.2609
G01 X39.4564 Y79.5377 Z-5.2933
G01 X39.5149 Y79.4567 Z-5.3249
G01 X39.5734 Y79.3758 Z-5.3565
G01 X39.7453 Y79.1336 Z-5.4529
G01 X39.8042 Y79.0491 Z-5.4871
G01 X39.8628 Y78.9645 Z-5.5210
G01 X39.9194 Y78.8793 Z-5.5529
G01 X39.9759 Y78.7942 Z-5.5847
G01 X40.0325 Y78.7090 Z-5.6166
G01 X40.1956 Y78.4592 Z-5.7118
G01 X40.2522 Y78.3704 Z-5.7459
G01 X40.3071 Y78.2811 Z-5.7783
G01 X40.3620 Y78.1918 Z-5.8107
G01 X40.4169 Y78.1025 Z-5.8431
G01 X40.4719 Y78.0133 Z-5.8756
G01 X40.6258 Y77.7569 Z-5.9694
G01 X40.6789 Y77.6635 Z-6.0022
G01 X40.7319 Y77.5700 Z-6.0350
G01 X40.7850 Y77.4766 Z-6.0678
G01 X40.8381 Y77.3832 Z-6.1006
G01 X40.8911 Y77.2898 Z-6.1334
G01 X41.0325 Y77.0271 Z-6.2221
G01 X41.0834 Y76.9295 Z-6.2551
G01 X41.1344 Y76.8319 Z-6.2881
G01 X41.1854 Y76.7344 Z-6.3211
G01 X41.2323 Y76.6360 Z-6.3500
G01 X41.2508 Y76.5327
G01 X41.2967 Y76.2533
G01 X41.3128 Y76.1467
G01 X41.3288 Y76.0401
G01 X41.3448 Y75.9334
G01 X41.3608 Y75.8268
G01 X41.3769 Y75.7201
G01 X41.4134 Y75.4537
G01 X41.4250 Y75.3595
G01 X41.4367 Y75.2653
G01 X41.4483 Y75.1711
G01 X41.4599 Y75.0769
G01 X41.4715 Y74.9827
G01 X41.4832 Y74.8885
G01 X41.5112 Y74.6350
G01 X41.5207 Y74.5380
G01 X41.5302 Y74.4410
G01 X41.5397 Y74.3441
G01 X41.5493 Y74.2471
G01 X41.5588 Y74.1501
G01 X41.5683 Y74.0531
G01 X41.5897 Y73.8045
G01 X41.5971 Y73.7048
G01 X41.6045 Y73.6050
G01 X41.6119 Y73.5052
G01 X41.6193 Y73.4055
G01 X41.6267 Y73.3057
G01 X41.6341 Y73.2059
G01 X41.6494 Y72.9620
G01 X41.6546 Y72.8594
G01 X41.6599 Y72.7569
G01 X41.6652 Y72.6543
G01 X41.6705 Y72.5518
G01 X41.6758 Y72.4492
G01 X41.6811 Y72.3467
G01 X41.6908 Y72.1070
G01 X41.6940 Y72.0017
G01 X41.6972 Y71.8963
G01 X41.7003 Y71.7910
G01 X41.7035 Y71.6857
G01 X41.7067 Y71.5803
G01 X41.7099 Y71.4750
G01 X41.7145 Y71.2460
G01 X41.7154 Y71.1514
G01 X41.7163 Y71.0568
G01 X41.7172 Y70.9622
G01 X41.7182 Y70.8676
G01 X41.7191 Y70.7730
G01 X41.7200 Y70.6784
G01 X41.7209 Y70.5838
G01 X41.7207 Y70.3494
G01 X41.7195 Y70.2457
G01 X41.7183 Y70.1421
G01 X41.7171 Y70.0385
G01 X41.7159 Y69.9348
G01 X41.7147 Y69.8312
G01 X41.7135 Y69.7276
G01 X41.7123 Y69.6239
G01 X41.7111 Y69.5203
G01 X41.7052 Y69.2671
G01 X41.7016 Y69.1654
G01 X41.6980 Y69.0637
G01 X41.6944 Y68.9620
G01 X41.6909 Y68.8603
G01 X41.6873 Y68.7586
G01 X41.6837 Y68.6569
G01 X41.6801 Y68.5552
G01 X41.6765 Y68.4535
G01 X41.6643 Y68.1968
G01 X41.6583 Y68.0970
G01 X41.6524 Y67.9973
G01 X41.6464 Y67.8975
G01 X41.6404 Y67.7978
G01 X41.6344 Y67.6980
G01 X41.6284 Y67.5983
G01 X41.6225 Y67.4985
G01 X41.6165 Y67.3988
G01 X41.5976 Y67.1385
G01 X41.5892 Y67.0407
G01 X41.5808 Y66.9429
G01 X41.5725 Y66.8451
G01 X41.5641 Y66.7473
G01 X41.5557 Y66.6495
G01 X41.5474 Y66.5517
G01 X41.5390 Y66.4539
G01 X41.5306 Y66.3561
G01 X41.5046 Y66.0923
G01 X41.4938 Y65.9964
G01 X41.4830 Y65.9006
G01 X41.4723 Y65.8047
G01 X41.4615 Y65.7089
G01 X41.4508 Y65.6130
G01 X41.4400 Y65.5171
G01 X41.4292 Y65.4213
G01 X41.4185 Y65.3254
G01 X41.3848 Y65.0582
G01 X41.3717 Y64.9643
G01 X41.3585 Y64.8704
G01 X41.3454 Y64.7765
G01 X41.3322 Y64.6826
G01 X41.3190 Y64.5886
G01 X41.3059 Y64.4947
G01 X41.2927 Y64.4008
G01 X41.2796 Y64.3069
G01 X41.2369 Y64.0307
G01 X41.2194 Y63.9273
G01 X41.2019 Y63.8238
G01 X41.1844 Y63.7203
G01 X41.1669 Y63.6168
G01 X41.1495 Y63.5134
G01 X41.1320 Y63.4099
G01 X41.1145 Y63.3064
G01 X41.0621 Y63.0216
G01 X41.0419 Y62.9203
G01 X41.0217 Y62.8190
G01 X41.0016 Y62.7177
G01 X40.9814 Y62.6165
G01 X40.9612 Y62.5152
G01 X40.9410 Y62.4139
G01 X40.9209 Y62.3126
G01 X40.8591 Y62.0253
G01 X40.8363 Y61.9262
G01 X40.8134 Y61.8271
G01 X40.7906 Y61.7280
G00 Z5.0000
G00 X38.9903 Y80.1510
G01 Z-2.5215
G01 X39.0565 Y80.0659 Z-2.5386
G01 X39.1228 Y79.9809 Z-2.5556
G01 X39.1887 Y79.8955 Z-2.5729
G01 X39.2540 Y79.8091 Z-2.5907
G01 X39.3191 Y79.7223 Z-2.6088
G01 X39.3842 Y79.6356 Z-2.6269
G01 X39.4595 Y79.5334 Z-2.6475
G01 X39.5227 Y79.4459 Z-2.6646
G01 X39.5859 Y79.3584 Z-2.6816
G01 X39.6490 Y79.2707 Z-2.6989
G01 X39.7115 Y79.1821 Z-2.7166
G01 X39.7736 Y79.0931 Z-2.7347
G01 X39.8701 Y78.9535 Z-2.7626
G01 X39.9284 Y78.8657 Z-2.7790
G01 X39.9868 Y78.7779 Z-2.7954
G01 X40.0451 Y78.6901 Z-2.8118
G01 X40.1033 Y78.6021 Z-2.8284
G01 X40.1609 Y78.5133 Z-2.8454
G01 X40.2181 Y78.4241 Z-2.8627
G01 X40.2643 Y78.3507 Z-2.8765
G01 X40.3183 Y78.2629 Z-2.8925
G01 X40.3723 Y78.1752 Z-2.9084
G01 X40.4262 Y78.0874 Z-2.9243
G01 X40.4802 Y77.9996 Z-2.9403
G01 X40.5341 Y77.9117 Z-2.9563
G01 X40.6182 Y77.7703 Z-2.9823
G01 X40.6680 Y77.6827 Z-2.9977
G01 X40.7177 Y77.5950 Z-3.0131
G01 X40.7675 Y77.5074 Z-3.0285
G01 X40.8173 Y77.4198 Z-3.0439
G01 X40.8671 Y77.3321 Z-3.0592
G01 X40.9430 Y77.1968 Z-3.0826
G01 X40.9949 Y77.0990 Z-3.0989
G01 X41.0463 Y77.0006 Z-3.1155
G01 X41.0977 Y76.9023 Z-3.1322
G01 X41.1490 Y76.8039 Z-3.1488
G01 X41.2224 Y76.6624 Z-3.1725
G01 X41.2891 Y76.5825 Z-3.1750
G01 X41.3594 Y76.5060
G01 X41.4298 Y76.4295
G01 X41.5001 Y76.3530
G01 X41.5908 Y76.2535
G01 X41.6567 Y76.1753
G01 X41.7225 Y76.0972
G01 X41.7883 Y76.0190
G01 X41.8541 Y75.9408
G01 X41.9305 Y75.8496
G01 X41.9918 Y75.7698
G01 X42.0530 Y75.6899
G01 X42.1143 Y75.6100
G01 X42.1756 Y75.5302
G01 X42.2394 Y75.4470
G01 X42.2961 Y75.3654
G01 X42.3529 Y75.2839
G01 X42.4096 Y75.2024
G01 X42.4663 Y75.1208
G01 X42.5716 Y74.9617
G01 X42.6238 Y74.8785
G01 X42.6760 Y74.7953
G01 X42.7282 Y74.7120
G01 X42.8200 Y74.5576
G01 X42.8677 Y74.4727
G01 X42.9153 Y74.3878
G01 X42.9630 Y74.3029
G01 X43.0431 Y74.1517
G01 X43.0862 Y74.0651
G01 X43.1293 Y73.9785
G01 X43.1724 Y73.8919
G01 X43.2424 Y73.7423
G01 X43.2809 Y73.6541
G01 X43.3195 Y73.5658
G01 X43.3581 Y73.4776
G01 X43.4192 Y73.3276
G01 X43.4533 Y73.2377
G01 X43.4873 Y73.1478
G01 X43.5213 Y73.0578
G01 X43.5747 Y72.9054
G01 X43.6042 Y72.8138
G01 X43.6337 Y72.7221
G01 X43.6632 Y72.6305
G01 X43.7095 Y72.4733
G01 X43.7345 Y72.3800
G01 X43.7594 Y72.2866
G01 X43.7844 Y72.1933
G01 X43.8240 Y72.0289
G01 X43.8444 Y71.9339
G01 X43.8649 Y71.8390
G01 X43.8853 Y71.7440
G01 X43.9182 Y71.5701
G01 X43.9341 Y71.4734
G01 X43.9500 Y71.3767
G01 X43.9659 Y71.2801
G01 X43.9918 Y71.0944
G01 X44.0031 Y70.9961
G01 X44.0144 Y70.8977
G01 X44.0258 Y70.7994
G01 X44.0372 Y70.7001
G01 X44.0440 Y70.6001
G01 X44.0508 Y70.5001
G01 X44.0576 Y70.4000
G01 X44.0644 Y70.3000
G01 X44.0718 Y70.1869
G01 X44.0740 Y70.0852
G01 X44.0763 Y69.9835
G01 X44.0786 Y69.8818
G01 X44.0808 Y69.7801
G01 X44.0831 Y69.6784
G01 Y69.6242
G01 X44.0811 Y69.5173
G01 X44.0791 Y69.4104
G01 X44.0772 Y69.3035
G01 X44.0752 Y69.1967
G01 X44.0722 Y69.1165
G01 X44.0663 Y69.0110
G01 X44.0604 Y68.9056
G01 X44.0545 Y68.8002
G01 X44.0486 Y68.6947
G01 X44.0433 Y68.6239
G01 X44.0335 Y68.5199
G01 X44.0236 Y68.4159
G01 X44.0138 Y68.3119
G01 X44.0039 Y68.2080
G01 X43.9968 Y68.1455
G01 X43.9830 Y68.0430
G01 X43.9692 Y67.9404
G01 X43.9554 Y67.8379
G01 X43.9417 Y67.7353
G01 X43.9332 Y67.6803
G01 X43.9154 Y67.5792
G01 X43.8977 Y67.4780
G01 X43.8800 Y67.3769
G01 X43.8527 Y67.2269
G01 X43.8310 Y67.1273
G01 X43.8094 Y67.0276
G01 X43.7877 Y66.9279
G01 X43.7555 Y66.7843
G01 X43.7299 Y66.6860
G01 X43.7043 Y66.5878
G01 X43.6787 Y66.4896
G01 X43.6417 Y66.3510
G01 X43.6122 Y66.2542
G01 X43.5826 Y66.1574
G01 X43.5531 Y66.0606
G01 X43.5111 Y65.9257
G01 X43.4776 Y65.8304
G01 X43.4441 Y65.7350
G01 X43.4106 Y65.6397
G01 X43.3632 Y65.5072
G01 X43.3258 Y65.4133
G01 X43.2884 Y65.3194
G01 X43.2510 Y65.2255
G01 X43.1977 Y65.0942
G01 X43.1564 Y65.0017
G01 X43.1150 Y64.9092
G01 X43.0737 Y64.8168
G01 X43.0139 Y64.6854
G01 X42.9686 Y64.5944
G01 X42.9234 Y64.5034
G01 X42.8781 Y64.4123
G01 X42.8111 Y64.2799
G01 X42.7618 Y64.1903
G01 X42.7126 Y64.1007
G01 X42.6634 Y64.0111
G01 X42.6141 Y63.9216
G01 X42.5882 Y63.8766
G01 X42.5350 Y63.7885
G01 X42.4819 Y63.7003
G01 X42.4287 Y63.6122
G01 X42.3755 Y63.5241
G01 X42.3444 Y63.4748
G01 X42.2873 Y63.3881
G01 X42.2302 Y63.3014
G01 X42.1731 Y63.2147
G01 X42.1160 Y63.1280
G01 X42.0787 Y63.0739
G01 X42.0177 Y62.9886
G01 X41.9566 Y62.9033
G01 X41.8956 Y62.8181
G01 X41.8345 Y62.7328
G01 X41.7901 Y62.6732
G01 X41.7251 Y62.5894
G01 X41.6601 Y62.5056
G01 X41.5951 Y62.4218
G01 X41.5301 Y62.3380
G01 X41.4904 Y62.2881
G01 X41.4301 Y62.2160
G01 X41.3698 Y62.1439
G01 X41.3095 Y62.0719
G01 X41.2492 Y61.9998
G01 X41.1888 Y61.9277
G01 X41.1536 Y61.8871
G01 X41.0898 Y61.8163
G01 X41.0260 Y61.7455
G01 X40.9623 Y61.6747
G01 X40.8985 Y61.6038
G01 X40.8348 Y61.5330
G01 X40.7908 Y61.4860
G01 X40.7236 Y61.4164
G01 X40.6739 Y61.3300 Z-3.1629
G01 X40.6259 Y61.2419 Z-3.1495
G01 X40.5774 Y61.1542 Z-3.1365
G01 X40.4877 Y60.9998 Z-3.1128
G01 X40.4343 Y60.9105 Z-3.0984
G01 X40.3810 Y60.8211 Z-3.0839
G01 X40.3276 Y60.7318 Z-3.0695
G01 X40.2742 Y60.6425 Z-3.0551
G01 X40.2482 Y60.6000 Z-3.0479
G01 X40.1911 Y60.5089 Z-3.0320
G01 X40.1340 Y60.4177 Z-3.0160
G01 X40.0767 Y60.3268 Z-3.0001
G01 X40.0188 Y60.2365 Z-2.9848
G01 X39.9606 Y60.1467 Z-2.9697
G01 X39.9162 Y60.0798 Z-2.9580
G01 X39.8540 Y59.9881 Z-2.9413
G01 X39.7919 Y59.8964 Z-2.9246
G01 X39.7298 Y59.8048 Z-2.9080
G01 X39.6677 Y59.7131 Z-2.8913
G01 X39.6056 Y59.6214 Z-2.8746
G01 X39.5531 Y59.5452 Z-2.8604
G01 X39.4942 Y59.4623 Z-2.8443
G01 X39.4346 Y59.3801 Z-2.8288
G01 X39.3749 Y59.2982 Z-2.8134
G01 X39.3151 Y59.2163 Z-2.7980
G01 X39.2553 Y59.1344 Z-2.7827
G01 X39.1956 Y59.0526 Z-2.7673
G01 X39.1337 Y58.9695 Z-2.7512
G01 X39.0704 Y58.8858 Z-2.7344
G01 X39.0070 Y58.8021 Z-2.7176
G01 X38.9436 Y58.7185 Z-2.7008
G01 X38.8799 Y58.6353 Z-2.6842
G01 X38.8156 Y58.5529 Z-2.6682
G01 X38.7512 Y58.4707 Z-2.6524
G01 X38.6684 Y58.3670 Z-2.6316
G01 X38.6002 Y58.2831 Z-2.6143
G01 X38.5321 Y58.1992 Z-2.5971
G01 X38.4640 Y58.1152 Z-2.5798
G01 X38.3959 Y58.0313 Z-2.5625
G01 X38.3277 Y57.9474 Z-2.5452
G01 X38.2593 Y57.8638 Z-2.5281
G01 X38.1548 Y57.7409 Z-2.5028
G01 X38.0818 Y57.6569 Z-2.4851
G01 X38.0088 Y57.5728 Z-2.4674
G01 X37.9359 Y57.4887 Z-2.4497
G01 X37.8629 Y57.4047 Z-2.4319
G01 X37.7900 Y57.3206 Z-2.4142
G01 X37.7170 Y57.2366 Z-2.3965
G01 X37.6025 Y57.1074 Z-2.3687
G01 X37.5326 Y57.0316 Z-2.3523
G01 X37.4625 Y56.9560 Z-2.3360
G01 X37.3924 Y56.8803 Z-2.3197
G01 X37.3224 Y56.8047 Z-2.3035
G01 X37.2523 Y56.7291 Z-2.2872
G01 X37.1822 Y56.6535 Z-2.2709
G01 X37.1122 Y56.5778 Z-2.2546
G01 X36.9874 Y56.4452 Z-2.2253
G01 X36.9133 Y56.3690 Z-2.2083
G01 X36.8387 Y56.2935 Z-2.1917
G01 X36.7642 Y56.2181 Z-2.1751
G01 X36.6897 Y56.1426 Z-2.1586
G01 X36.6152 Y56.0671 Z-2.1420
G01 X36.5407 Y55.9917 Z-2.1255
G01 X36.4661 Y55.9162 Z-2.1089
G01 X36.3196 Y55.7699 Z-2.0760
G01 X36.2410 Y55.6940 Z-2.0587
G01 X36.1619 Y55.6188 Z-2.0420
G01 X36.0829 Y55.5437 Z-2.0252
G01 X36.0039 Y55.4685 Z-2.0084
G01 X35.9249 Y55.3934 Z-1.9917
G01 X35.8458 Y55.3182 Z-1.9749
G01 X35.7668 Y55.2431 Z-1.9582
G01 X35.6848 Y55.1652 Z-1.9408
G01 X35.6095 Y55.0958 Z-1.9246
G01 X35.5337 Y55.0275 Z-1.9090
G01 X35.4577 Y54.9597 Z-1.8937
G01 X35.3818 Y54.8918 Z-1.8783
G01 X35.3058 Y54.8239 Z-1.8629
G01 X35.2298 Y54.7560 Z-1.8475
G01 X35.1539 Y54.6881 Z-1.8322
G01 X35.0779 Y54.6202 Z-1.8168
G01 X35.0019 Y54.5523 Z-1.8014
G01 X34.9141 Y54.4746 Z-1.7839
G01 X34.8341 Y54.4070 Z-1.7684
G01 X34.7540 Y54.3397 Z-1.7529
G01 X34.6739 Y54.2724 Z-1.7375
G01 X34.5938 Y54.2050 Z-1.7220
G01 X34.5136 Y54.1377 Z-1.7066
G01 X34.4335 Y54.0703 Z-1.6911
G01 X34.3534 Y54.0030 Z-1.6757
G01 X34.2733 Y53.9357 Z-1.6603
G01 X34.1928 Y53.8693 Z-1.6453
G01 X34.0880 Y53.7847 Z-1.6266
G01 X34.0037 Y53.7181 Z-1.6111
G01 X33.9195 Y53.6515 Z-1.5957
G01 X33.8352 Y53.5848 Z-1.5802
G01 X33.7509 Y53.5182 Z-1.5647
G01 X33.6666 Y53.4515 Z-1.5493
G01 X33.5823 Y53.3849 Z-1.5338
G01 X33.4977 Y53.3191 Z-1.5188
G01 X33.4124 Y53.2550 Z-1.5047
G01 X33.3270 Y53.1912 Z-1.4908
G01 X33.2416 Y53.1274 Z-1.4769
G01 X33.2096 Y53.1038 Z-1.4716
G01 X33.1282 Y53.0443 Z-1.4579
G01 X33.0468 Y52.9848 Z-1.4442
G01 X32.9654 Y52.9253 Z-1.4306
G01 X32.8840 Y52.8658 Z-1.4169
G01 X32.8022 Y52.8073 Z-1.4037
G01 X32.7201 Y52.7499 Z-1.3911
G01 X32.6378 Y52.6925 Z-1.3786
G01 X32.5556 Y52.6352 Z-1.3661
G01 X32.4734 Y52.5779 Z-1.3535
G01 X32.3912 Y52.5205 Z-1.3410
G01 X32.3090 Y52.4632 Z-1.3285
G01 X32.2699 Y52.4362 Z-1.3224
G01 X32.1844 Y52.3781 Z-1.3091
G01 X32.0985 Y52.3216 Z-1.2966
G01 X32.0123 Y52.2656 Z-1.2844
G01 X31.9262 Y52.2096 Z-1.2722
G01 X31.8401 Y52.1536 Z-1.2600
G01 X31.7539 Y52.0976 Z-1.2478
G01 X31.6678 Y52.0416 Z-1.2356
G01 X31.5817 Y51.9856 Z-1.2234
G01 X31.4953 Y51.9302 Z-1.2115
G01 X31.4084 Y51.8763 Z-1.2004
G01 X31.3215 Y51.8226 Z-1.1894
G01 X31.2718 Y51.7923 Z-1.1830
G01 X31.1817 Y51.7378 Z-1.1712
G01 X31.0917 Y51.6833 Z-1.1594
G01 X31.0016 Y51.6288 Z-1.1476
G01 X30.9115 Y51.5743 Z-1.1358
G01 X30.8212 Y51.5207 Z-1.1244
G01 X30.7303 Y51.4686 Z-1.1139
G01 X30.6394 Y51.4165 Z-1.1033
G01 X30.5486 Y51.3644 Z-1.0928
G01 X30.4577 Y51.3123 Z-1.0822
G01 X30.3669 Y51.2602 Z-1.0717
G01 X30.2760 Y51.2082 Z-1.0611
G01 X30.2205 Y51.1767 Z-1.0546
G01 X30.1332 Y51.1295 Z-1.0450
G01 X30.0457 Y51.0831 Z-1.0357
G01 X29.9582 Y51.0367 Z-1.0265
G01 X29.8707 Y50.9903 Z-1.0173
G01 X29.7832 Y50.9439 Z-1.0080
G01 X29.6958 Y50.8974 Z-0.9988
G01 X29.6083 Y50.8510 Z-0.9895
G01 X29.5206 Y50.8051 Z-0.9805
G01 X29.4324 Y50.7609 Z-0.9724
G01 X29.3442 Y50.7167 Z-0.9644
G01 X29.2560 Y50.6726 Z-0.9564
G01 X29.1678 Y50.6285 Z-0.9483
G01 X29.1070 Y50.5984 Z-0.9427
G01 X29.0159 Y50.5538 Z-0.9340
G01 X28.9248 Y50.5092 Z-0.9253
G01 X28.8334 Y50.4657 Z-0.9172
G01 X28.7416 Y50.4235 Z-0.9098
G01 X28.6498 Y50.3813 Z-0.9023
G01 X28.5580 Y50.3390 Z-0.8949
G01 X28.4662 Y50.2968 Z-0.8874
G01 X28.3744 Y50.2546 Z-0.8800
G01 X28.2827 Y50.2123 Z-0.8725
G01 X28.1907 Y50.1708 Z-0.8654
G01 X28.0982 Y50.1309 Z-0.8592
G01 X28.0057 Y50.0910 Z-0.8530
G01 X27.9369 Y50.0617 Z-0.8482
G01 X27.8415 Y50.0214 Z-0.8414
G01 X27.7462 Y49.9812 Z-0.8346
G01 X27.6508 Y49.9410 Z-0.8278
G01 X27.5554 Y49.9010 Z-0.8211
G01 X27.4594 Y49.8629 Z-0.8154
G01 X27.3634 Y49.8251 Z-0.8099
G01 X27.2674 Y49.7873 Z-0.8043
G01 X27.1714 Y49.7495 Z-0.7988
G01 X27.0753 Y49.7117 Z-0.7932
G01 X26.9793 Y49.6739 Z-0.7877
G01 X26.8832 Y49.6363 Z-0.7823
G01 X26.7866 Y49.6007 Z-0.7779
G01 X26.7142 Y49.5745 Z-0.7745
G01 X26.6218 Y49.5414 Z-0.7700
G01 X26.5293 Y49.5083 Z-0.7655
G01 X26.4369 Y49.4752 Z-0.7610
G01 X26.3444 Y49.4421 Z-0.7566
G01 X26.2520 Y49.4090 Z-0.7521
G01 X26.1592 Y49.3772 Z-0.7483
G01 X26.0662 Y49.3464 Z-0.7449
G01 X25.9732 Y49.3156 Z-0.7416
G01 X25.8802 Y49.2847 Z-0.7383
G01 X25.7872 Y49.2539 Z-0.7349
G01 X25.6942 Y49.2230 Z-0.7316
G01 X25.6012 Y49.1922 Z-0.7283
G01 X25.5080 Y49.1619 Z-0.7253
G01 X25.4272 Y49.1369 Z-0.7235
G01 X25.3792 Y49.1211 Z-0.7229
G01 X25.3316 Y49.1045 Z-0.7227
G01 X25.2724 Y49.0826 Z-0.7231
G01 X25.2137 Y49.0593 Z-0.7242
G01 X25.1553 Y49.0347 Z-0.7260
G01 X25.0972 Y49.0087 Z-0.7285
G01 X25.0393 Y48.9812 Z-0.7317
G01 X24.9816 Y48.9524 Z-0.7357
G01 X24.9241 Y48.9219 Z-0.7404
G01 X24.8665 Y48.8902 Z-0.7459
G01 X24.8081 Y48.8576 Z-0.7528
G01 X24.7496 Y48.8233 Z-0.7606
G01 X24.6908 Y48.7872 Z-0.7693
G01 X24.6318 Y48.7492 Z-0.7788
G01 X24.5726 Y48.7091 Z-0.7893
G01 X24.5129 Y48.6668 Z-0.8008
G01 X24.4409 Y48.6131 Z-0.8159
G01 X24.3681 Y48.5559 Z-0.8326
G01 X24.2946 Y48.4949 Z-0.8511
G01 X24.2196 Y48.4301 Z-0.8717
G01 X24.1418 Y48.3614 Z-0.8951
G01 X24.0627 Y48.2877 Z-0.9209
G01 X23.9820 Y48.2087 Z-0.9491
G01 X23.8997 Y48.1236 Z-0.9799
G01 X23.8156 Y48.0320 Z-1.0137
G01 X23.7296 Y47.9332 Z-1.0508
G01 X23.6412 Y47.8265 Z-1.0915
G01 X23.5473 Y47.7108 Z-1.1378
G01 X23.4497 Y47.5848 Z-1.1892
G01 X23.3909 Y47.4739 Z-1.2234
G01 X23.4269 Y47.4355 Z-1.2078
G01 X23.4626 Y47.3981 Z-1.1927
G01 X23.4980 Y47.3617 Z-1.1780
G01 X23.5330 Y47.3263 Z-1.1638
G01 X23.5677 Y47.2919 Z-1.1500
G01 X23.6021 Y47.2583 Z-1.1367
G01 X23.6362 Y47.2256 Z-1.1237
G01 X23.6700 Y47.1938 Z-1.1111
G01 X23.7035 Y47.1628 Z-1.0989
G01 X23.7367 Y47.1326 Z-1.0870
G01 X23.7696 Y47.1031 Z-1.0756
G01 X23.8023 Y47.0744 Z-1.0644
G01 X23.8347 Y47.0464 Z-1.0536
G01 X23.8669 Y47.0191 Z-1.0431
G01 X23.8988 Y46.9925 Z-1.0329
G01 X23.9305 Y46.9666 Z-1.0230
G01 X23.9620 Y46.9413 Z-1.0135
G01 X23.9932 Y46.9166 Z-1.0042
G01 X24.0243 Y46.8925 Z-0.9951
G01 X24.0550 Y46.8690 Z-0.9865
G01 X24.0852 Y46.8458 Z-0.9782
G01 X24.1150 Y46.8231 Z-0.9703
G01 X24.1447 Y46.8010 Z-0.9627
G01 X24.1742 Y46.7793 Z-0.9553
G01 X24.2035 Y46.7581 Z-0.9481
G01 X24.2473 Y46.7273 Z-0.9378
G01 X24.2908 Y46.6976 Z-0.9279
G01 X24.3339 Y46.6688 Z-0.9185
G01 X24.3768 Y46.6411 Z-0.9096
G01 X24.4195 Y46.6143 Z-0.9011
G01 X24.4619 Y46.5884 Z-0.8930
G01 X24.5040 Y46.5634 Z-0.8853
G01 X24.5460 Y46.5393 Z-0.8781
G01 X24.5877 Y46.5160 Z-0.8712
G01 X24.6293 Y46.4935 Z-0.8647
G01 X24.6707 Y46.4718 Z-0.8585
G01 X24.7120 Y46.4509 Z-0.8527
G01 X24.7531 Y46.4307 Z-0.8473
G01 X24.7941 Y46.4112 Z-0.8422
G01 X24.8350 Y46.3924 Z-0.8374
G01 X24.8758 Y46.3744 Z-0.8330
G01 X24.9165 Y46.3569 Z-0.8289
G01 X24.9572 Y46.3402 Z-0.8251
G01 X24.9975 Y46.3236 Z-0.8218
G01 X25.0511 Y46.3021 Z-0.8181
G01 X25.1047 Y46.2818 Z-0.8150
G01 X25.1584 Y46.2625 Z-0.8123
G01 X25.2121 Y46.2441 Z-0.8102
G01 X25.2660 Y46.2268 Z-0.8085
G01 X25.3200 Y46.2105 Z-0.8074
G01 X25.3743 Y46.1952 Z-0.8067
G01 X25.4287 Y46.1808 Z-0.8066
G01 X25.4834 Y46.1673 Z-0.8069
G01 X25.5384 Y46.1549 Z-0.8077
G01 X25.5937 Y46.1433 Z-0.8090
G01 X25.6493 Y46.1327 Z-0.8108
G01 X25.7125 Y46.1215 Z-0.8133
G01 X25.8107 Y46.1040 Z-0.8171
G01 X25.9090 Y46.0865 Z-0.8210
G01 X26.0071 Y46.0674 Z-0.8257
G01 X26.1052 Y46.0481 Z-0.8305
G01 X26.2033 Y46.0288 Z-0.8353
G01 X26.3014 Y46.0095 Z-0.8401
G01 X26.3995 Y45.9902 Z-0.8449
G01 X26.4976 Y45.9709 Z-0.8497
G01 X26.5957 Y45.9516 Z-0.8545
G01 X26.6937 Y45.9323 Z-0.8593
G01 X26.7918 Y45.9130 Z-0.8640
G01 X26.8899 Y45.8930 Z-0.8692
G01 X26.9878 Y45.8717 Z-0.8750
G01 X27.0857 Y45.8504 Z-0.8807
G01 X27.1485 Y45.8364 Z-0.8843
G01 X27.2436 Y45.8148 Z-0.8895
G01 X27.3386 Y45.7932 Z-0.8946
G01 X27.4336 Y45.7716 Z-0.8998
G01 X27.5287 Y45.7499 Z-0.9049
G01 X27.6237 Y45.7283 Z-0.9101
G01 X27.7188 Y45.7067 Z-0.9152
G01 X27.8137 Y45.6844 Z-0.9207
G01 X27.9085 Y45.6608 Z-0.9269
G01 X28.0033 Y45.6371 Z-0.9330
G01 X28.0981 Y45.6135 Z-0.9392
G01 X28.1929 Y45.5899 Z-0.9454
G01 X28.2877 Y45.5662 Z-0.9515
G01 X28.3825 Y45.5426 Z-0.9577
G01 X28.4773 Y45.5189 Z-0.9639
G01 X28.5355 Y45.5041 Z-0.9675
G01 X28.6340 Y45.4785 Z-0.9734
G01 X28.7324 Y45.4520 Z-0.9798
G01 X28.8306 Y45.4242 Z-0.9868
G01 X28.9288 Y45.3964 Z-0.9938
G01 X29.0270 Y45.3685 Z-1.0008
G01 X29.1252 Y45.3407 Z-1.0078
G01 X29.2235 Y45.3128 Z-1.0149
G01 X29.3217 Y45.2850 Z-1.0219
G01 X29.4199 Y45.2572 Z-1.0289
G01 X29.5181 Y45.2293 Z-1.0359
G01 X29.6162 Y45.2009 Z-1.0432
G01 X29.7141 Y45.1708 Z-1.0514
G01 X29.8641 Y45.1244 Z-1.0638
G01 X29.9590 Y45.0940 Z-1.0712
G01 X30.0538 Y45.0637 Z-1.0786
G01 X30.1486 Y45.0334 Z-1.0860
G01 X30.2434 Y45.0031 Z-1.0935
G01 X30.3382 Y44.9728 Z-1.1009
G01 X30.4330 Y44.9425 Z-1.1083
G01 X30.5276 Y44.9110 Z-1.1163
G01 X30.6221 Y44.8784 Z-1.1249
G01 X30.7165 Y44.8457 Z-1.1335
G01 X30.8109 Y44.8131 Z-1.1421
G01 X30.9054 Y44.7805 Z-1.1507
G01 X30.9998 Y44.7478 Z-1.1593
G01 X31.1397 Y44.6992 Z-1.1719
G01 X31.2381 Y44.6639 Z-1.1803
G01 X31.3364 Y44.6285 Z-1.1888
G01 X31.4345 Y44.5914 Z-1.1982
G01 X31.5324 Y44.5536 Z-1.2079
G01 X31.6303 Y44.5158 Z-1.2176
G01 X31.7282 Y44.4780 Z-1.2272
G01 X31.8261 Y44.4402 Z-1.2369
G01 X31.9241 Y44.4025 Z-1.2466
G01 X32.0220 Y44.3647 Z-1.2563
G01 X32.1199 Y44.3269 Z-1.2660
G01 X32.2178 Y44.2888 Z-1.2759
G01 X32.3527 Y44.2331 Z-1.2908
G01 X32.4468 Y44.1927 Z-1.3009
G01 X32.5409 Y44.1524 Z-1.3109
G01 X32.6350 Y44.1121 Z-1.3210
G01 X32.7291 Y44.0717 Z-1.3311
G01 X32.8232 Y44.0314 Z-1.3412
G01 X32.9173 Y43.9910 Z-1.3513
G01 X33.0114 Y43.9507 Z-1.3614
G01 X33.1053 Y43.9095 Z-1.3719
G01 X33.1989 Y43.8667 Z-1.3833
G01 X33.2924 Y43.8237 Z-1.3947
G01 X33.3859 Y43.7808 Z-1.4061
G01 X33.5044 Y43.7262 Z-1.4205
G01 X33.5946 Y43.6834 Z-1.4310
G01 X33.6849 Y43.6405 Z-1.4415
G01 X33.7751 Y43.5977 Z-1.4519
G01 X33.8653 Y43.5549 Z-1.4624
G01 X33.9553 Y43.5112 Z-1.4733
G01 X34.0449 Y43.4660 Z-1.4850
G01 X34.1345 Y43.4206 Z-1.4968
G01 X34.2241 Y43.3752 Z-1.5086
G01 X34.3137 Y43.3298 Z-1.5204
G01 X34.4033 Y43.2844 Z-1.5322
G01 X34.4929 Y43.2390 Z-1.5440
G01 X34.5978 Y43.1857 Z-1.5577
G01 X34.6912 Y43.1367 Z-1.5694
G01 X34.7846 Y43.0872 Z-1.5814
G01 X34.8774 Y43.0359 Z-1.5943
G01 X34.9702 Y42.9842 Z-1.6075
G01 X35.0629 Y42.9325 Z-1.6206
G01 X35.1557 Y42.8807 Z-1.6337
G01 X35.2484 Y42.8290 Z-1.6469
G01 X35.3412 Y42.7772 Z-1.6600
G01 X35.4339 Y42.7255 Z-1.6731
G01 X35.5266 Y42.6738 Z-1.6863
G01 X35.6237 Y42.6189 Z-1.7004
G01 X35.7123 Y42.5654 Z-1.7135
G01 X35.8007 Y42.5112 Z-1.7269
G01 X35.8890 Y42.4570 Z-1.7404
G01 X35.9774 Y42.4029 Z-1.7538
G01 X36.0658 Y42.3487 Z-1.7673
G01 X36.1541 Y42.2945 Z-1.7808
G01 X36.2425 Y42.2404 Z-1.7942
G01 X36.3309 Y42.1862 Z-1.8077
G01 X36.4192 Y42.1317 Z-1.8213
G01 X36.5071 Y42.0760 Z-1.8356
G01 X36.6680 Y41.9697 Z-1.8624
G01 X36.7520 Y41.9132 Z-1.8761
G01 X36.8359 Y41.8568 Z-1.8898
G01 X36.9199 Y41.8003 Z-1.9035
G01 X37.0039 Y41.7439 Z-1.9173
G01 X37.0878 Y41.6875 Z-1.9310
G01 X37.1718 Y41.6310 Z-1.9447
G01 X37.2556 Y41.5741 Z-1.9587
G01 X37.3390 Y41.5160 Z-1.9733
G01 X37.4221 Y41.4569 Z-1.9884
G01 X37.5696 Y41.3501 Z-2.0146
G01 X37.6564 Y41.2863 Z-2.0298
G01 X37.7432 Y41.2225 Z-2.0450
G01 X37.8300 Y41.1587 Z-2.0601
G01 X37.9167 Y41.0949 Z-2.0753
G01 X38.0035 Y41.0311 Z-2.0904
G01 X38.0900 Y40.9665 Z-2.1060
G01 X38.1761 Y40.9007 Z-2.1222
G01 X38.2619 Y40.8341 Z-2.1388
G01 X38.3951 Y40.7289 Z-2.1641
G01 X38.4771 Y40.6631 Z-2.1794
G01 X38.5591 Y40.5973 Z-2.1946
G01 X38.6410 Y40.5314 Z-2.2099
G01 X38.7230 Y40.4656 Z-2.2251
G01 X38.8050 Y40.3998 Z-2.2404
G01 X38.8867 Y40.3334 Z-2.2559
G01 X38.9680 Y40.2659 Z-2.2721
G01 X39.0490 Y40.1975 Z-2.2887
G01 X39.1569 Y40.1047 Z-2.3105
G01 X39.2341 Y40.0370 Z-2.3257
G01 X39.3113 Y39.9694 Z-2.3410
G01 X39.3885 Y39.9018 Z-2.3562
G01 X39.4657 Y39.8342 Z-2.3715
G01 X39.5429 Y39.7665 Z-2.3867
G01 X39.6201 Y39.6989 Z-2.4020
G01 X39.6970 Y39.6306 Z-2.4176
G01 X39.7734 Y39.5613 Z-2.4338
G01 X39.8567 Y39.4833 Z-2.4516
G01 X39.9292 Y39.4141 Z-2.4668
G01 X40.0016 Y39.3449 Z-2.4819
G01 X40.0741 Y39.2757 Z-2.4971
G01 X40.1465 Y39.2066 Z-2.5122
G01 X40.2190 Y39.1374 Z-2.5274
G01 X40.2914 Y39.0682 Z-2.5426
G01 X40.3639 Y38.9990 Z-2.5577
G01 X40.4363 Y38.9297 Z-2.5730
G01 X40.5068 Y38.8594 Z-2.5880
G01 X40.5816 Y38.7822 Z-2.6043
G01 X40.6561 Y38.7046 Z-2.6208
G01 X40.7306 Y38.6270 Z-2.6373
G01 X40.8052 Y38.5494 Z-2.6538
G01 X40.8797 Y38.4718 Z-2.6703
G01 X40.9543 Y38.3943 Z-2.6867
G01 X41.0288 Y38.3167 Z-2.7032
G01 X41.0869 Y38.2551 Z-2.7158
G01 X41.1576 Y38.1784 Z-2.7308
G01 X41.2281 Y38.1012 Z-2.7460
G01 X41.2981 Y38.0232 Z-2.7617
G01 X41.3676 Y37.9444 Z-2.7779
G01 X41.4371 Y37.8656 Z-2.7941
G01 X41.5066 Y37.7867 Z-2.8103
G01 X41.6121 Y37.6662 Z-2.8347
G01 X41.6779 Y37.5882 Z-2.8494
G01 X41.7437 Y37.5102 Z-2.8641
G01 X41.8095 Y37.4322 Z-2.8787
G01 X41.8753 Y37.3542 Z-2.8934
G01 X41.9409 Y37.2761 Z-2.9082
G01 X42.0061 Y37.1972 Z-2.9234
G01 X42.0872 Y37.0969 Z-2.9430
G01 X42.1481 Y37.0178 Z-2.9574
G01 X42.2091 Y36.9388 Z-2.9717
G01 X42.2700 Y36.8597 Z-2.9860
G01 X42.3310 Y36.7806 Z-3.0003
G01 X42.3919 Y36.7015 Z-3.0146
G01 X42.4529 Y36.6225 Z-3.0290
G01 X42.5225 Y36.5316 Z-3.0452
G01 X42.5864 Y36.4446 Z-3.0595
G01 X42.6502 Y36.3572 Z-3.0739
G01 X42.7133 Y36.2691 Z-3.0889
G01 X42.7759 Y36.1803 Z-3.1042
G01 X42.8384 Y36.0914 Z-3.1196
G01 X42.9034 Y35.9989 Z-3.1357
G01 X42.9622 Y35.9107 Z-3.1495
G01 X43.0211 Y35.8225 Z-3.1633
G01 X43.0827 Y35.7376 Z-3.1750
G01 X43.1598 Y35.6702
G01 X43.2368 Y35.6028
G01 X43.3139 Y35.5354
G01 X43.4251 Y35.4357
G01 X43.4994 Y35.3674
G01 X43.5737 Y35.2991
G01 X43.6481 Y35.2308
G01 X43.7224 Y35.1625
G01 X43.7967 Y35.0942
G01 X43.8985 Y34.9995
G01 X43.9690 Y34.9292
G01 X44.0395 Y34.8588
G01 X44.1100 Y34.7884
G01 X44.1805 Y34.7180
G01 X44.2510 Y34.6476
G01 X44.3409 Y34.5571
G01 X44.4076 Y34.4846
G01 X44.4743 Y34.4121
G01 X44.5410 Y34.3396
G01 X44.6077 Y34.2672
G01 X44.6744 Y34.1947
G01 X44.7537 Y34.1079
G01 X44.8166 Y34.0333
G01 X44.8795 Y33.9587
G01 X44.9423 Y33.8842
G01 X45.0052 Y33.8096
G01 X45.0681 Y33.7350
G01 X45.1383 Y33.6514
G01 X45.1974 Y33.5747
G01 X45.2565 Y33.4981
G01 X45.3155 Y33.4214
G01 X45.3746 Y33.3447
G01 X45.4337 Y33.2681
G01 X45.4962 Y33.1868
G01 X45.5514 Y33.1080
G01 X45.6067 Y33.0293
G01 X45.6619 Y32.9505
G01 X45.7172 Y32.8717
G01 X45.7724 Y32.7930
G01 X45.8286 Y32.7130
G01 X45.8800 Y32.6321
G01 X45.9315 Y32.5513
G01 X45.9829 Y32.4704
G01 X46.0343 Y32.3896
G01 X46.0858 Y32.3087
G01 X46.1604 Y32.2423 Z-3.1613
G01 X46.1844 Y32.1458 Z-3.1750
G01 X46.2320 Y32.0628
G01 X46.2796 Y31.9799
G01 X46.3273 Y31.8970
G01 X46.3749 Y31.8140
G01 X46.4549 Y31.7497 Z-3.1563
G01 X46.4655 Y31.6476 Z-3.1750
G01 X46.5094 Y31.5625
G01 X46.5532 Y31.4775
G01 X46.5970 Y31.3925
G01 X46.6408 Y31.3075
G01 X46.6918 Y31.2265 Z-3.1709
G01 X46.7243 Y31.1359 Z-3.1750
G01 X46.7644 Y31.0488
G01 X46.8044 Y30.9617
G01 X46.8444 Y30.8746
G01 X46.8844 Y30.7874
G01 X46.9252 Y30.6984
G01 X46.9614 Y30.6092
G01 X46.9976 Y30.5200
G01 X47.0338 Y30.4307
G01 X47.0700 Y30.3415
G01 X47.1062 Y30.2523
G01 X47.1448 Y30.1569
G01 X47.1771 Y30.0656
G01 X47.2095 Y29.9743
G01 X47.2419 Y29.8830
G01 X47.2743 Y29.7917
G01 X47.3067 Y29.7004
G01 X47.3431 Y29.5970
G01 X47.3716 Y29.5036
G01 X47.4002 Y29.4102
G01 X47.4288 Y29.3168
G01 X47.4574 Y29.2234
G01 X47.4860 Y29.1300
G01 X47.5201 Y29.0170
G01 X47.5448 Y28.9215
G01 X47.5696 Y28.8260
G01 X47.5944 Y28.7305
G01 X47.6191 Y28.6350
G01 X47.6439 Y28.5395
G01 X47.6754 Y28.4153
G01 X47.6964 Y28.3178
G01 X47.7174 Y28.2202
G01 X47.7383 Y28.1226
G01 X47.7593 Y28.0250
G01 X47.7802 Y27.9274
G01 X47.8087 Y27.7908
G01 X47.8258 Y27.6911
G01 X47.8430 Y27.5914
G01 X47.8601 Y27.4917
G01 X47.8773 Y27.3921
G01 X47.8944 Y27.2924
G01 X47.9116 Y27.1927
G01 X47.9192 Y27.1420
G01 X47.9326 Y27.0403
G01 X47.9459 Y26.9385
G01 X47.9592 Y26.8367
G01 X47.9726 Y26.7350
G01 X47.9859 Y26.6332
G01 X47.9992 Y26.5314
G01 X48.0062 Y26.4681
G01 X48.0158 Y26.3643
G01 X48.0253 Y26.2604
G01 X48.0348 Y26.1565
G01 X48.0444 Y26.0527
G01 X48.0539 Y25.9488
G01 X48.0634 Y25.8450
G01 X48.0681 Y25.7841
G01 X48.0732 Y25.6887
G01 X48.0784 Y25.5934
G01 X48.0835 Y25.4980
G01 X48.0887 Y25.4027
G01 X48.0938 Y25.3073
G01 X48.0990 Y25.2120
G01 X48.1041 Y25.1166
G01 X48.1062 Y25.0578
G01 X48.1079 Y24.9606
G01 X48.1096 Y24.8634
G01 X48.1113 Y24.7661
G01 X48.1130 Y24.6689
G01 X48.1147 Y24.5716
G01 X48.1164 Y24.4744
G01 X48.1179 Y24.3327
G01 X48.1156 Y24.2300
G01 X48.1132 Y24.1273
G01 X48.1109 Y24.0246
G01 X48.1086 Y23.9219
G01 X48.1063 Y23.8192
G01 X48.1040 Y23.7166
G01 X48.1011 Y23.6018
G01 X48.0942 Y23.5009
G01 X48.0872 Y23.4000
G01 X48.0803 Y23.2990
G01 X48.0733 Y23.1981
G01 X48.0663 Y23.0971
G01 X48.0594 Y22.9962
G01 X48.0524 Y22.8953
G01 X48.1061 Y22.8896 Z-3.1480
G01 X48.0409 Y22.7967 Z-3.1750
G01 X48.0293 Y22.6975
G01 X48.0177 Y22.5983
G01 X48.0061 Y22.4991
G01 X47.9945 Y22.3999
G01 X47.9829 Y22.3007
G01 X47.9567 Y22.1155
G01 X47.9405 Y22.0180
G01 X47.9243 Y21.9206
G01 X47.9080 Y21.8232
G01 X47.8918 Y21.7257
G01 X47.8755 Y21.6283
G01 X47.8423 Y21.4552
G01 X47.8214 Y21.3596
G01 X47.8006 Y21.2639
G01 X47.7797 Y21.1682
G01 X47.7588 Y21.0725
G01 X47.7379 Y20.9768
G01 X47.6980 Y20.8136
G01 X47.6725 Y20.7197
G01 X47.6470 Y20.6258
G01 X47.6215 Y20.5318
G01 X47.5959 Y20.4379
G01 X47.5704 Y20.3439
G01 X47.5239 Y20.1883
G01 X47.4937 Y20.0961
G01 X47.4635 Y20.0039
G01 X47.4334 Y19.9117
G01 X47.4032 Y19.8195
G01 X47.3731 Y19.7273
G01 X47.3195 Y19.5766
G01 X47.2847 Y19.4861
G01 X47.2499 Y19.3957
G01 X47.2151 Y19.3052
G01 X47.1803 Y19.2148
G01 X47.1455 Y19.1244
G01 X47.0841 Y18.9762
G01 X47.0446 Y18.8875
G01 X47.0052 Y18.7988
G01 X46.9658 Y18.7101
G01 X46.9263 Y18.6214
G01 X46.8869 Y18.5327
G01 X46.8166 Y18.3849
G01 X46.7725 Y18.2980
G01 X46.7284 Y18.2110
G01 X46.6843 Y18.1241
G01 X46.6403 Y18.0371
G01 X46.5962 Y17.9502
G01 X46.5155 Y17.8006
G01 X46.4668 Y17.7154
G01 X46.4181 Y17.6302
G01 X46.3694 Y17.5450
G01 X46.3206 Y17.4598
G01 X46.2719 Y17.3746
G01 X46.1793 Y17.2216
G01 X46.1259 Y17.1381
G01 X46.0725 Y17.0547
G01 X46.0192 Y16.9712
G01 X45.9658 Y16.8878
G01 X45.9125 Y16.8043
G01 X45.8059 Y16.6464
G01 X45.7479 Y16.5647
G01 X45.6899 Y16.4830
G01 X45.6319 Y16.4013
G01 X45.5739 Y16.3196
G01 X45.5159 Y16.2379
G01 X45.4563 Y16.1541
G01 X45.3937 Y16.0741
G01 X45.3310 Y15.9942
G01 X45.2684 Y15.9142
G01 X45.2057 Y15.8343
G01 X45.1431 Y15.7543
G01 X45.0805 Y15.6743
G01 X45.0078 Y15.5822
G01 X44.9405 Y15.5040
G01 X44.8732 Y15.4258
G01 X44.8059 Y15.3476
G01 X44.7387 Y15.2694
G01 X44.6714 Y15.1912
G01 X44.6041 Y15.1130
G01 X44.5165 Y15.0123
G01 X44.4446 Y14.9359
G01 X44.3727 Y14.8594
G01 X44.3008 Y14.7829
G01 X44.2288 Y14.7065
G01 X44.1569 Y14.6300
G01 X44.0850 Y14.5536
G01 X43.9912 Y14.4545
G01 X43.9216 Y14.3866
G01 X43.8520 Y14.3186
G01 X43.7824 Y14.2507
G01 X43.7128 Y14.1828
G01 X43.6432 Y14.1149
G01 X43.5899 Y14.0303 Z-3.1633
G01 X43.5382 Y13.9440 Z-3.1505
G01 X43.4667 Y13.8254 Z-3.1326
G01 X43.4118 Y13.7380 Z-3.1185
G01 X43.3569 Y13.6505 Z-3.1043
G01 X43.3021 Y13.5631 Z-3.0901
G01 X43.2472 Y13.4757 Z-3.0759
G01 X43.1923 Y13.3883 Z-3.0618
G01 X43.1369 Y13.3014 Z-3.0480
G01 X43.0810 Y13.2152 Z-3.0346
G01 X43.0248 Y13.1292 Z-3.0214
G01 X42.9887 Y13.0751 Z-3.0127
G01 X42.9293 Y12.9879 Z-2.9981
G01 X42.8699 Y12.9007 Z-2.9835
G01 X42.8105 Y12.8135 Z-2.9689
G01 X42.7511 Y12.7263 Z-2.9543
G01 X42.6917 Y12.6391 Z-2.9397
G01 X42.6323 Y12.5520 Z-2.9252
G01 X42.5724 Y12.4653 Z-2.9109
G01 X42.5120 Y12.3793 Z-2.8971
G01 X42.4577 Y12.3044 Z-2.8847
G01 X42.3937 Y12.2175 Z-2.8698
G01 X42.3296 Y12.1306 Z-2.8548
G01 X42.2655 Y12.0438 Z-2.8399
G01 X42.2015 Y11.9569 Z-2.8250
G01 X42.1374 Y11.8701 Z-2.8100
G01 X42.0734 Y11.7832 Z-2.7951
G01 X42.0092 Y11.6966 Z-2.7802
G01 X41.9444 Y11.6106 Z-2.7659
G01 X41.8570 Y11.4983 Z-2.7470
G01 X41.7930 Y11.4175 Z-2.7329
G01 X41.7291 Y11.3368 Z-2.7188
G01 X41.6652 Y11.2561 Z-2.7048
G01 X41.6013 Y11.1753 Z-2.6907
G01 X41.5374 Y11.0946 Z-2.6767
G01 X41.4735 Y11.0139 Z-2.6626
G01 X41.4095 Y10.9332 Z-2.6486
G01 X41.3450 Y10.8533 Z-2.6350
G01 X41.2800 Y10.7741 Z-2.6219
G01 X41.2000 Y10.6786 Z-2.6055
G01 X41.1335 Y10.6006 Z-2.5917
G01 X41.0670 Y10.5227 Z-2.5778
G01 X41.0005 Y10.4447 Z-2.5639
G01 X40.9340 Y10.3667 Z-2.5501
G01 X40.8675 Y10.2888 Z-2.5362
G01 X40.8010 Y10.2108 Z-2.5224
G01 X40.7342 Y10.1334 Z-2.5088
G01 X40.6668 Y10.0568 Z-2.4958
G01 X40.5991 Y9.9806 Z-2.4830
G01 X40.5107 Y9.8827 Z-2.4659
G01 X40.4417 Y9.8076 Z-2.4523
G01 X40.3726 Y9.7324 Z-2.4386
G01 X40.3035 Y9.6572 Z-2.4249
G01 X40.2345 Y9.5821 Z-2.4113
G01 X40.1654 Y9.5069 Z-2.3976
G01 X40.0961 Y9.4322 Z-2.3842
G01 X40.0262 Y9.3584 Z-2.3714
G01 X39.9560 Y9.2850 Z-2.3588
G01 X39.8858 Y9.2117 Z-2.3462
G01 X39.7882 Y9.1115 Z-2.3283
G01 X39.7166 Y9.0392 Z-2.3148
G01 X39.6449 Y8.9669 Z-2.3014
G01 X39.5733 Y8.8946 Z-2.2879
G01 X39.5016 Y8.8223 Z-2.2745
G01 X39.4297 Y8.7504 Z-2.2613
G01 X39.3572 Y8.6796 Z-2.2487
G01 X39.2845 Y8.6092 Z-2.2364
G01 X39.2118 Y8.5387 Z-2.2240
G01 X39.1390 Y8.4683 Z-2.2117
G01 X39.0315 Y8.3660 Z-2.1929
G01 X38.9573 Y8.2965 Z-2.1797
G01 X38.8831 Y8.2271 Z-2.1664
G01 X38.8089 Y8.1577 Z-2.1532
G01 X38.7343 Y8.0891 Z-2.1404
G01 X38.6591 Y8.0214 Z-2.1282
G01 X38.5839 Y7.9539 Z-2.1160
G01 X38.5086 Y7.8864 Z-2.1039
G01 X38.4334 Y7.8190 Z-2.0917
G01 X38.3581 Y7.7515 Z-2.0796
G01 X38.2399 Y7.6473 Z-2.0600
G01 X38.1631 Y7.5808 Z-2.0470
G01 X38.0862 Y7.5145 Z-2.0341
G01 X38.0088 Y7.4494 Z-2.0218
G01 X37.9311 Y7.3849 Z-2.0099
G01 X37.8533 Y7.3204 Z-1.9979
G01 X37.7756 Y7.2559 Z-1.9860
G01 X37.6978 Y7.1914 Z-1.9741
G01 X37.6201 Y7.1269 Z-1.9622
G01 X37.5424 Y7.0624 Z-1.9502
G01 X37.4127 Y6.9568 Z-1.9299
G01 X37.3329 Y6.8943 Z-1.9176
G01 X37.2527 Y6.8328 Z-1.9058
G01 X37.1725 Y6.7713 Z-1.8941
G01 X37.0923 Y6.7098 Z-1.8824
G01 X37.0121 Y6.6483 Z-1.8707
G01 X36.9319 Y6.5868 Z-1.8590
G01 X36.8516 Y6.5254 Z-1.8473
G01 X36.7714 Y6.4639 Z-1.8356
G01 X36.6911 Y6.4025 Z-1.8239
G01 X36.5490 Y6.2973 Z-1.8034
G01 X36.4668 Y6.2376 Z-1.7912
G01 X36.3847 Y6.1779 Z-1.7790
G01 X36.3025 Y6.1182 Z-1.7668
G01 X36.2204 Y6.0585 Z-1.7546
G01 X36.1382 Y5.9987 Z-1.7424
G01 X36.0560 Y5.9392 Z-1.7303
G01 X35.9733 Y5.8808 Z-1.7189
G01 X35.8902 Y5.8232 Z-1.7078
G01 X35.8072 Y5.7657 Z-1.6968
G01 X35.6523 Y5.6603 Z-1.6756
G01 X35.5677 Y5.6037 Z-1.6636
G01 X35.4830 Y5.5471 Z-1.6517
G01 X35.3983 Y5.4905 Z-1.6397
G01 X35.3135 Y5.4343 Z-1.6280
G01 X35.2282 Y5.3795 Z-1.6170
G01 X35.1427 Y5.3252 Z-1.6063
G01 X35.0572 Y5.2708 Z-1.5955
G01 X34.9717 Y5.2165 Z-1.5847
G01 X34.8862 Y5.1622 Z-1.5740
G01 X34.7183 Y5.0574 Z-1.5522
G01 X34.6311 Y5.0040 Z-1.5405
G01 X34.5435 Y4.9519 Z-1.5295
G01 X34.4556 Y4.9008 Z-1.5190
G01 X34.3677 Y4.8498 Z-1.5085
G01 X34.2798 Y4.7987 Z-1.4981
G01 X34.1919 Y4.7477 Z-1.4876
G01 X34.1039 Y4.6966 Z-1.4771
G01 X34.0160 Y4.6456 Z-1.4667
G01 X33.9281 Y4.5945 Z-1.4562
G01 X33.8362 Y4.5423 Z-1.4458
G01 X33.7459 Y4.4945 Z-1.4356
G01 X33.6556 Y4.4468 Z-1.4254
G01 X33.5653 Y4.3991 Z-1.4153
G01 X33.4749 Y4.3514 Z-1.4052
G01 X33.3846 Y4.3038 Z-1.3950
G01 X33.2943 Y4.2561 Z-1.3849
G01 X33.2039 Y4.2084 Z-1.3747
G01 X33.1134 Y4.1614 Z-1.3650
G01 X33.0224 Y4.1160 Z-1.3560
G01 X32.9314 Y4.0707 Z-1.3471
G01 X32.8283 Y4.0196 Z-1.3370
G01 X32.7356 Y3.9754 Z-1.3272
G01 X32.6429 Y3.9311 Z-1.3174
G01 X32.5502 Y3.8869 Z-1.3076
G01 X32.4575 Y3.8427 Z-1.2978
G01 X32.3645 Y3.7995 Z-1.2885
G01 X32.2712 Y3.7576 Z-1.2799
G01 X32.1779 Y3.7158 Z-1.2714
G01 X32.0845 Y3.6741 Z-1.2628
G01 X31.9912 Y3.6323 Z-1.2543
G01 X31.8978 Y3.5905 Z-1.2457
G01 X31.7843 Y3.5399 Z-1.2353
G01 X31.6892 Y3.4993 Z-1.2259
G01 X31.5937 Y3.4603 Z-1.2173
G01 X31.4981 Y3.4221 Z-1.2091
G01 X31.4025 Y3.3838 Z-1.2010
G01 X31.3069 Y3.3456 Z-1.1928
G01 X31.2113 Y3.3074 Z-1.1846
G01 X31.1157 Y3.2691 Z-1.1764
G01 X31.0201 Y3.2309 Z-1.1683
G01 X30.9244 Y3.1930 Z-1.1603
G01 X30.8283 Y3.1569 Z-1.1532
G01 X30.7040 Y3.1109 Z-1.1441
G01 X30.6061 Y3.0763 Z-1.1363
G01 X30.5083 Y3.0416 Z-1.1285
G01 X30.4105 Y3.0070 Z-1.1207
G01 X30.3127 Y2.9724 Z-1.1129
G01 X30.2148 Y2.9378 Z-1.1051
G01 X30.1167 Y2.9048 Z-1.0981
G01 X30.0184 Y2.8726 Z-1.0916
G01 X29.9201 Y2.8404 Z-1.0850
G01 X29.8218 Y2.8083 Z-1.0785
G01 X29.7235 Y2.7761 Z-1.0720
G01 X29.5896 Y2.7326 Z-1.0629
G01 X29.4896 Y2.7016 Z-1.0555
G01 X29.3894 Y2.6717 Z-1.0486
G01 X29.2890 Y2.6432 Z-1.0424
G01 X29.1886 Y2.6147 Z-1.0363
G01 X29.0883 Y2.5861 Z-1.0301
G01 X28.9879 Y2.5576 Z-1.0239
G01 X28.8875 Y2.5291 Z-1.0178
G01 X28.7871 Y2.5006 Z-1.0116
G01 X28.6867 Y2.4723 Z-1.0055
G01 X28.5860 Y2.4458 Z-1.0004
G01 X28.4465 Y2.4100 Z-0.9934
G01 X28.3519 Y2.3870 Z-0.9881
G01 X28.2574 Y2.3641 Z-0.9827
G01 X28.1628 Y2.3411 Z-0.9774
G01 X28.0683 Y2.3182 Z-0.9720
G01 X27.9738 Y2.2952 Z-0.9667
G01 X27.8791 Y2.2733 Z-0.9619
G01 X27.7843 Y2.2526 Z-0.9576
G01 X27.6895 Y2.2318 Z-0.9534
G01 X27.5946 Y2.2111 Z-0.9492
G01 X27.4998 Y2.1904 Z-0.9449
G01 X27.4050 Y2.1696 Z-0.9407
G01 X27.2692 Y2.1403 Z-0.9345
G01 X27.1728 Y2.1208 Z-0.9295
G01 X27.0762 Y2.1030 Z-0.9254
G01 X26.9797 Y2.0856 Z-0.9215
G01 X26.8831 Y2.0682 Z-0.9176
G01 X26.7865 Y2.0509 Z-0.9137
G01 X26.6899 Y2.0335 Z-0.9098
G01 X26.5933 Y2.0161 Z-0.9058
G01 X26.4967 Y1.9987 Z-0.9019
G01 X26.4001 Y1.9814 Z-0.8981
G01 X26.3034 Y1.9658 Z-0.8950
G01 X26.2066 Y1.9505 Z-0.8922
G01 X26.1098 Y1.9353 Z-0.8893
G01 X26.0633 Y1.9283 Z-0.8878
G01 X25.9650 Y1.9143 Z-0.8842
G01 X25.8667 Y1.9003 Z-0.8806
G01 X25.7684 Y1.8863 Z-0.8770
G01 X25.6701 Y1.8722 Z-0.8734
G01 X25.5717 Y1.8589 Z-0.8702
G01 X25.4733 Y1.8469 Z-0.8676
G01 X25.3748 Y1.8350 Z-0.8651
G01 X25.2764 Y1.8231 Z-0.8625
G01 X25.1779 Y1.8111 Z-0.8600
G01 X25.0795 Y1.7992 Z-0.8575
G01 X24.9810 Y1.7873 Z-0.8549
G01 X24.8826 Y1.7754 Z-0.8524
G01 X24.8313 Y1.7696 Z-0.8509
G01 X24.7313 Y1.7605 Z-0.8484
G01 X24.6312 Y1.7518 Z-0.8461
G01 X24.5311 Y1.7432 Z-0.8439
G01 X24.4311 Y1.7346 Z-0.8416
G01 X24.3310 Y1.7259 Z-0.8393
G01 X24.2309 Y1.7173 Z-0.8371
G01 X24.1309 Y1.7087 Z-0.8348
G01 X24.0308 Y1.7001 Z-0.8326
G01 X23.9307 Y1.6929 Z-0.8310
G01 X23.8305 Y1.6863 Z-0.8298
G01 X23.7304 Y1.6796 Z-0.8285
G01 X23.6302 Y1.6730 Z-0.8272
G01 X23.5748 Y1.6697 Z-0.8263
G01 X23.4732 Y1.6643 Z-0.8243
G01 X23.3715 Y1.6590 Z-0.8224
G01 X23.2699 Y1.6536 Z-0.8204
G01 X23.1682 Y1.6487 Z-0.8186
G01 X23.0666 Y1.6453 Z-0.8176
G01 X22.9649 Y1.6418 Z-0.8165
G01 X22.8632 Y1.6384 Z-0.8155
G01 X22.7616 Y1.6350 Z-0.8145
G01 X22.6599 Y1.6316 Z-0.8135
G01 X22.5582 Y1.6281 Z-0.8124
G01 X22.4565 Y1.6247 Z-0.8114
G01 X22.3549 Y1.6215 Z-0.8105
G01 X22.2942 Y1.6209 Z-0.8102
G01 X22.1919 Y1.6206 Z-0.8094
G01 X22.0895 Y1.6203 Z-0.8087
G01 X21.9872 Y1.6200 Z-0.8079
G01 X21.8848 Y1.6197 Z-0.8071
G01 X21.7825 Y1.6194 Z-0.8064
G01 X21.6802 Y1.6192 Z-0.8056
G01 X21.5778 Y1.6189 Z-0.8049
G01 X21.4755 Y1.6193 Z-0.8044
G01 X21.4135 Y1.6203 Z-0.8042
G01 X21.3127 Y1.6225 Z-0.8035
G01 X21.2119 Y1.6248 Z-0.8028
G01 X21.1111 Y1.6270 Z-0.8020
G01 X21.0103 Y1.6293 Z-0.8013
G01 X20.9095 Y1.6323 Z-0.8010
G01 X20.8087 Y1.6354 Z-0.8007
G01 X20.7080 Y1.6385 Z-0.8004
G01 X20.6072 Y1.6416 Z-0.8001
G01 X20.5477 Y1.6438 Z-0.7997
G01 X20.4484 Y1.6484 Z-0.7989
G01 X20.3492 Y1.6536 Z-0.7984
G01 X20.2499 Y1.6588 Z-0.7979
G01 X20.1507 Y1.6639 Z-0.7974
G01 X20.0514 Y1.6691 Z-0.7969
G01 X19.9522 Y1.6745 Z-0.7965
G01 X19.8530 Y1.6805
G01 X19.7538 Y1.6865 Z-0.7964
G01 X19.6968 Y1.6904 Z-0.7962
G01 X19.5991 Y1.6976 Z-0.7955
G01 X19.5013 Y1.7048 Z-0.7948
G01 X19.4036 Y1.7127 Z-0.7944
G01 X19.3060 Y1.7208 Z-0.7941
G01 X19.2083 Y1.7289 Z-0.7939
G01 X19.1107 Y1.7370 Z-0.7936
G01 X19.0130 Y1.7451 Z-0.7934
G01 X18.9154 Y1.7538
G01 X18.8609 Y1.7592 Z-0.7933
G01 X18.7647 Y1.7694 Z-0.7928
G01 X18.6686 Y1.7796 Z-0.7924
G01 X18.5724 Y1.7898 Z-0.7919
G01 X18.4763 Y1.8001 Z-0.7915
G01 X18.3802 Y1.8112
G01 X18.2842 Y1.8223
G01 X18.1881 Y1.8333
G01 X18.0921 Y1.8444
G01 X18.0400 Y1.8508 Z-0.7914
G01 X17.9454 Y1.8637 Z-0.7910
G01 X17.8509 Y1.8768 Z-0.7908
G01 X17.7563 Y1.8900 Z-0.7906
G01 X17.6618 Y1.9032 Z-0.7904
G01 X17.5673 Y1.9164 Z-0.7902
G01 X17.4728 Y1.9301 Z-0.7903
G01 X17.3784 Y1.9442 Z-0.7906
G01 X17.2840 Y1.9583 Z-0.7909
G01 X17.2286 Y1.9671 Z-0.7908
G01 X17.1240 Y1.9842 Z-0.7904
G01 X17.0193 Y2.0018 Z-0.7901
G01 X16.9149 Y2.0200 Z-0.7902
G01 X16.8104 Y2.0383 Z-0.7903
G01 X16.7059 Y2.0565 Z-0.7904
G01 X16.6014 Y2.0747 Z-0.7906
G01 X16.4971 Y2.0939 Z-0.7911
G01 X16.4385 Y2.1052 Z-0.7913
G01 X16.3357 Y2.1258 Z-0.7912
G01 X16.2329 Y2.1464 Z-0.7911
G01 X16.1301 Y2.1671 Z-0.7910
G01 X16.0275 Y2.1887 Z-0.7914
G01 X15.9249 Y2.2104 Z-0.7919
G01 X15.8223 Y2.2321 Z-0.7924
G01 X15.7198 Y2.2539 Z-0.7928
G01 X15.6638 Y2.2662 Z-0.7929
G01 X15.5629 Y2.2903 Z-0.7932
G01 X15.4620 Y2.3144 Z-0.7934
G01 X15.3611 Y2.3385 Z-0.7937
G01 X15.2603 Y2.3625 Z-0.7939
G01 X15.1595 Y2.3873 Z-0.7946
G01 X15.0589 Y2.4126 Z-0.7954
G01 X14.9583 Y2.4378 Z-0.7963
G01 X14.9050 Y2.4515 Z-0.7965
G01 X14.8058 Y2.4780
G01 X14.7068 Y2.5053 Z-0.7970
G01 X14.6079 Y2.5329 Z-0.7977
G01 X14.5090 Y2.5605 Z-0.7983
G01 X14.4101 Y2.5881 Z-0.7990
G01 X14.3113 Y2.6161 Z-0.7998
G01 X14.2127 Y2.6448 Z-0.8010
G01 X14.1622 Y2.6600 Z-0.8015
G01 X14.0649 Y2.6899 Z-0.8019
G01 X13.9677 Y2.7199 Z-0.8024
G01 X13.8707 Y2.7504 Z-0.8031
G01 X13.7738 Y2.7815 Z-0.8041
G01 X13.6769 Y2.8127 Z-0.8052
G01 X13.5801 Y2.8438 Z-0.8062
G01 X13.4353 Y2.8915 Z-0.8079
G01 X13.3402 Y2.9250 Z-0.8088
G01 X13.2450 Y2.9585 Z-0.8096
G01 X13.1499 Y2.9921 Z-0.8105
G01 X13.0548 Y3.0257 Z-0.8114
G01 X12.9600 Y3.0604 Z-0.8129
G01 X12.8652 Y3.0952 Z-0.8144
G01 X12.7251 Y3.1469 Z-0.8164
G01 X12.6317 Y3.1831 Z-0.8172
G01 X12.5387 Y3.2202 Z-0.8185
G01 X12.4456 Y3.2573 Z-0.8198
G01 X12.3526 Y3.2945 Z-0.8211
G01 X12.2593 Y3.3310 Z-0.8221
G01 X12.1657 Y3.3664 Z-0.8225
G01 X12.0286 Y3.4187 Z-0.8229
G01 X11.9361 Y3.4555 Z-0.8226
G01 X11.8442 Y3.4936 Z-0.8229
G01 X11.7523 Y3.5318 Z-0.8233
G01 X11.6605 Y3.5699 Z-0.8237
G01 X11.5686 Y3.6081 Z-0.8241
G01 X11.4772 Y3.6475 Z-0.8252
G01 X11.3447 Y3.7057 Z-0.8268
G01 X11.2547 Y3.7467 Z-0.8272
G01 X11.1647 Y3.7879 Z-0.8278
G01 X11.0754 Y3.8306 Z-0.8291
G01 X10.9861 Y3.8733 Z-0.8305
G01 X10.8968 Y3.9159 Z-0.8318
G01 X10.8076 Y3.9589 Z-0.8333
G01 X10.6803 Y4.0232 Z-0.8364
G01 X10.5930 Y4.0689 Z-0.8380
G01 X10.5057 Y4.1147 Z-0.8395
G01 X10.4189 Y4.1614 Z-0.8416
G01 X10.3325 Y4.2091 Z-0.8442
G01 X10.2461 Y4.2568 Z-0.8468
G01 X10.1598 Y4.3045 Z-0.8494
G01 X10.0382 Y4.3747 Z-0.8541
G01 X9.9541 Y4.4257 Z-0.8571
G01 X9.8700 Y4.4767 Z-0.8600
G01 X9.7861 Y4.5281 Z-0.8632
G01 X9.7031 Y4.5812 Z-0.8674
G01 X9.6201 Y4.6345 Z-0.8716
G01 X9.5372 Y4.6877 Z-0.8758
G01 X9.4223 Y4.7640 Z-0.8825
G01 X9.3419 Y4.8208 Z-0.8872
G01 X9.2615 Y4.8776 Z-0.8920
G01 X9.1812 Y4.9346 Z-0.8968
G01 X9.1019 Y4.9933 Z-0.9027
G01 X9.0230 Y5.0527 Z-0.9089
G01 X8.9440 Y5.1121 Z-0.9152
G01 X8.8369 Y5.1944 Z-0.9241
G01 X8.7608 Y5.2576 Z-0.9310
G01 X8.6848 Y5.3208 Z-0.9380
G01 X8.6088 Y5.3841 Z-0.9450
G01 X8.5336 Y5.4486 Z-0.9528
G01 X8.4594 Y5.5147 Z-0.9614
G01 X8.3852 Y5.5808 Z-0.9702
G01 X8.2871 Y5.6691 Z-0.9818
G01 X8.2156 Y5.7384 Z-0.9909
G01 X8.1448 Y5.8087 Z-1.0006
G01 X8.0739 Y5.8789 Z-1.0103
G01 X8.0033 Y5.9495 Z-1.0202
G01 X7.9339 Y6.0220 Z-1.0312
G01 X7.8652 Y6.0955 Z-1.0429
G01 X7.7882 Y6.1781 Z-1.0559
G01 X7.7194 Y6.2556 Z-1.0671
G01 X7.6521 Y6.3351 Z-1.0795
G01 X7.5855 Y6.4156 Z-1.0926
G01 X7.5188 Y6.4960 Z-1.1056
G01 X7.4526 Y6.5770 Z-1.1189
G01 X7.3877 Y6.6598 Z-1.1334
G01 X7.3100 Y6.7619 Z-1.1519
G01 X7.2495 Y6.8442 Z-1.1658
G01 X7.1893 Y6.9271 Z-1.1800
G01 X7.1305 Y7.0117 Z-1.1954
G01 X7.0727 Y7.0974 Z-1.2114
G01 X7.0148 Y7.1832 Z-1.2275
G01 X6.9571 Y7.2691 Z-1.2437
G01 X6.8968 Y7.3624 Z-1.2620
G01 X6.8449 Y7.4494 Z-1.2787
G01 X6.7932 Y7.5366 Z-1.2956
G01 X6.7415 Y7.6238 Z-1.3125
G01 X6.6905 Y7.7118 Z-1.3298
G01 X6.6407 Y7.8013 Z-1.3482
G01 X6.5917 Y7.8919 Z-1.3672
G01 X6.5449 Y7.9787 Z-1.3854
G01 X6.4929 Y8.0798 Z-1.4055
G01 X6.4421 Y8.1822 Z-1.4265
G01 X6.3929 Y8.2863 Z-1.4486
G01 X6.3440 Y8.3909 Z-1.4711
G01 X6.2952 Y8.4955 Z-1.4935
G01 X6.2109 Y8.6887 Z-1.5351
G01 X6.1692 Y8.7942 Z-1.5582
G01 X6.1290 Y8.9011 Z-1.5823
G01 X6.0895 Y9.0088 Z-1.6070
G01 X6.0509 Y9.1175 Z-1.6323
G01 X5.9938 Y9.2959 Z-1.6744
G01 X5.9625 Y9.4051 Z-1.7004
G01 X5.9327 Y9.5155 Z-1.7273
G01 X5.9038 Y9.6269 Z-1.7549
G01 X5.8754 Y9.7388 Z-1.7829
G01 X5.8403 Y9.8950 Z-1.8221
G01 X5.8186 Y10.0062 Z-1.8501
G01 X5.7981 Y10.1185 Z-1.8789
G01 X5.7787 Y10.2318 Z-1.9085
G01 X5.7596 Y10.3453 Z-1.9382
G01 X5.7411 Y10.4734 Z-1.9717
G01 X5.7279 Y10.5853 Z-2.0010
G01 X5.7158 Y10.6982 Z-2.0310
G01 X5.7048 Y10.8118 Z-2.0616
G01 X5.6866 Y11.0221 Z-2.1183
G01 X5.6809 Y11.1336 Z-2.1481
G01 X5.6763 Y11.2458 Z-2.1786
G01 X5.6725 Y11.3586 Z-2.2096
G01 X5.6680 Y11.5625 Z-2.2654
G01 X5.6694 Y11.6912 Z-2.3004
G01 X5.6721 Y11.8208 Z-2.3362
G01 X5.6786 Y12.0365 Z-2.3957
G01 X5.6866 Y12.1628 Z-2.4302
G01 X5.6959 Y12.2899 Z-2.4654
G01 X5.7103 Y12.4717 Z-2.5156
G01 X5.7240 Y12.5952 Z-2.5491
G01 X5.7390 Y12.7194 Z-2.5833
G01 X5.7581 Y12.8704 Z-2.6250
G01 X5.7768 Y12.9910 Z-2.6572
G01 X5.7967 Y13.1120 Z-2.6901
G01 X5.8179 Y13.2362 Z-2.7242
G01 X5.8414 Y13.3540 Z-2.7553
G01 X5.8656 Y13.4719 Z-2.7867
G01 X5.9154 Y13.6891 Z-2.8444
G01 X5.9437 Y13.8042 Z-2.8744
G01 X5.9970 Y14.0017 Z-2.9257
G01 X6.0298 Y14.1143 Z-2.9545
G01 X6.0863 Y14.2976 Z-3.0007
G01 X6.1230 Y14.4078 Z-3.0284
G01 X6.1842 Y14.5823 Z-3.0714
G01 X6.2241 Y14.6904 Z-3.0975
G01 X6.2912 Y14.8609 Z-3.1385
G01 X6.3349 Y14.9673 Z-3.1636
G01 X6.3520 Y15.1377 Z-3.1750
G01 X6.3514 Y15.2424
G01 X6.3527 Y15.3011
G01 X6.3592 Y15.4001
G01 X6.3656 Y15.4992
G01 X6.3721 Y15.5983
G01 X6.3785 Y15.6974
G01 X6.3850 Y15.7964
G01 X6.3955 Y15.8935
G01 X6.4060 Y15.9875
G01 X6.4164 Y16.0815
G01 X6.4268 Y16.1755
G01 X6.4372 Y16.2695
G01 X6.4609 Y16.4404
G01 X6.4771 Y16.5405
G01 X6.4933 Y16.6405
G01 X6.5095 Y16.7405
G01 X6.5363 Y16.8831
G01 X6.5569 Y16.9774
G01 X6.5775 Y17.0717
G01 X6.5982 Y17.1660
G01 X6.6279 Y17.2819
G01 X6.6566 Y17.3832
G01 X6.6853 Y17.4845
G01 X6.7130 Y17.5724
G01 X6.7467 Y17.6671
G01 X6.7917 Y17.7910
G01 X6.8305 Y17.8791
G01 X6.8753 Y17.9769
G01 X6.9266 Y18.0722
G01 X6.7841 Y18.1588 Z-3.0917
G01 X7.0366 Y18.1596 Z-3.1750
G01 X7.1414 Y18.1862
G01 X7.2453 Y18.2057
G01 X7.3695 Y18.2256
G01 X7.4694 Y18.2354
G01 X7.5694 Y18.2452
G01 X7.6597 Y18.2506
G01 X7.7648 Y18.2539
G01 X7.8698 Y18.2572
G01 X7.9749 Y18.2604
G01 X8.0864 Y18.2623
G01 X8.1873
G01 X8.2881
G01 X8.3890
G01 X8.4899
G01 X8.5908
G01 X8.7236 Y18.2603
G01 X8.8287 Y18.2574
G01 X8.9338 Y18.2545
G01 X9.0697 Y18.2470
G01 X9.1750 Y18.2984 Z-3.1449
G01 X9.2755 Y18.4131 Z-3.0820
G01 X9.3940 Y18.5517 Z-3.0046
G01 X9.4564 Y18.6229 Z-2.9639
G01 X9.5848 Y18.7724 Z-2.8768
G01 X9.6756 Y18.8759 Z-2.8144
G01 X9.7120 Y18.9188 Z-2.7885
G01 X9.3286 Y18.4746 Z-3.0476
G01 X9.1277 Y18.2394 Z-3.1750
G01 X9.1534 Y18.1217
G01 X9.1728 Y18.0197
G01 X9.1957 Y17.8820
G01 X9.2079 Y17.7896
G01 X9.2202 Y17.6972
G01 X9.2143 Y17.6451
G01 X9.1949 Y17.5519
G01 X9.1427 Y17.3686
G01 X9.1064 Y17.2770
G01 X9.0765 Y17.2185
G01 X9.0350 Y17.1573
G01 X8.9958 Y17.1128
G01 X8.9318 Y17.0528
G01 X8.7921 Y16.9463
G01 X8.7198 Y16.8947
G01 X8.5393 Y16.7630
G01 X8.4639 Y16.7068
G01 X8.3885 Y16.6505
G01 X8.3131 Y16.5943
G01 X8.1928 Y16.5037
G01 X8.1213 Y16.4493
G01 X8.0498 Y16.3950
G01 X7.9782 Y16.3406
G01 X7.8463 Y16.2391
G01 X7.7561 Y16.1691
G01 X7.6659 Y16.0990
G01 X7.5224 Y15.9864
G01 X7.4374 Y15.9188
G01 X7.3523 Y15.8512
G01 X7.2085 Y15.7356
G01 X7.1286 Y15.6705
G01 X7.0487 Y15.6054
G01 X6.9039 Y15.4857
G01 X6.8291 Y15.4230
G01 X6.7544 Y15.3604
G01 X6.6075 Y15.2354
G01 Z-6.3500
G01 X6.7544 Y15.3604
G01 X6.8291 Y15.4230
G01 X6.9039 Y15.4857
G01 X7.0487 Y15.6054
G01 X7.1286 Y15.6705
G01 X7.2085 Y15.7356
G01 X7.3523 Y15.8512
G01 X7.4374 Y15.9188
G01 X7.5224 Y15.9864
G01 X7.6659 Y16.0990
G01 X7.7561 Y16.1691
G01 X7.8463 Y16.2391
G01 X7.9782 Y16.3406
G01 X8.0498 Y16.3950
G01 X8.1213 Y16.4493
G01 X8.1928 Y16.5037
G01 X8.3131 Y16.5943
G01 X8.3885 Y16.6505
G01 X8.4639 Y16.7068
G01 X8.5393 Y16.7630
G01 X8.7198 Y16.8947
G01 X8.7921 Y16.9463
G01 X8.9318 Y17.0528
G01 X8.9958 Y17.1128
G01 X9.0350 Y17.1573
G01 X9.0765 Y17.2185
G01 X9.1064 Y17.2770
G01 X9.1427 Y17.3686
G01 X9.1949 Y17.5519
G01 X9.2143 Y17.6451
G01 X9.2202 Y17.6972
G01 X9.2079 Y17.7896
G01 X9.1957 Y17.8820
G01 X9.1728 Y18.0197
G01 X9.1534 Y18.1217
G01 X9.1277 Y18.2394
G01 X9.3286 Y18.4746 Z-6.0952
G01 X9.7120 Y18.9188 Z-5.5770
G01 X9.6756 Y18.8759 Z-5.6287
G01 X9.5848 Y18.7724 Z-5.7536
G01 X9.4564 Y18.6229 Z-5.9278
G01 X9.3940 Y18.5517 Z-6.0092
G01 X9.2755 Y18.4131 Z-6.1640
G01 X9.1750 Y18.2984 Z-6.2897
G01 X9.0697 Y18.2470 Z-6.3500
G01 X8.9338 Y18.2545
G01 X8.8287 Y18.2574
G01 X8.7236 Y18.2603
G01 X8.5908 Y18.2623
G01 X8.4899
G01 X8.3890
G01 X8.2881
G01 X8.1873
G01 X8.0864
G01 X7.9749 Y18.2604
G01 X7.8698 Y18.2572
G01 X7.7648 Y18.2539
G01 X7.6597 Y18.2506
G01 X7.5694 Y18.2452
G01 X7.4694 Y18.2354
G01 X7.3695 Y18.2256
G01 X7.2453 Y18.2057
G01 X7.1414 Y18.1862
G01 X7.0366 Y18.1596
G01 X6.7841 Y18.1588 Z-6.1835
G01 X6.9266 Y18.0722 Z-6.3500
G01 X6.8753 Y17.9769
G01 X6.8305 Y17.8791
G01 X6.7917 Y17.7910
G01 X6.7467 Y17.6671
G01 X6.7130 Y17.5724
G01 X6.6853 Y17.4845
G01 X6.6566 Y17.3832
G01 X6.6279 Y17.2819
G01 X6.5982 Y17.1660
G01 X6.5775 Y17.0717
G01 X6.5569 Y16.9774
G01 X6.5363 Y16.8831
G01 X6.5095 Y16.7405
G01 X6.4933 Y16.6405
G01 X6.4771 Y16.5405
G01 X6.4609 Y16.4404
G01 X6.4372 Y16.2695
G01 X6.4268 Y16.1755
G01 X6.4164 Y16.0815
G01 X6.4060 Y15.9875
G01 X6.3955 Y15.8935
G01 X6.3850 Y15.7964
G01 X6.3785 Y15.6974
G01 X6.3721 Y15.5983
G01 X6.3656 Y15.4992
G01 X6.3592 Y15.4001
G01 X6.3527 Y15.3011
G01 X6.3514 Y15.2424
G01 X6.3520 Y15.1377
G01 X6.3349 Y14.9673 Z-6.3272
G01 X6.2912 Y14.8609 Z-6.2771
G01 X6.2241 Y14.6904 Z-6.1951
G01 X6.1842 Y14.5823 Z-6.1427
G01 X6.1230 Y14.4078 Z-6.0568
G01 X6.0863 Y14.2976 Z-6.0014
G01 X6.0298 Y14.1143 Z-5.9091
G01 X5.9970 Y14.0017 Z-5.8513
G01 X5.9437 Y13.8042 Z-5.7488
G01 X5.9154 Y13.6891 Z-5.6887
G01 X5.8656 Y13.4719 Z-5.5734
G01 X5.8414 Y13.3540 Z-5.5106
G01 X5.8179 Y13.2362 Z-5.4485
G01 X5.7967 Y13.1120 Z-5.3803
G01 X5.7768 Y12.9910 Z-5.3145
G01 X5.7581 Y12.8704 Z-5.2500
G01 X5.7390 Y12.7194 Z-5.1666
G01 X5.7240 Y12.5952 Z-5.0982
G01 X5.7103 Y12.4717 Z-5.0313
G01 X5.6959 Y12.2899 Z-4.9307
G01 X5.6866 Y12.1628 Z-4.8603
G01 X5.6786 Y12.0365 Z-4.7915
G01 X5.6721 Y11.8208 Z-4.6724
G01 X5.6694 Y11.6912 Z-4.6007
G01 X5.6680 Y11.5625 Z-4.5307
G01 X5.6725 Y11.3586 Z-4.4192
G01 X5.6763 Y11.2458 Z-4.3572
G01 X5.6809 Y11.1336 Z-4.2961
G01 X5.6866 Y11.0221 Z-4.2366
G01 X5.7048 Y10.8118 Z-4.1232
G01 X5.7158 Y10.6982 Z-4.0620
G01 X5.7279 Y10.5853 Z-4.0019
G01 X5.7411 Y10.4734 Z-3.9435
G01 X5.7596 Y10.3453 Z-3.8764
G01 X5.7787 Y10.2318 Z-3.8170
G01 X5.7981 Y10.1185 Z-3.7579
G01 X5.8186 Y10.0062 Z-3.7001
G01 X5.8403 Y9.8950 Z-3.6442
G01 X5.8754 Y9.7388 Z-3.5658
G01 X5.9038 Y9.6269 Z-3.5099
G01 X5.9327 Y9.5155 Z-3.4547
G01 X5.9625 Y9.4051 Z-3.4008
G01 X5.9938 Y9.2959 Z-3.3489
G01 X6.0509 Y9.1175 Z-3.2647
G01 X6.0895 Y9.0088 Z-3.2140
G01 X6.1290 Y8.9011 Z-3.1647
G01 X6.1692 Y8.7942 Z-3.1164
G01 X6.2109 Y8.6887 Z-3.0702
G01 X6.2952 Y8.4955 Z-2.9870
G01 X6.3440 Y8.3909 Z-2.9421
G01 X6.3929 Y8.2863 Z-2.8973
G01 X6.4421 Y8.1822 Z-2.8530
G01 X6.4929 Y8.0798 Z-2.8110
G01 X6.5449 Y7.9787 Z-2.7708
G01 X6.5917 Y7.8919 Z-2.7344
G01 X6.6407 Y7.8013 Z-2.6963
G01 X6.6905 Y7.7118 Z-2.6596
G01 X6.7415 Y7.6238 Z-2.6249
G01 X6.7932 Y7.5366 Z-2.5912
G01 X6.8449 Y7.4494 Z-2.5575
G01 X6.8968 Y7.3624 Z-2.5240
G01 X6.9571 Y7.2691 Z-2.4875
G01 X7.0148 Y7.1832 Z-2.4550
G01 X7.0727 Y7.0974 Z-2.4229
G01 X7.1305 Y7.0117 Z-2.3907
G01 X7.1893 Y6.9271 Z-2.3600
G01 X7.2495 Y6.8442 Z-2.3315
G01 X7.3100 Y6.7619 Z-2.3037
G01 X7.3877 Y6.6598 Z-2.2669
G01 X7.4526 Y6.5770 Z-2.2379
G01 X7.5188 Y6.4960 Z-2.2112
G01 X7.5855 Y6.4156 Z-2.1851
G01 X7.6521 Y6.3351 Z-2.1591
G01 X7.7194 Y6.2556 Z-2.1342
G01 X7.7882 Y6.1781 Z-2.1118
G01 X7.8652 Y6.0955 Z-2.0858
G01 X7.9339 Y6.0220 Z-2.0625
G01 X8.0033 Y5.9495 Z-2.0404
G01 X8.0739 Y5.8789 Z-2.0206
G01 X8.1448 Y5.8087 Z-2.0012
G01 X8.2156 Y5.7384 Z-1.9818
G01 X8.2871 Y5.6691 Z-1.9635
G01 X8.3852 Y5.5808 Z-1.9403
G01 X8.4594 Y5.5147 Z-1.9229
G01 X8.5336 Y5.4486 Z-1.9055
G01 X8.6088 Y5.3841 Z-1.8901
G01 X8.6848 Y5.3208 Z-1.8761
G01 X8.7608 Y5.2576 Z-1.8621
G01 X8.8369 Y5.1944 Z-1.8482
G01 X8.9440 Y5.1121 Z-1.8303
G01 X9.0230 Y5.0527 Z-1.8179
G01 X9.1019 Y4.9933 Z-1.8054
G01 X9.1812 Y4.9346 Z-1.7936
G01 X9.2615 Y4.8776 Z-1.7840
G01 X9.3419 Y4.8208 Z-1.7744
G01 X9.4223 Y4.7640 Z-1.7649
G01 X9.5372 Y4.6877 Z-1.7516
G01 X9.6201 Y4.6345 Z-1.7432
G01 X9.7031 Y4.5812 Z-1.7347
G01 X9.7861 Y4.5281 Z-1.7265
G01 X9.8700 Y4.4767 Z-1.7201
G01 X9.9541 Y4.4257 Z-1.7142
G01 X10.0382 Y4.3747 Z-1.7083
G01 X10.1598 Y4.3045 Z-1.6988
G01 X10.2461 Y4.2568 Z-1.6936
G01 X10.3325 Y4.2091 Z-1.6884
G01 X10.4189 Y4.1614 Z-1.6832
G01 X10.5057 Y4.1147 Z-1.6790
G01 X10.5930 Y4.0689 Z-1.6759
G01 X10.6803 Y4.0232 Z-1.6729
G01 X10.8076 Y3.9589 Z-1.6666
G01 X10.8968 Y3.9159 Z-1.6636
G01 X10.9861 Y3.8733 Z-1.6609
G01 X11.0754 Y3.8306 Z-1.6582
G01 X11.1647 Y3.7879 Z-1.6556
G01 X11.2547 Y3.7467 Z-1.6544
G01 X11.3447 Y3.7057 Z-1.6536
G01 X11.4772 Y3.6475 Z-1.6503
G01 X11.5686 Y3.6081 Z-1.6482
G01 X11.6605 Y3.5699 Z-1.6474
G01 X11.7523 Y3.5318 Z-1.6466
G01 X11.8442 Y3.4936 Z-1.6459
G01 X11.9361 Y3.4555 Z-1.6452
G01 X12.0286 Y3.4187 Z-1.6459
G01 X12.1657 Y3.3664 Z-1.6451
G01 X12.2593 Y3.3310 Z-1.6443
G01 X12.3526 Y3.2945 Z-1.6422
G01 X12.4456 Y3.2573 Z-1.6396
G01 X12.5387 Y3.2202 Z-1.6370
G01 X12.6317 Y3.1831 Z-1.6344
G01 X12.7251 Y3.1469 Z-1.6328
G01 X12.8652 Y3.0952 Z-1.6288
G01 X12.9600 Y3.0604 Z-1.6259
G01 X13.0548 Y3.0257 Z-1.6229
G01 X13.1499 Y2.9921 Z-1.6210
G01 X13.2450 Y2.9585 Z-1.6193
G01 X13.3402 Y2.9250 Z-1.6176
G01 X13.4353 Y2.8915 Z-1.6158
G01 X13.5801 Y2.8438 Z-1.6124
G01 X13.6769 Y2.8127 Z-1.6103
G01 X13.7738 Y2.7815 Z-1.6082
G01 X13.8707 Y2.7504 Z-1.6061
G01 X13.9677 Y2.7199 Z-1.6047
G01 X14.0649 Y2.6899 Z-1.6038
G01 X14.1622 Y2.6600 Z-1.6029
G01 X14.2127 Y2.6448 Z-1.6021
G01 X14.3113 Y2.6161 Z-1.5996
G01 X14.4101 Y2.5881 Z-1.5979
G01 X14.5090 Y2.5605 Z-1.5966
G01 X14.6079 Y2.5329 Z-1.5954
G01 X14.7068 Y2.5053 Z-1.5941
G01 X14.8058 Y2.4780 Z-1.5931
G01 X14.9050 Y2.4515 Z-1.5930
G01 X14.9583 Y2.4378 Z-1.5925
G01 X15.0589 Y2.4126 Z-1.5908
G01 X15.1595 Y2.3873 Z-1.5892
G01 X15.2603 Y2.3625 Z-1.5879
G01 X15.3611 Y2.3385 Z-1.5874
G01 X15.4620 Y2.3144 Z-1.5869
G01 X15.5629 Y2.2903 Z-1.5864
G01 X15.6638 Y2.2662 Z-1.5859
G01 X15.7198 Y2.2539 Z-1.5857
G01 X15.8223 Y2.2321 Z-1.5847
G01 X15.9249 Y2.2104 Z-1.5838
G01 X16.0275 Y2.1887 Z-1.5829
G01 X16.1301 Y2.1671 Z-1.5820
G01 X16.2329 Y2.1464 Z-1.5822
G01 X16.3357 Y2.1258 Z-1.5824
G01 X16.4385 Y2.1052 Z-1.5826
G01 X16.4971 Y2.0939 Z-1.5823
G01 X16.6014 Y2.0747 Z-1.5811
G01 X16.7059 Y2.0565 Z-1.5809
G01 X16.8104 Y2.0383 Z-1.5807
G01 X16.9149 Y2.0200 Z-1.5805
G01 X17.0193 Y2.0018 Z-1.5802
G01 X17.1240 Y1.9842 Z-1.5808
G01 X17.2286 Y1.9671 Z-1.5816
G01 X17.2840 Y1.9583 Z-1.5817
G01 X17.3784 Y1.9442 Z-1.5811
G01 X17.4728 Y1.9301 Z-1.5806
G01 X17.5673 Y1.9164 Z-1.5804
G01 X17.6618 Y1.9032 Z-1.5808
G01 X17.7563 Y1.8900 Z-1.5812
G01 X17.8509 Y1.8768 Z-1.5816
G01 X17.9454 Y1.8637 Z-1.5820
G01 X18.0400 Y1.8508 Z-1.5827
G01 X18.0921 Y1.8444 Z-1.5831
G01 X18.1881 Y1.8333
G01 X18.2842 Y1.8223
G01 X18.3802 Y1.8112
G01 X18.4763 Y1.8001
G01 X18.5724 Y1.7898 Z-1.5839
G01 X18.6686 Y1.7796 Z-1.5848
G01 X18.7647 Y1.7694 Z-1.5857
G01 X18.8609 Y1.7592 Z-1.5866
G01 X18.9154 Y1.7538 Z-1.5868
G01 X19.0130 Y1.7451 Z-1.5867
G01 X19.1107 Y1.7370 Z-1.5872
G01 X19.2083 Y1.7289 Z-1.5878
G01 X19.3060 Y1.7208 Z-1.5883
G01 X19.4036 Y1.7127 Z-1.5888
G01 X19.5013 Y1.7048 Z-1.5896
G01 X19.5991 Y1.6976 Z-1.5910
G01 X19.6968 Y1.6904 Z-1.5924
G01 X19.7538 Y1.6865 Z-1.5928
G01 X19.8530 Y1.6805 Z-1.5929
G01 X19.9522 Y1.6745 Z-1.5931
G01 X20.0514 Y1.6691 Z-1.5939
G01 X20.1507 Y1.6639 Z-1.5949
G01 X20.2499 Y1.6588 Z-1.5959
G01 X20.3492 Y1.6536 Z-1.5969
G01 X20.4484 Y1.6484 Z-1.5979
G01 X20.5477 Y1.6438 Z-1.5994
G01 X20.6072 Y1.6416 Z-1.6001
G01 X20.7080 Y1.6385 Z-1.6007
G01 X20.8087 Y1.6354 Z-1.6013
G01 X20.9095 Y1.6323 Z-1.6019
G01 X21.0103 Y1.6293 Z-1.6026
G01 X21.1111 Y1.6270 Z-1.6041
G01 X21.2119 Y1.6248 Z-1.6055
G01 X21.3127 Y1.6225 Z-1.6070
G01 X21.4135 Y1.6203 Z-1.6084
G01 X21.4755 Y1.6193 Z-1.6089
G01 X21.5778 Y1.6189 Z-1.6097
G01 X21.6802 Y1.6192 Z-1.6113
G01 X21.7825 Y1.6194 Z-1.6128
G01 X21.8848 Y1.6197 Z-1.6143
G01 X21.9872 Y1.6200 Z-1.6158
G01 X22.0895 Y1.6203 Z-1.6173
G01 X22.1919 Y1.6206 Z-1.6188
G01 X22.2942 Y1.6209 Z-1.6204
G01 X22.3549 Y1.6215 Z-1.6209
G01 X22.4565 Y1.6247 Z-1.6228
G01 X22.5582 Y1.6281 Z-1.6249
G01 X22.6599 Y1.6316 Z-1.6269
G01 X22.7616 Y1.6350 Z-1.6290
G01 X22.8632 Y1.6384 Z-1.6310
G01 X22.9649 Y1.6418 Z-1.6331
G01 X23.0666 Y1.6453 Z-1.6351
G01 X23.1682 Y1.6487 Z-1.6372
G01 X23.2699 Y1.6536 Z-1.6407
G01 X23.3715 Y1.6590 Z-1.6447
G01 X23.4732 Y1.6643 Z-1.6487
G01 X23.5748 Y1.6697 Z-1.6527
G01 X23.6302 Y1.6730 Z-1.6545
G01 X23.7304 Y1.6796 Z-1.6570
G01 X23.8305 Y1.6863 Z-1.6596
G01 X23.9307 Y1.6929 Z-1.6621
G01 X24.0308 Y1.7001 Z-1.6651
G01 X24.1309 Y1.7087 Z-1.6697
G01 X24.2309 Y1.7173 Z-1.6742
G01 X24.3310 Y1.7259 Z-1.6787
G01 X24.4311 Y1.7346 Z-1.6832
G01 X24.5311 Y1.7432 Z-1.6877
G01 X24.6312 Y1.7518 Z-1.6922
G01 X24.7313 Y1.7605 Z-1.6968
G01 X24.8313 Y1.7696 Z-1.7018
G01 X24.8826 Y1.7754 Z-1.7047
G01 X24.9810 Y1.7873 Z-1.7098
G01 X25.0795 Y1.7992 Z-1.7149
G01 X25.1779 Y1.8111 Z-1.7200
G01 X25.2764 Y1.8231 Z-1.7251
G01 X25.3748 Y1.8350 Z-1.7302
G01 X25.4733 Y1.8469 Z-1.7353
G01 X25.5717 Y1.8589 Z-1.7403
G01 X25.6701 Y1.8722 Z-1.7469
G01 X25.7684 Y1.8863 Z-1.7541
G01 X25.8667 Y1.9003 Z-1.7613
G01 X25.9650 Y1.9143 Z-1.7684
G01 X26.0633 Y1.9283 Z-1.7756
G01 X26.1098 Y1.9353 Z-1.7787
G01 X26.2066 Y1.9505 Z-1.7844
G01 X26.3034 Y1.9658 Z-1.7900
G01 X26.4001 Y1.9814 Z-1.7961
G01 X26.4967 Y1.9987 Z-1.8039
G01 X26.5933 Y2.0161 Z-1.8117
G01 X26.6899 Y2.0335 Z-1.8195
G01 X26.7865 Y2.0509 Z-1.8273
G01 X26.8831 Y2.0682 Z-1.8351
G01 X26.9797 Y2.0856 Z-1.8430
G01 X27.0762 Y2.1030 Z-1.8508
G01 X27.1728 Y2.1208 Z-1.8590
G01 X27.2692 Y2.1403 Z-1.8689
G01 X27.4050 Y2.1696 Z-1.8814
G01 X27.4998 Y2.1904 Z-1.8898
G01 X27.5946 Y2.2111 Z-1.8983
G01 X27.6895 Y2.2318 Z-1.9068
G01 X27.7843 Y2.2526 Z-1.9152
G01 X27.8791 Y2.2733 Z-1.9237
G01 X27.9738 Y2.2952 Z-1.9333
G01 X28.0683 Y2.3182 Z-1.9441
G01 X28.1628 Y2.3411 Z-1.9548
G01 X28.2574 Y2.3641 Z-1.9655
G01 X28.3519 Y2.3870 Z-1.9762
G01 X28.4465 Y2.4100 Z-1.9869
G01 X28.5860 Y2.4458 Z-2.0009
G01 X28.6867 Y2.4723 Z-2.0111
G01 X28.7871 Y2.5006 Z-2.0232
G01 X28.8875 Y2.5291 Z-2.0355
G01 X28.9879 Y2.5576 Z-2.0479
G01 X29.0883 Y2.5861 Z-2.0602
G01 X29.1886 Y2.6147 Z-2.0726
G01 X29.2890 Y2.6432 Z-2.0849
G01 X29.3894 Y2.6717 Z-2.0972
G01 X29.4896 Y2.7016 Z-2.1109
G01 X29.5896 Y2.7326 Z-2.1258
G01 X29.7235 Y2.7761 Z-2.1439
G01 X29.8218 Y2.8083 Z-2.1570
G01 X29.9201 Y2.8404 Z-2.1701
G01 X30.0184 Y2.8726 Z-2.1832
G01 X30.1167 Y2.9048 Z-2.1963
G01 X30.2148 Y2.9378 Z-2.2102
G01 X30.3127 Y2.9724 Z-2.2258
G01 X30.4105 Y3.0070 Z-2.2414
G01 X30.5083 Y3.0416 Z-2.2570
G01 X30.6061 Y3.0763 Z-2.2726
G01 X30.7040 Y3.1109 Z-2.2883
G01 X30.8283 Y3.1569 Z-2.3064
G01 X30.9244 Y3.1930 Z-2.3205
G01 X31.0201 Y3.2309 Z-2.3365
G01 X31.1157 Y3.2691 Z-2.3529
G01 X31.2113 Y3.3074 Z-2.3692
G01 X31.3069 Y3.3456 Z-2.3856
G01 X31.4025 Y3.3838 Z-2.4019
G01 X31.4981 Y3.4221 Z-2.4183
G01 X31.5937 Y3.4603 Z-2.4347
G01 X31.6892 Y3.4993 Z-2.4518
G01 X31.7843 Y3.5399 Z-2.4705
G01 X31.8978 Y3.5905 Z-2.4915
G01 X31.9912 Y3.6323 Z-2.5086
G01 X32.0845 Y3.6741 Z-2.5256
G01 X32.1779 Y3.7158 Z-2.5427
G01 X32.2712 Y3.7576 Z-2.5598
G01 X32.3645 Y3.7995 Z-2.5769
G01 X32.4575 Y3.8427 Z-2.5955
G01 X32.5502 Y3.8869 Z-2.6151
G01 X32.6429 Y3.9311 Z-2.6347
G01 X32.7356 Y3.9754 Z-2.6543
G01 X32.8283 Y4.0196 Z-2.6740
G01 X32.9314 Y4.0707 Z-2.6942
G01 X33.0224 Y4.1160 Z-2.7120
G01 X33.1134 Y4.1614 Z-2.7299
G01 X33.2039 Y4.2084 Z-2.7495
G01 X33.2943 Y4.2561 Z-2.7697
G01 X33.3846 Y4.3038 Z-2.7900
G01 X33.4749 Y4.3514 Z-2.8103
G01 X33.5653 Y4.3991 Z-2.8306
G01 X33.6556 Y4.4468 Z-2.8509
G01 X33.7459 Y4.4945 Z-2.8712
G01 X33.8362 Y4.5423 Z-2.8916
G01 X33.9281 Y4.5945 Z-2.9125
G01 X34.0160 Y4.6456 Z-2.9334
G01 X34.1039 Y4.6966 Z-2.9543
G01 X34.1919 Y4.7477 Z-2.9752
G01 X34.2798 Y4.7987 Z-2.9961
G01 X34.3677 Y4.8498 Z-3.0171
G01 X34.4556 Y4.9008 Z-3.0380
G01 X34.5435 Y4.9519 Z-3.0589
G01 X34.6311 Y5.0040 Z-3.0810
G01 X34.7183 Y5.0574 Z-3.1043
G01 X34.8862 Y5.1622 Z-3.1480
G01 X34.9717 Y5.2165 Z-3.1695
G01 X35.0572 Y5.2708 Z-3.1910
G01 X35.1427 Y5.3252 Z-3.2125
G01 X35.2282 Y5.3795 Z-3.2340
G01 X35.3135 Y5.4343 Z-3.2560
G01 X35.3983 Y5.4905 Z-3.2795
G01 X35.4830 Y5.5471 Z-3.3034
G01 X35.5677 Y5.6037 Z-3.3273
G01 X35.6523 Y5.6603 Z-3.3512
G01 X35.8072 Y5.7657 Z-3.3936
G01 X35.8902 Y5.8232 Z-3.4157
G01 X35.9733 Y5.8808 Z-3.4377
G01 X36.0560 Y5.9392 Z-3.4607
G01 X36.1382 Y5.9987 Z-3.4849
G01 X36.2204 Y6.0585 Z-3.5093
G01 X36.3025 Y6.1182 Z-3.5337
G01 X36.3847 Y6.1779 Z-3.5581
G01 X36.4668 Y6.2376 Z-3.5825
G01 X36.5490 Y6.2973 Z-3.6068
G01 X36.6911 Y6.4025 Z-3.6479
G01 X36.7714 Y6.4639 Z-3.6711
G01 X36.8516 Y6.5254 Z-3.6946
G01 X36.9319 Y6.5868 Z-3.7180
G01 X37.0121 Y6.6483 Z-3.7414
G01 X37.0923 Y6.7098 Z-3.7648
G01 X37.1725 Y6.7713 Z-3.7883
G01 X37.2527 Y6.8328 Z-3.8117
G01 X37.3329 Y6.8943 Z-3.8352
G01 X37.4127 Y6.9568 Z-3.8597
G01 X37.5424 Y7.0624 Z-3.9005
G01 X37.6201 Y7.1269 Z-3.9243
G01 X37.6978 Y7.1914 Z-3.9482
G01 X37.7756 Y7.2559 Z-3.9720
G01 X37.8533 Y7.3204 Z-3.9959
G01 X37.9311 Y7.3849 Z-4.0197
G01 X38.0088 Y7.4494 Z-4.0436
G01 X38.0862 Y7.5145 Z-4.0682
G01 X38.1631 Y7.5808 Z-4.0939
G01 X38.2399 Y7.6473 Z-4.1200
G01 X38.3581 Y7.7515 Z-4.1592
G01 X38.4334 Y7.8190 Z-4.1835
G01 X38.5086 Y7.8864 Z-4.2077
G01 X38.5839 Y7.9539 Z-4.2320
G01 X38.6591 Y8.0214 Z-4.2563
G01 X38.7343 Y8.0891 Z-4.2808
G01 X38.8089 Y8.1577 Z-4.3064
G01 X38.8831 Y8.2271 Z-4.3329
G01 X38.9573 Y8.2965 Z-4.3594
G01 X39.0315 Y8.3660 Z-4.3858
G01 X39.1390 Y8.4683 Z-4.4233
G01 X39.2118 Y8.5387 Z-4.4480
G01 X39.2845 Y8.6092 Z-4.4727
G01 X39.3572 Y8.6796 Z-4.4975
G01 X39.4297 Y8.7504 Z-4.5227
G01 X39.5016 Y8.8223 Z-4.5490
G01 X39.5733 Y8.8946 Z-4.5759
G01 X39.6449 Y8.9669 Z-4.6028
G01 X39.7166 Y9.0392 Z-4.6297
G01 X39.7882 Y9.1115 Z-4.6566
G01 X39.8858 Y9.2117 Z-4.6924
G01 X39.9560 Y9.2850 Z-4.7176
G01 X40.0262 Y9.3584 Z-4.7427
G01 X40.0961 Y9.4322 Z-4.7684
